(Block-name: Header)
(Block-expand: 0)
(Block-enable: 1)
( pcb2gcode 1.3.2 )
( Software-independent Gcode )

G94 ( Millimeters per minute feed rate. )
G21 ( Units == Millimeters. )

G90 ( Absolute coordinates. )
(Block-name: block)
(Block-expand: 0)
(Block-enable: 1)
G00 S10000 ( RPM spindle speed. )
G64 P0.01000 ( set maximum deviation from commanded toolpath )
G01 F600.00000 ( Feedrate. )

G01 F600.00000 ( Feedrate. )
M3 ( Spindle on clockwise. )
G04 P1.00000
G04 P0 ( dwell for no time -- G64 should not smooth over this point )
G0 Z5
(Block-name: block)
(Block-expand: 0)
(Block-enable: 1)

G0 X61.9593 Y34.611
G01 F300.00000
G1 Z-0.05
G04 P0 ( dwell for no time -- G64 should not smooth over this point )
G01 F600.00000
G1 X61.9593 Y34.611
G1 X61.9563 Y35.9843
G1 X61.9297 Y36.0783
G1 X61.8507 Y36.1896
G1 X61.7533 Y36.2547
G1 X61.6473 Y36.2835
G1 X58.5106 Y36.2855
G1 X58.4233 Y36.2737
G1 X58.3045 Y36.2175
G1 X58.2399 Y36.1576
G1 X58.1881 Y36.0717
G1 X58.161 Y35.9453
G1 X58.1605 Y35.7355
G1 X47.7276 Y35.7355
G1 X47.7276 Y37.6477
G1 X47.6966 Y37.8107
G1 X47.6459 Y37.9056
G1 X47.5192 Y38.0269
G1 X47.3557 Y38.0905
G1 X46.2208 Y38.0977
G1 X46.1863 Y38.174
G1 X46.0636 Y38.3438
G1 X45.8935 Y38.4992
G1 X45.7029 Y38.6092
G1 X45.5037 Y38.6745
G1 X45.1694 Y38.6997
G1 X44.9509 Y38.6745
G1 X44.7517 Y38.6092
G1 X44.5612 Y38.4992
G1 X44.405 Y38.3594
G1 X44.274 Y38.1828
G1 X44.2338 Y38.0977
G1 X40.1473 Y38.0977
G1 X40.05 Y38.0867
G1 X39.9057 Y38.0269
G1 X39.8291 Y37.9659
G1 X34.8718 Y33.0086
G1 X34.5981 Y33.0775
G1 X34.3578 Y33.0759
G1 X34.1432 Y33.0297
G1 X33.9424 Y32.9409
G1 X33.7397 Y32.7936
G1 X33.5932 Y32.6301
G1 X33.483 Y32.4402
G1 X33.4072 Y32.2122
G1 X33.3837 Y31.9731
G1 X33.4072 Y31.7544
G1 X33.4594 Y31.5963
G1 X31.0709 Y29.2077
G1 X29.575 Y29.2077
G1 X29.4806 Y29.3339
G1 X29.3559 Y29.4454
G1 X29.1922 Y29.538
G1 X29.0227 Y29.5908
G1 X28.8563 Y29.6077
G1 X27.7147 Y29.6077
G1 X27.538 Y29.5891
G1 X27.3597 Y29.5295
G1 X27.2151 Y29.4454
G1 X27.0904 Y29.3339
G1 X26.9843 Y29.1915
G1 X26.9063 Y29.0204
G1 X26.8694 Y28.8465
G1 X26.871 Y28.6585
G1 X26.9063 Y28.495
G1 X26.9738 Y28.342
G1 X27.0764 Y28.1971
G1 X27.2239 Y28.0644
G1 X27.3788 Y27.9774
G1 X27.538 Y27.9263
G1 X27.7147 Y27.9077
G1 X28.8563 Y27.9077
G1 X29.033 Y27.9263
G1 X29.2113 Y27.986
G1 X29.364 Y28.0766
G1 X29.4806 Y28.1816
G1 X29.575 Y28.3077
G1 X31.2573 Y28.3077
G1 X31.4203 Y28.3387
G1 X31.5152 Y28.3894
G1 X34.0944 Y30.9585
G1 X34.3681 Y30.8895
G1 X34.6084 Y30.8912
G1 X34.823 Y30.9374
G1 X35.0238 Y31.0261
G1 X35.2192 Y31.1661
G1 X35.3787 Y31.3457
G1 X35.488 Y31.5361
G1 X35.5564 Y31.7447
G1 X35.5826 Y31.994
G1 X35.559 Y32.2126
G1 X35.5068 Y32.3708
G1 X40.3337 Y37.1977
G1 X44.2338 Y37.1977
G1 X44.274 Y37.1127
G1 X44.3911 Y36.9516
G1 X44.5699 Y36.7905
G1 X44.7517 Y36.6862
G1 X44.9509 Y36.6209
G1 X45.1798 Y36.5952
G1 X45.5037 Y36.6209
G1 X45.7029 Y36.6862
G1 X45.8847 Y36.7905
G1 X46.0636 Y36.9516
G1 X46.1806 Y37.1127
G1 X46.2208 Y37.1977
G1 X46.8276 Y37.1977
G1 X46.8276 Y35.3149
G1 X46.857 Y35.1602
G1 X46.857 Y33.3424
G1 X37.6423 Y24.1277
G1 X29.575 Y24.1277
G1 X29.4806 Y24.2539
G1 X29.3559 Y24.3654
G1 X29.1922 Y24.458
G1 X29.033 Y24.5092
G1 X28.8563 Y24.5277
G1 X27.7147 Y24.5277
G1 X27.538 Y24.5092
G1 X27.3597 Y24.4495
G1 X27.2069 Y24.3588
G1 X27.0904 Y24.2539
G1 X26.9961 Y24.1277
G1 X25.9046 Y24.1272
G1 X25.7514 Y24.0968
G1 X25.6035 Y24.0025
G1 X25.5028 Y23.8588
G1 X25.4644 Y23.6777
G1 X25.4644 Y13.5177
G1 X25.4754 Y13.4204
G1 X25.5352 Y13.2761
G1 X25.5896 Y13.2068
G1 X25.6728 Y13.1385
G1 X25.8363 Y13.0749
G1 X26.9961 Y13.0677
G1 X27.0904 Y12.9416
G1 X27.2069 Y12.8366
G1 X27.3597 Y12.746
G1 X27.538 Y12.6863
G1 X27.7147 Y12.6677
G1 X28.8563 Y12.6677
G1 X29.033 Y12.6863
G1 X29.1922 Y12.7374
G1 X29.3559 Y12.83
G1 X29.4806 Y12.9416
G1 X29.575 Y13.0677
G1 X38.9703 Y13.0677
G1 X42.451 Y9.587
G1 X42.3988 Y9.4288
G1 X42.3753 Y9.2102
G1 X42.4014 Y8.9609
G1 X42.4698 Y8.7523
G1 X42.5791 Y8.5619
G1 X42.7387 Y8.3823
G1 X42.934 Y8.2423
G1 X43.1348 Y8.1535
G1 X43.3597 Y8.1057
G1 X43.5897 Y8.1057
G1 X43.8045 Y8.1508
G1 X44.0335 Y8.2528
G1 X44.2108 Y8.3823
G1 X44.3646 Y8.5531
G1 X44.4796 Y8.7523
G1 X44.5523 Y8.9813
G1 X44.5742 Y9.2102
G1 X44.548 Y9.4385
G1 X44.4796 Y9.6471
G1 X44.358 Y9.8544
G1 X44.2108 Y10.0172
G1 X44.0335 Y10.1466
G1 X43.8146 Y10.2459
G1 X43.5897 Y10.2937
G1 X43.3702 Y10.2942
G1 X43.086 Y10.2248
G1 X39.4749 Y13.8359
G1 X39.3197 Y13.9368
G1 X39.1567 Y13.9677
G1 X29.575 Y13.9677
G1 X29.4806 Y14.0939
G1 X29.364 Y14.1988
G1 X29.2113 Y14.2895
G1 X29.0431 Y14.3464
G1 X28.8563 Y14.3677
G1 X27.7147 Y14.3677
G1 X27.5483 Y14.3508
G1 X27.3788 Y14.298
G1 X27.2151 Y14.2054
G1 X27.0904 Y14.0939
G1 X26.9961 Y13.9677
G1 X26.3644 Y13.9677
G1 X26.3644 Y23.2277
G1 X26.9961 Y23.2277
G1 X27.083 Y23.109
G1 X27.2239 Y22.9844
G1 X27.3788 Y22.8974
G1 X27.538 Y22.8463
G1 X27.7147 Y22.8277
G1 X28.8563 Y22.8277
G1 X29.033 Y22.8463
G1 X29.2113 Y22.9059
G1 X29.364 Y22.9966
G1 X29.488 Y23.109
G1 X29.575 Y23.2277
G1 X37.8287 Y23.2277
G1 X37.926 Y23.2387
G1 X38.0703 Y23.2985
G1 X38.1469 Y23.3595
G1 X47.6318 Y32.8451
G1 X47.7261 Y32.993
G1 X47.7565 Y33.1462
G1 X47.757 Y34.8355
G1 X58.1605 Y34.8355
G1 X58.1658 Y34.5769
G1 X58.1881 Y34.4993
G1 X58.2315 Y34.4255
G1 X58.2904 Y34.3634
G1 X58.3743 Y34.3131
G1 X58.5106 Y34.2855
G1 X61.6473 Y34.2875
G1 X61.7533 Y34.3164
G1 X61.8646 Y34.3953
G1 X61.9348 Y34.5038
G1 X61.9593 Y34.611
G04 P0 ( dwell for no time -- G64 should not smooth over this point )
G0 Z5
(Block-name: block)
(Block-expand: 0)
(Block-enable: 1)

G0 X63.368 Y25.7474
G01 F300.00000
G1 Z-0.05
G04 P0 ( dwell for no time -- G64 should not smooth over this point )
G01 F600.00000
G1 X63.368 Y25.7474
G1 X63.3608 Y36.5966
G1 X63.3295 Y36.6996
G1 X63.2362 Y36.8367
G1 X61.2792 Y38.7835
G1 X61.2024 Y38.8268
G1 X61.0994 Y38.858
G1 X60.5105 Y38.8652
G1 X60.5105 Y39.3655
G1 X60.9709 Y39.3661
G1 X61.1785 Y39.3901
G1 X61.3672 Y39.452
G1 X61.5395 Y39.5508
G1 X61.7036 Y39.6964
G1 X61.8208 Y39.8567
G1 X61.9116 Y40.0565
G1 X61.9556 Y40.2714
G1 X61.9534 Y40.4804
G1 X61.9078 Y40.6843
G1 X61.8265 Y40.8655
G1 X61.6962 Y41.0421
G1 X61.5483 Y41.1745
G1 X61.3672 Y41.2791
G1 X61.1785 Y41.341
G1 X60.9605 Y41.3655
G1 X59.1605 Y41.3655
G1 X58.9629 Y41.3453
G1 X58.7538 Y41.2791
G1 X58.5727 Y41.1745
G1 X58.4108 Y41.0265
G1 X58.2716 Y40.8155
G1 X47.4554 Y40.8155
G1 X47.2743 Y40.7771
G1 X47.1975 Y40.7338
G1 X47.0912 Y40.6377
G1 X46.3273 Y40.6377
G1 X46.3254 Y41.1597
G1 X46.298 Y41.2109
G1 X46.2468 Y41.2383
G1 X44.2273 Y41.2402
G1 X44.1717 Y41.2234
G1 X44.1292 Y41.1597
G1 X44.1273 Y40.6377
G1 X16.4134 Y40.6377
G1 X16.3161 Y40.6267
G1 X16.1718 Y40.5669
G1 X16.0952 Y40.5059
G1 X9.877 Y34.2877
G1 X8.9925 Y34.2877
G1 X8.8819 Y34.4399
G1 X8.7502 Y34.5592
G1 X8.5885 Y34.6552
G1 X8.4103 Y34.7153
G1 X8.2131 Y34.7377
G1 X7.4131 Y34.7377
G1 X7.2159 Y34.7153
G1 X7.0568 Y34.6637
G1 X6.8929 Y34.5715
G1 X6.7377 Y34.4318
G1 X6.6289 Y34.2784
G1 X6.5572 Y34.1158
G1 X6.5175 Y33.9213
G1 X6.5197 Y33.7333
G1 X6.5572 Y33.5596
G1 X6.6289 Y33.397
G1 X6.7377 Y33.2436
G1 X6.8929 Y33.1039
G1 X7.0568 Y33.0118
G1 X7.2159 Y32.9601
G1 X7.4026 Y32.9383
G1 X8.2131 Y32.9377
G1 X8.4002 Y32.9574
G1 X8.4882 Y32.9854
G1 X8.4882 Y32.15
G1 X8.4002 Y32.178
G1 X8.2131 Y32.1977
G1 X7.4131 Y32.1977
G1 X7.226 Y32.178
G1 X7.0568 Y32.1237
G1 X6.8929 Y32.0315
G1 X6.7377 Y31.8918
G1 X6.6289 Y31.7384
G1 X6.5609 Y31.5856
G1 X6.5175 Y31.3813
G1 X6.5197 Y31.1933
G1 X6.5572 Y31.0196
G1 X6.6289 Y30.857
G1 X6.7517 Y30.6881
G1 X6.8929 Y30.5639
G1 X7.0377 Y30.4803
G1 X7.226 Y30.4174
G1 X7.4131 Y30.3977
G1 X8.2131 Y30.3977
G1 X8.4002 Y30.4174
G1 X8.4882 Y30.4454
G1 X8.4882 Y29.61
G1 X8.4002 Y29.638
G1 X8.2131 Y29.6577
G1 X7.4131 Y29.6577
G1 X7.226 Y29.638
G1 X7.0568 Y29.5837
G1 X6.8929 Y29.4915
G1 X6.7377 Y29.3518
G1 X6.6337 Y29.2077
G1 X6.5609 Y29.0456
G1 X6.5175 Y28.8413
G1 X6.5197 Y28.6533
G1 X6.5572 Y28.4796
G1 X6.6289 Y28.317
G1 X6.7517 Y28.1481
G1 X6.8929 Y28.0239
G1 X7.0377 Y27.9403
G1 X7.226 Y27.8774
G1 X7.4131 Y27.8577
G1 X8.2131 Y27.8577
G1 X8.4002 Y27.8774
G1 X8.4882 Y27.9054
G1 X8.4882 Y27.07
G1 X8.4002 Y27.098
G1 X8.2131 Y27.1177
G1 X7.4131 Y27.1177
G1 X7.226 Y27.098
G1 X7.0568 Y27.0437
G1 X6.8929 Y26.9515
G1 X6.7377 Y26.8118
G1 X6.6289 Y26.6584
G1 X6.5609 Y26.5056
G1 X6.5175 Y26.3013
G1 X6.5197 Y26.1133
G1 X6.5572 Y25.9396
G1 X6.6289 Y25.777
G1 X6.7517 Y25.6081
G1 X6.8929 Y25.4839
G1 X7.0377 Y25.4003
G1 X7.226 Y25.3374
G1 X7.4131 Y25.3177
G1 X8.2131 Y25.3177
G1 X8.4002 Y25.3374
G1 X8.4882 Y25.3654
G1 X8.4882 Y24.53
G1 X8.4002 Y24.558
G1 X8.2131 Y24.5777
G1 X7.4131 Y24.5777
G1 X7.226 Y24.558
G1 X7.0568 Y24.5037
G1 X6.8929 Y24.4115
G1 X6.7377 Y24.2718
G1 X6.6289 Y24.1184
G1 X6.5609 Y23.9656
G1 X6.5175 Y23.7613
G1 X6.5197 Y23.5733
G1 X6.5572 Y23.3996
G1 X6.6289 Y23.237
G1 X6.7517 Y23.0681
G1 X6.8929 Y22.9439
G1 X7.0377 Y22.8603
G1 X7.226 Y22.7974
G1 X7.4131 Y22.7777
G1 X8.2131 Y22.7777
G1 X8.4002 Y22.7974
G1 X8.4882 Y22.8254
G1 X8.4882 Y21.99
G1 X8.4002 Y22.018
G1 X8.2131 Y22.0377
G1 X7.4131 Y22.0377
G1 X7.226 Y22.018
G1 X7.0568 Y21.9637
G1 X6.8929 Y21.8715
G1 X6.7377 Y21.7318
G1 X6.6289 Y21.5784
G1 X6.5609 Y21.4256
G1 X6.5175 Y21.2213
G1 X6.5197 Y21.0333
G1 X6.5572 Y20.8596
G1 X6.6289 Y20.697
G1 X6.7517 Y20.5281
G1 X6.8929 Y20.4039
G1 X7.0377 Y20.3203
G1 X7.226 Y20.2574
G1 X7.4131 Y20.2377
G1 X8.2131 Y20.2377
G1 X8.4002 Y20.2574
G1 X8.4882 Y20.2854
G1 X8.4882 Y19.45
G1 X8.4002 Y19.478
G1 X8.2131 Y19.4977
G1 X7.4131 Y19.4977
G1 X7.226 Y19.478
G1 X7.0568 Y19.4237
G1 X6.8929 Y19.3315
G1 X6.7377 Y19.1918
G1 X6.6289 Y19.0384
G1 X6.5609 Y18.8856
G1 X6.5175 Y18.6813
G1 X6.5197 Y18.4933
G1 X6.5572 Y18.3196
G1 X6.6289 Y18.157
G1 X6.7517 Y17.9881
G1 X6.8929 Y17.8639
G1 X7.0377 Y17.7803
G1 X7.226 Y17.7174
G1 X7.4131 Y17.6977
G1 X8.2131 Y17.6977
G1 X8.4002 Y17.7174
G1 X8.4882 Y17.7454
G1 X8.4882 Y16.91
G1 X8.4002 Y16.938
G1 X8.2131 Y16.9577
G1 X7.4131 Y16.9577
G1 X7.226 Y16.938
G1 X7.0568 Y16.8837
G1 X6.8929 Y16.7915
G1 X6.7377 Y16.6518
G1 X6.6337 Y16.5077
G1 X6.5609 Y16.3456
G1 X6.5175 Y16.1413
G1 X6.5197 Y15.9533
G1 X6.5572 Y15.7796
G1 X6.6289 Y15.617
G1 X6.7517 Y15.4481
G1 X6.8929 Y15.3239
G1 X7.0377 Y15.2403
G1 X7.226 Y15.1774
G1 X7.4131 Y15.1577
G1 X8.2131 Y15.1577
G1 X8.4002 Y15.1774
G1 X8.4882 Y15.2054
G1 X8.4882 Y14.37
G1 X8.4002 Y14.398
G1 X8.2131 Y14.4177
G1 X7.4131 Y14.4177
G1 X7.226 Y14.398
G1 X7.0377 Y14.3352
G1 X6.8929 Y14.2515
G1 X6.7517 Y14.1273
G1 X6.6289 Y13.9584
G1 X6.5572 Y13.7958
G1 X6.5197 Y13.6221
G1 X6.5197 Y13.4133
G1 X6.5572 Y13.2396
G1 X6.6289 Y13.077
G1 X6.7443 Y12.9155
G1 X6.876 Y12.7962
G1 X7.0377 Y12.7003
G1 X7.226 Y12.6374
G1 X7.4131 Y12.6177
G1 X8.2131 Y12.6177
G1 X8.4002 Y12.6374
G1 X8.5694 Y12.6918
G1 X8.7333 Y12.7839
G1 X8.8916 Y12.9279
G1 X9.6134 Y12.2061
G1 X9.6134 Y11.4277
G1 X9.1131 Y11.4277
G1 X9.1112 Y11.7972
G1 X9.0838 Y11.8484
G1 X9.0326 Y11.8758
G1 X6.5748 Y11.8701
G1 X6.53 Y11.8333
G1 X6.5131 Y11.7777
G1 X6.515 Y10.1582
G1 X6.5575 Y10.0946
G1 X6.6131 Y10.0777
G1 X9.0326 Y10.0796
G1 X9.0838 Y10.107
G1 X9.1112 Y10.1582
G1 X9.1131 Y10.5277
G1 X10.1607 Y10.5387
G1 X10.305 Y10.5985
G1 X10.3882 Y10.6668
G1 X10.475 Y10.7966
G1 X10.5062 Y10.8996
G1 X10.5134 Y12.3925
G1 X10.4824 Y12.5555
G1 X10.3816 Y12.7107
G1 X9.3882 Y13.7041
G1 X9.3882 Y33.3877
G1 X10.1415 Y33.3949
G1 X10.2445 Y33.4262
G1 X10.3743 Y33.5129
G1 X16.5998 Y39.7377
G1 X44.1273 Y39.7377
G1 X44.1292 Y39.2157
G1 X44.1566 Y39.1645
G1 X44.2078 Y39.1371
G1 X46.2273 Y39.1352
G1 X46.2829 Y39.1521
G1 X46.3254 Y39.2157
G1 X46.3273 Y39.7377
G1 X47.3557 Y39.7449
G1 X47.5192 Y39.8085
G1 X47.6418 Y39.9155
G1 X58.2716 Y39.9155
G1 X58.4247 Y39.689
G1 X58.5727 Y39.5565
G1 X58.7538 Y39.452
G1 X58.9425 Y39.3901
G1 X59.1501 Y39.3661
G1 X59.6105 Y39.3655
G1 X59.6177 Y38.3371
G1 X59.6489 Y38.2341
G1 X59.7357 Y38.1043
G1 X59.8794 Y38.0037
G1 X59.9824 Y37.9724
G1 X60.8349 Y37.9652
G1 X62.468 Y36.3321
G1 X62.468 Y25.9338
G1 X61.1294 Y24.5952
G1 X60.9827 Y24.6241
G1 X60.8155 Y24.6241
G1 X60.6112 Y24.5807
G1 X60.4491 Y24.5079
G1 X60.305 Y24.4039
G1 X60.1776 Y24.2657
G1 X60.0732 Y24.0848
G1 X60.0188 Y23.9156
G1 X59.9997 Y23.739
G1 X60.0215 Y23.5313
G1 X60.0817 Y23.3531
G1 X60.171 Y23.1995
G1 X60.305 Y23.0531
G1 X60.4584 Y22.9443
G1 X60.621 Y22.8726
G1 X60.805 Y22.8335
G1 X60.9827 Y22.8329
G1 X61.1772 Y22.8726
G1 X61.3491 Y22.9491
G1 X61.4932 Y23.0531
G1 X61.6329 Y23.2083
G1 X61.7251 Y23.3722
G1 X61.7767 Y23.5313
G1 X61.7991 Y23.7285
G1 X61.7659 Y23.959
G1 X63.2428 Y25.4365
G1 X63.3371 Y25.5844
G1 X63.368 Y25.7474
G04 P0 ( dwell for no time -- G64 should not smooth over this point )
G0 Z5
(Block-name: block)
(Block-expand: 0)
(Block-enable: 1)

G0 X61.7991 Y18.6485
G01 F300.00000
G1 Z-0.05
G04 P0 ( dwell for no time -- G64 should not smooth over this point )
G01 F600.00000
G1 X61.7991 Y18.6485
G1 X61.7794 Y18.4614
G1 X61.7251 Y18.2922
G1 X61.6329 Y18.1283
G1 X61.5087 Y17.9871
G1 X61.3491 Y17.8691
G1 X61.1671 Y17.7899
G1 X60.9827 Y17.7529
G1 X60.805 Y17.7535
G1 X60.6688 Y17.7818
G1 X52.6938 Y9.8068
G1 X52.7854 Y9.6471
G1 X52.8581 Y9.4181
G1 X52.8799 Y9.2102
G1 X52.8581 Y8.9813
G1 X52.7806 Y8.743
G1 X52.6704 Y8.5531
G1 X52.5166 Y8.3823
G1 X52.3212 Y8.2423
G1 X52.1204 Y8.1535
G1 X51.8955 Y8.1057
G1 X51.676 Y8.1052
G1 X51.4406 Y8.1535
G1 X51.2398 Y8.2423
G1 X51.0371 Y8.3896
G1 X50.8906 Y8.5531
G1 X50.7756 Y8.7523
G1 X50.7072 Y8.9609
G1 X50.6811 Y9.1893
G1 X50.7072 Y9.4385
G1 X50.7804 Y9.6564
G1 X50.8972 Y9.8544
G1 X51.0444 Y10.0172
G1 X51.2217 Y10.1466
G1 X51.4308 Y10.2421
G1 X51.6655 Y10.2937
G1 X51.9062 Y10.292
G1 X60.0323 Y18.4181
G1 X59.9997 Y18.659
G1 X60.0188 Y18.8356
G1 X60.0732 Y19.0048
G1 X60.1776 Y19.1857
G1 X60.305 Y19.3239
G1 X60.4491 Y19.4273
G1 X60.4491 Y20.4097
G1 X60.2895 Y20.5271
G1 X60.171 Y20.6595
G1 X60.0817 Y20.8131
G1 X60.0171 Y21.0117
G1 X59.9997 Y21.199
G1 X60.0188 Y21.3756
G1 X60.0817 Y21.5639
G1 X60.1776 Y21.7257
G1 X60.305 Y21.8639
G1 X60.4491 Y21.9679
G1 X60.6112 Y22.0407
G1 X60.805 Y22.0836
G1 X60.9932 Y22.0836
G1 X61.1671 Y22.0472
G1 X61.3398 Y21.9727
G1 X61.5013 Y21.8573
G1 X61.6206 Y21.7257
G1 X61.7251 Y21.5448
G1 X61.7794 Y21.3756
G1 X61.7991 Y21.1885
G1 X61.7794 Y21.0014
G1 X61.7251 Y20.8322
G1 X61.6206 Y20.6514
G1 X61.4932 Y20.5131
G1 X61.3491 Y20.4097
G1 X61.3491 Y19.4273
G1 X61.5087 Y19.3099
G1 X61.6329 Y19.1687
G1 X61.7251 Y19.0048
G1 X61.7767 Y18.8457
G1 X61.7991 Y18.6485
G04 P0 ( dwell for no time -- G64 should not smooth over this point )
G0 Z5
(Block-name: block)
(Block-expand: 0)
(Block-enable: 1)

G0 X52.8799 Y24.4293
G01 F300.00000
G1 Z-0.05
G04 P0 ( dwell for no time -- G64 should not smooth over this point )
G01 F600.00000
G1 X52.8799 Y24.4293
G1 X52.8538 Y24.6785
G1 X52.7854 Y24.8871
G1 X52.6638 Y25.0944
G1 X52.5084 Y25.2638
G1 X52.3212 Y25.3971
G1 X52.1204 Y25.4859
G1 X51.8955 Y25.5337
G1 X51.6552 Y25.5321
G1 X51.4406 Y25.4859
G1 X51.2398 Y25.3971
G1 X51.0371 Y25.2498
G1 X50.8849 Y25.0775
G1 X50.7769 Y24.8897
G1 X44.4783 Y24.8897
G1 X44.3703 Y25.0775
G1 X44.2182 Y25.2498
G1 X44.0154 Y25.3971
G1 X43.8146 Y25.4859
G1 X43.6 Y25.5321
G1 X43.3597 Y25.5337
G1 X43.1348 Y25.4859
G1 X42.934 Y25.3971
G1 X42.7468 Y25.2638
G1 X42.5914 Y25.0944
G1 X42.4661 Y24.8773
G1 X42.3971 Y24.6581
G1 X42.3753 Y24.4293
G1 X42.3988 Y24.2106
G1 X42.451 Y24.0524
G1 X39.9863 Y21.5877
G1 X29.575 Y21.5877
G1 X29.4806 Y21.7139
G1 X29.3559 Y21.8254
G1 X29.2113 Y21.9095
G1 X29.0431 Y21.9664
G1 X28.8563 Y21.9877
G1 X27.7147 Y21.9877
G1 X27.5279 Y21.9664
G1 X27.369 Y21.9142
G1 X27.2151 Y21.8254
G1 X27.0904 Y21.7139
G1 X26.9843 Y21.5715
G1 X26.9063 Y21.4004
G1 X26.8694 Y21.2266
G1 X26.8694 Y21.0489
G1 X26.9063 Y20.875
G1 X26.9738 Y20.722
G1 X27.0904 Y20.5615
G1 X27.2151 Y20.45
G1 X27.3788 Y20.3574
G1 X27.5483 Y20.3047
G1 X27.7147 Y20.2877
G1 X28.8563 Y20.2877
G1 X29.0431 Y20.309
G1 X29.2113 Y20.366
G1 X29.3559 Y20.45
G1 X29.4806 Y20.5615
G1 X29.575 Y20.6877
G1 X40.2508 Y20.6949
G1 X40.3538 Y20.7262
G1 X40.4909 Y20.8195
G1 X43.086 Y23.4147
G1 X43.3702 Y23.3452
G1 X43.5897 Y23.3457
G1 X43.8244 Y23.3973
G1 X44.0335 Y23.4928
G1 X44.2182 Y23.6297
G1 X44.3646 Y23.7931
G1 X44.4783 Y23.9897
G1 X50.7769 Y23.9897
G1 X50.8972 Y23.785
G1 X51.0371 Y23.6297
G1 X51.2217 Y23.4928
G1 X51.4507 Y23.3908
G1 X51.6655 Y23.3457
G1 X51.885 Y23.3452
G1 X52.1204 Y23.3936
G1 X52.3212 Y23.4823
G1 X52.5239 Y23.6297
G1 X52.6704 Y23.7931
G1 X52.7891 Y24.0021
G1 X52.8565 Y24.211
G1 X52.8799 Y24.4293
G04 P0 ( dwell for no time -- G64 should not smooth over this point )
G0 Z5
(Block-name: block)
(Block-expand: 0)
(Block-enable: 1)

G0 X46.3221 Y35.0082
G01 F300.00000
G1 Z-0.05
G04 P0 ( dwell for no time -- G64 should not smooth over this point )
G01 F600.00000
G1 X46.3221 Y35.0082
G1 X46.3215 Y35.2177
G1 X46.2785 Y35.4228
G1 X46.1863 Y35.634
G1 X46.0496 Y35.8194
G1 X45.8935 Y35.9592
G1 X45.7029 Y36.0692
G1 X45.5037 Y36.1345
G1 X45.2853 Y36.1597
G1 X44.9713 Y36.1388
G1 X44.7424 Y36.0645
G1 X44.5612 Y35.9592
G1 X44.405 Y35.8194
G1 X44.2683 Y35.634
G1 X44.1826 Y35.4427
G1 X44.1331 Y35.2177
G1 X44.1331 Y34.9977
G1 X44.1826 Y34.7727
G1 X44.274 Y34.5727
G1 X44.3911 Y34.4116
G1 X44.5612 Y34.2562
G1 X44.7773 Y34.1373
G1 X44.7773 Y33.2913
G1 X38.1537 Y26.6677
G1 X29.575 Y26.6677
G1 X29.4806 Y26.7939
G1 X29.3559 Y26.9054
G1 X29.1922 Y26.998
G1 X29.0227 Y27.0508
G1 X28.8563 Y27.0677
G1 X27.7147 Y27.0677
G1 X27.5483 Y27.0508
G1 X27.3788 Y26.998
G1 X27.2151 Y26.9054
G1 X27.0904 Y26.7939
G1 X26.9961 Y26.6677
G1 X25.9046 Y26.6672
G1 X25.7514 Y26.6368
G1 X25.6728 Y26.5969
G1 X25.5962 Y26.5359
G1 X24.1576 Y25.0966
G1 X24.0633 Y24.9487
G1 X24.0324 Y24.7857
G1 X24.0396 Y12.3316
G1 X24.0708 Y12.2286
G1 X24.1642 Y12.0915
G1 X25.6035 Y10.6529
G1 X25.7514 Y10.5586
G1 X25.9046 Y10.5282
G1 X26.9961 Y10.5277
G1 X27.083 Y10.409
G1 X27.2239 Y10.2844
G1 X27.369 Y10.2012
G1 X27.5483 Y10.1447
G1 X27.7147 Y10.1277
G1 X28.8667 Y10.1283
G1 X29.0431 Y10.149
G1 X29.2113 Y10.2059
G1 X29.364 Y10.2966
G1 X29.488 Y10.409
G1 X29.5867 Y10.5439
G1 X29.6647 Y10.715
G1 X29.7016 Y10.8889
G1 X29.7022 Y11.0561
G1 X29.6647 Y11.2404
G1 X29.5972 Y11.3934
G1 X29.4806 Y11.5539
G1 X29.3559 Y11.6654
G1 X29.1922 Y11.758
G1 X29.033 Y11.8092
G1 X28.8667 Y11.8271
G1 X27.7147 Y11.8277
G1 X27.5483 Y11.8108
G1 X27.3788 Y11.758
G1 X27.2151 Y11.6654
G1 X27.0904 Y11.5539
G1 X26.9961 Y11.4277
G1 X26.1008 Y11.4277
G1 X24.9324 Y12.5961
G1 X24.9324 Y24.5993
G1 X26.1008 Y25.7677
G1 X26.9961 Y25.7677
G1 X27.0904 Y25.6416
G1 X27.2151 Y25.5301
G1 X27.3788 Y25.4374
G1 X27.5483 Y25.3847
G1 X27.7147 Y25.3677
G1 X28.8563 Y25.3677
G1 X29.033 Y25.3863
G1 X29.2113 Y25.4459
G1 X29.364 Y25.5366
G1 X29.4806 Y25.6416
G1 X29.575 Y25.7677
G1 X38.3401 Y25.7677
G1 X38.5212 Y25.8062
G1 X38.6583 Y25.8995
G1 X45.5521 Y32.794
G1 X45.6464 Y32.942
G1 X45.6768 Y33.0951
G1 X45.6773 Y34.1373
G1 X45.8935 Y34.2562
G1 X46.0636 Y34.4116
G1 X46.1806 Y34.5727
G1 X46.272 Y34.7727
G1 X46.3221 Y35.0082
G04 P0 ( dwell for no time -- G64 should not smooth over this point )
G0 Z5
(Block-name: block)
(Block-expand: 0)
(Block-enable: 1)

G0 X35.5826 Y16.7331
G01 F300.00000
G1 Z-0.05
G04 P0 ( dwell for no time -- G64 should not smooth over this point )
G01 F600.00000
G1 X35.5826 Y16.7331
G1 X35.5564 Y16.5047
G1 X35.488 Y16.2961
G1 X35.373 Y16.097
G1 X35.2266 Y15.9335
G1 X35.0238 Y15.7861
G1 X34.823 Y15.6973
G1 X34.6084 Y15.6512
G1 X34.3578 Y15.6512
G1 X34.1432 Y15.6973
G1 X33.9424 Y15.7861
G1 X33.7397 Y15.9335
G1 X33.5932 Y16.097
G1 X33.4795 Y16.2935
G1 X29.671 Y16.2935
G1 X29.7016 Y16.1466
G1 X29.7016 Y15.9689
G1 X29.6647 Y15.795
G1 X29.5972 Y15.642
G1 X29.4806 Y15.4816
G1 X29.3559 Y15.37
G1 X29.2113 Y15.286
G1 X29.033 Y15.2263
G1 X28.8563 Y15.2077
G1 X27.7147 Y15.2077
G1 X27.538 Y15.2263
G1 X27.3788 Y15.2774
G1 X27.2151 Y15.37
G1 X27.0904 Y15.4816
G1 X26.9843 Y15.624
G1 X26.9036 Y15.8051
G1 X26.8694 Y15.9689
G1 X26.8694 Y16.1466
G1 X26.9063 Y16.3204
G1 X26.9843 Y16.4915
G1 X27.0904 Y16.6339
G1 X27.2151 Y16.7454
G1 X27.3788 Y16.838
G1 X27.538 Y16.8891
G1 X27.8355 Y16.9077
G1 X27.8355 Y17.7477
G1 X27.5483 Y17.7647
G1 X27.3788 Y17.8174
G1 X27.2151 Y17.9101
G1 X27.0764 Y18.0371
G1 X26.9738 Y18.182
G1 X26.9063 Y18.335
G1 X26.871 Y18.4985
G1 X26.8694 Y18.6865
G1 X26.9036 Y18.8503
G1 X26.9843 Y19.0315
G1 X27.0904 Y19.1739
G1 X27.2069 Y19.2788
G1 X27.3597 Y19.3695
G1 X27.5483 Y19.4308
G1 X27.7147 Y19.4477
G1 X28.8563 Y19.4477
G1 X29.0227 Y19.4308
G1 X29.2113 Y19.3695
G1 X29.364 Y19.2788
G1 X29.4806 Y19.1739
G1 X29.5867 Y19.0315
G1 X29.6674 Y18.8503
G1 X29.7016 Y18.6865
G1 X29.7022 Y18.5193
G1 X29.6647 Y18.335
G1 X29.5972 Y18.182
G1 X29.4945 Y18.0371
G1 X29.3471 Y17.9044
G1 X29.1922 Y17.8174
G1 X29.033 Y17.7663
G1 X28.7355 Y17.7477
G1 X28.7355 Y17.1935
G1 X33.4799 Y17.1935
G1 X33.5932 Y17.3901
G1 X33.7397 Y17.5536
G1 X33.9331 Y17.6962
G1 X34.1533 Y17.7924
G1 X34.3681 Y17.8375
G1 X34.5981 Y17.8375
G1 X34.8129 Y17.7924
G1 X35.0331 Y17.6962
G1 X35.211 Y17.5675
G1 X35.3664 Y17.3982
G1 X35.488 Y17.1909
G1 X35.5564 Y16.9823
G1 X35.5826 Y16.7331
G04 P0 ( dwell for no time -- G64 should not smooth over this point )
G0 Z5
(Block-name: block)
(Block-expand: 0)
(Block-enable: 1)

G0 X22.0822 Y10.8993
G01 F300.00000
G1 Z-0.05
G04 P0 ( dwell for no time -- G64 should not smooth over this point )
G01 F600.00000
G1 X22.0822 Y10.8993
G1 X22.0409 Y10.7053
G1 X21.9667 Y10.5439
G1 X21.868 Y10.409
G1 X21.744 Y10.2966
G1 X21.5913 Y10.2059
G1 X21.4027 Y10.1447
G1 X21.2363 Y10.1277
G1 X20.0947 Y10.1277
G1 X19.9283 Y10.1447
G1 X19.749 Y10.2012
G1 X19.6039 Y10.2844
G1 X19.463 Y10.409
G1 X19.3761 Y10.5277
G1 X16.6119 Y10.5277
G1 X16.5019 Y10.3755
G1 X16.3702 Y10.2562
G1 X16.2085 Y10.1603
G1 X16.0303 Y10.1001
G1 X15.8331 Y10.0777
G1 X15.0331 Y10.0777
G1 X14.846 Y10.0974
G1 X14.6768 Y10.1518
G1 X14.5129 Y10.2439
G1 X14.3643 Y10.3755
G1 X14.2489 Y10.537
G1 X14.1772 Y10.6996
G1 X14.1397 Y10.8733
G1 X14.1375 Y11.0613
G1 X14.1809 Y11.2656
G1 X14.2594 Y11.4365
G1 X14.3643 Y11.5799
G1 X14.496 Y11.6992
G1 X14.6577 Y11.7952
G1 X14.8563 Y11.8597
G1 X15.0331 Y11.8777
G1 X15.8331 Y11.8777
G1 X16.0303 Y11.8553
G1 X16.2085 Y11.7952
G1 X16.3702 Y11.6992
G1 X16.5019 Y11.5799
G1 X16.6119 Y11.4277
G1 X19.3761 Y11.4277
G1 X19.4704 Y11.5539
G1 X19.5951 Y11.6654
G1 X19.7588 Y11.758
G1 X19.918 Y11.8092
G1 X20.0947 Y11.8277
G1 X21.2363 Y11.8277
G1 X21.413 Y11.8092
G1 X21.5722 Y11.758
G1 X21.7359 Y11.6654
G1 X21.8606 Y11.5539
G1 X21.9724 Y11.4027
G1 X22.0447 Y11.2404
G1 X22.0816 Y11.0666
G1 X22.0822 Y10.8993
G04 P0 ( dwell for no time -- G64 should not smooth over this point )
G0 Z5
(Block-name: block)
(Block-expand: 0)
(Block-enable: 1)

G0 X22.0822 Y13.4393
G01 F300.00000
G1 Z-0.05
G04 P0 ( dwell for no time -- G64 should not smooth over this point )
G01 F600.00000
G1 X22.0822 Y13.4393
G1 X22.0447 Y13.255
G1 X21.9772 Y13.102
G1 X21.8606 Y12.9416
G1 X21.7359 Y12.83
G1 X21.5913 Y12.746
G1 X21.4027 Y12.6847
G1 X21.2363 Y12.6677
G1 X20.0947 Y12.6677
G1 X19.918 Y12.6863
G1 X19.7588 Y12.7374
G1 X19.5951 Y12.83
G1 X19.4704 Y12.9416
G1 X19.3761 Y13.0677
G1 X16.6119 Y13.0677
G1 X16.5019 Y12.9155
G1 X16.3702 Y12.7962
G1 X16.2085 Y12.7003
G1 X16.0303 Y12.6401
G1 X15.8331 Y12.6177
G1 X15.0331 Y12.6177
G1 X14.8563 Y12.6357
G1 X14.6768 Y12.6918
G1 X14.5129 Y12.7839
G1 X14.3643 Y12.9155
G1 X14.2489 Y13.077
G1 X14.1772 Y13.2396
G1 X14.1397 Y13.4133
G1 X14.1375 Y13.6013
G1 X14.1809 Y13.8056
G1 X14.2594 Y13.9765
G1 X14.3643 Y14.1199
G1 X14.496 Y14.2392
G1 X14.6577 Y14.3352
G1 X14.8563 Y14.3997
G1 X15.0331 Y14.4177
G1 X15.8331 Y14.4177
G1 X16.0303 Y14.3954
G1 X16.2085 Y14.3352
G1 X16.3702 Y14.2392
G1 X16.5019 Y14.1199
G1 X16.6119 Y13.9677
G1 X19.3761 Y13.9677
G1 X19.4704 Y14.0939
G1 X19.5951 Y14.2054
G1 X19.7397 Y14.2895
G1 X19.9079 Y14.3464
G1 X20.0947 Y14.3677
G1 X21.2363 Y14.3677
G1 X21.4027 Y14.3508
G1 X21.5722 Y14.298
G1 X21.7359 Y14.2054
G1 X21.8606 Y14.0939
G1 X21.9667 Y13.9515
G1 X22.0447 Y13.7804
G1 X22.0816 Y13.6066
G1 X22.0822 Y13.4393
G04 P0 ( dwell for no time -- G64 should not smooth over this point )
G0 Z5
(Block-name: block)
(Block-expand: 0)
(Block-enable: 1)

G0 X22.0822 Y15.9793
G01 F300.00000
G1 Z-0.05
G04 P0 ( dwell for no time -- G64 should not smooth over this point )
G01 F600.00000
G1 X22.0822 Y15.9793
G1 X22.0447 Y15.795
G1 X21.9772 Y15.642
G1 X21.8606 Y15.4816
G1 X21.7359 Y15.37
G1 X21.5913 Y15.286
G1 X21.4027 Y15.2247
G1 X21.2363 Y15.2077
G1 X20.0947 Y15.2077
G1 X19.918 Y15.2263
G1 X19.7588 Y15.2774
G1 X19.5951 Y15.37
G1 X19.4704 Y15.4816
G1 X19.3761 Y15.6077
G1 X16.6119 Y15.6077
G1 X16.5019 Y15.4555
G1 X16.3702 Y15.3362
G1 X16.2085 Y15.2403
G1 X16.0303 Y15.1801
G1 X15.8331 Y15.1577
G1 X15.0331 Y15.1577
G1 X14.846 Y15.1774
G1 X14.6768 Y15.2318
G1 X14.5129 Y15.3239
G1 X14.3643 Y15.4555
G1 X14.2489 Y15.617
G1 X14.1772 Y15.7796
G1 X14.1397 Y15.9533
G1 X14.1375 Y16.1413
G1 X14.1809 Y16.3456
G1 X14.2594 Y16.5165
G1 X14.3643 Y16.6599
G1 X14.496 Y16.7792
G1 X14.6577 Y16.8752
G1 X14.8563 Y16.9397
G1 X15.0331 Y16.9577
G1 X15.8331 Y16.9577
G1 X16.0303 Y16.9354
G1 X16.2085 Y16.8752
G1 X16.3702 Y16.7792
G1 X16.5019 Y16.6599
G1 X16.6119 Y16.5077
G1 X19.3761 Y16.5077
G1 X19.4704 Y16.6339
G1 X19.5951 Y16.7454
G1 X19.7588 Y16.838
G1 X19.918 Y16.8891
G1 X20.0947 Y16.9077
G1 X21.2363 Y16.9077
G1 X21.413 Y16.8891
G1 X21.5722 Y16.838
G1 X21.7359 Y16.7454
G1 X21.8606 Y16.6339
G1 X21.9724 Y16.4827
G1 X22.0447 Y16.3204
G1 X22.0816 Y16.1466
G1 X22.0822 Y15.9793
G04 P0 ( dwell for no time -- G64 should not smooth over this point )
G0 Z5
(Block-name: block)
(Block-expand: 0)
(Block-enable: 1)

G0 X22.0822 Y18.5193
G01 F300.00000
G1 Z-0.05
G04 P0 ( dwell for no time -- G64 should not smooth over this point )
G01 F600.00000
G1 X22.0822 Y18.5193
G1 X22.0447 Y18.335
G1 X21.9772 Y18.182
G1 X21.8606 Y18.0216
G1 X21.7359 Y17.9101
G1 X21.5913 Y17.8259
G1 X21.4027 Y17.7647
G1 X21.2363 Y17.7477
G1 X20.0947 Y17.7477
G1 X19.918 Y17.7663
G1 X19.7588 Y17.8174
G1 X19.5951 Y17.9101
G1 X19.4704 Y18.0216
G1 X19.3761 Y18.1477
G1 X16.6119 Y18.1477
G1 X16.5019 Y17.9955
G1 X16.3702 Y17.8762
G1 X16.2085 Y17.7803
G1 X16.0303 Y17.7201
G1 X15.8331 Y17.6977
G1 X15.0331 Y17.6977
G1 X14.8563 Y17.7157
G1 X14.6768 Y17.7718
G1 X14.5129 Y17.8639
G1 X14.3643 Y17.9955
G1 X14.2489 Y18.157
G1 X14.1772 Y18.3196
G1 X14.1397 Y18.4933
G1 X14.1375 Y18.6813
G1 X14.1809 Y18.8856
G1 X14.2594 Y19.0565
G1 X14.3643 Y19.1999
G1 X14.496 Y19.3192
G1 X14.6577 Y19.4151
G1 X14.8563 Y19.4797
G1 X15.0331 Y19.4977
G1 X15.8331 Y19.4977
G1 X16.0202 Y19.478
G1 X16.2085 Y19.4151
G1 X16.3702 Y19.3192
G1 X16.5019 Y19.1999
G1 X16.6119 Y19.0477
G1 X19.3761 Y19.0477
G1 X19.4704 Y19.1739
G1 X19.5951 Y19.2854
G1 X19.7588 Y19.378
G1 X19.918 Y19.4292
G1 X20.0947 Y19.4477
G1 X21.2363 Y19.4477
G1 X21.413 Y19.4292
G1 X21.5722 Y19.378
G1 X21.7271 Y19.2911
G1 X21.868 Y19.1665
G1 X21.9667 Y19.0315
G1 X22.0447 Y18.8604
G1 X22.0816 Y18.6865
G1 X22.0822 Y18.5193
G04 P0 ( dwell for no time -- G64 should not smooth over this point )
G0 Z5
(Block-name: block)
(Block-expand: 0)
(Block-enable: 1)

G0 X22.0822 Y21.0593
G01 F300.00000
G1 Z-0.05
G04 P0 ( dwell for no time -- G64 should not smooth over this point )
G01 F600.00000
G1 X22.0822 Y21.0593
G1 X22.0447 Y20.875
G1 X21.9772 Y20.722
G1 X21.8606 Y20.5615
G1 X21.7359 Y20.45
G1 X21.5913 Y20.366
G1 X21.4027 Y20.3047
G1 X21.2363 Y20.2877
G1 X20.0947 Y20.2877
G1 X19.9283 Y20.3047
G1 X19.7588 Y20.3574
G1 X19.5951 Y20.45
G1 X19.4704 Y20.5615
G1 X19.3761 Y20.6877
G1 X16.6119 Y20.6877
G1 X16.5019 Y20.5355
G1 X16.3702 Y20.4162
G1 X16.2085 Y20.3203
G1 X16.0303 Y20.2601
G1 X15.8331 Y20.2377
G1 X15.0331 Y20.2377
G1 X14.8563 Y20.2557
G1 X14.6768 Y20.3118
G1 X14.5129 Y20.4039
G1 X14.3643 Y20.5355
G1 X14.2489 Y20.697
G1 X14.1772 Y20.8596
G1 X14.1397 Y21.0333
G1 X14.1375 Y21.2213
G1 X14.1809 Y21.4256
G1 X14.2594 Y21.5965
G1 X14.3643 Y21.7399
G1 X14.496 Y21.8592
G1 X14.6577 Y21.9552
G1 X14.8563 Y22.0197
G1 X15.0331 Y22.0377
G1 X15.8331 Y22.0377
G1 X16.0303 Y22.0154
G1 X16.2085 Y21.9552
G1 X16.3702 Y21.8592
G1 X16.5019 Y21.7399
G1 X16.6119 Y21.5877
G1 X19.3761 Y21.5877
G1 X19.4704 Y21.7139
G1 X19.5951 Y21.8254
G1 X19.749 Y21.9142
G1 X19.9079 Y21.9664
G1 X20.0947 Y21.9877
G1 X21.2363 Y21.9877
G1 X21.4231 Y21.9664
G1 X21.582 Y21.9142
G1 X21.7359 Y21.8254
G1 X21.8606 Y21.7139
G1 X21.9667 Y21.5715
G1 X22.0447 Y21.4004
G1 X22.0816 Y21.2266
G1 X22.0822 Y21.0593
G04 P0 ( dwell for no time -- G64 should not smooth over this point )
G0 Z5
(Block-name: block)
(Block-expand: 0)
(Block-enable: 1)

G0 X22.0822 Y23.5993
G01 F300.00000
G1 Z-0.05
G04 P0 ( dwell for no time -- G64 should not smooth over this point )
G01 F600.00000
G1 X22.0822 Y23.5993
G1 X22.0409 Y23.4053
G1 X21.9667 Y23.244
G1 X21.868 Y23.109
G1 X21.744 Y22.9966
G1 X21.5913 Y22.9059
G1 X21.4027 Y22.8447
G1 X21.2363 Y22.8277
G1 X20.0947 Y22.8277
G1 X19.918 Y22.8463
G1 X19.7588 Y22.8974
G1 X19.5951 Y22.9901
G1 X19.4704 Y23.1016
G1 X19.3761 Y23.2277
G1 X16.6119 Y23.2277
G1 X16.5019 Y23.0755
G1 X16.3702 Y22.9562
G1 X16.2085 Y22.8603
G1 X16.0303 Y22.8001
G1 X15.8331 Y22.7777
G1 X15.0331 Y22.7777
G1 X14.846 Y22.7974
G1 X14.6768 Y22.8518
G1 X14.5129 Y22.9439
G1 X14.3643 Y23.0755
G1 X14.2489 Y23.237
G1 X14.1772 Y23.3996
G1 X14.1397 Y23.5733
G1 X14.1375 Y23.7613
G1 X14.1809 Y23.9656
G1 X14.2594 Y24.1365
G1 X14.3643 Y24.2799
G1 X14.496 Y24.3992
G1 X14.6577 Y24.4952
G1 X14.8563 Y24.5597
G1 X15.0331 Y24.5777
G1 X15.8331 Y24.5777
G1 X16.0303 Y24.5553
G1 X16.2085 Y24.4952
G1 X16.3702 Y24.3992
G1 X16.5019 Y24.2799
G1 X16.6119 Y24.1277
G1 X19.3761 Y24.1277
G1 X19.4704 Y24.2539
G1 X19.5951 Y24.3654
G1 X19.7588 Y24.458
G1 X19.918 Y24.5092
G1 X20.0947 Y24.5277
G1 X21.2363 Y24.5277
G1 X21.413 Y24.5092
G1 X21.5722 Y24.458
G1 X21.7359 Y24.3654
G1 X21.8606 Y24.2539
G1 X21.9724 Y24.1027
G1 X22.0447 Y23.9404
G1 X22.0816 Y23.7665
G1 X22.0822 Y23.5993
G04 P0 ( dwell for no time -- G64 should not smooth over this point )
G0 Z5
(Block-name: block)
(Block-expand: 0)
(Block-enable: 1)

G0 X29.7022 Y31.2193
G01 F300.00000
G1 Z-0.05
G04 P0 ( dwell for no time -- G64 should not smooth over this point )
G01 F600.00000
G1 X29.7022 Y31.2193
G1 X29.6647 Y31.035
G1 X29.5867 Y30.864
G1 X29.4806 Y30.7215
G1 X29.364 Y30.6166
G1 X29.1922 Y30.5174
G1 X29.033 Y30.4663
G1 X28.8563 Y30.4477
G1 X27.7147 Y30.4477
G1 X27.538 Y30.4663
G1 X27.3788 Y30.5174
G1 X27.2151 Y30.61
G1 X27.0904 Y30.7215
G1 X26.9961 Y30.8477
G1 X25.9046 Y30.8482
G1 X25.7514 Y30.8786
G1 X25.6565 Y30.9294
G1 X23.188 Y33.3877
G1 X16.6119 Y33.3877
G1 X16.5019 Y33.2355
G1 X16.3702 Y33.1162
G1 X16.2085 Y33.0203
G1 X16.0303 Y32.9601
G1 X15.8331 Y32.9377
G1 X15.0226 Y32.9383
G1 X14.8359 Y32.9601
G1 X14.6577 Y33.0203
G1 X14.496 Y33.1162
G1 X14.3643 Y33.2355
G1 X14.2489 Y33.397
G1 X14.1772 Y33.5596
G1 X14.1375 Y33.7541
G1 X14.1397 Y33.9421
G1 X14.1772 Y34.1158
G1 X14.2489 Y34.2784
G1 X14.3643 Y34.4399
G1 X14.496 Y34.5592
G1 X14.6768 Y34.6637
G1 X14.8563 Y34.7197
G1 X15.0331 Y34.7377
G1 X15.8331 Y34.7377
G1 X16.0303 Y34.7153
G1 X16.2085 Y34.6552
G1 X16.3702 Y34.5592
G1 X16.5019 Y34.4399
G1 X16.6119 Y34.2877
G1 X23.4525 Y34.2805
G1 X23.5555 Y34.2493
G1 X23.6926 Y34.1559
G1 X26.1008 Y31.7477
G1 X26.9961 Y31.7477
G1 X27.083 Y31.8665
G1 X27.2239 Y31.9911
G1 X27.3788 Y32.078
G1 X27.5483 Y32.1308
G1 X27.7147 Y32.1477
G1 X28.8563 Y32.1477
G1 X29.0227 Y32.1308
G1 X29.2113 Y32.0695
G1 X29.364 Y31.9788
G1 X29.4945 Y31.8583
G1 X29.5972 Y31.7134
G1 X29.6647 Y31.5604
G1 X29.7016 Y31.3865
G1 X29.7022 Y31.2193
G04 P0 ( dwell for no time -- G64 should not smooth over this point )
G0 Z5
(Block-name: block)
(Block-expand: 0)
(Block-enable: 1)

G0 X22.0822 Y26.1393
G01 F300.00000
G1 Z-0.05
G04 P0 ( dwell for no time -- G64 should not smooth over this point )
G01 F600.00000
G1 X22.0822 Y26.1393
G1 X22.0816 Y26.3066
G1 X22.0447 Y26.4804
G1 X21.9667 Y26.6515
G1 X21.8606 Y26.7939
G1 X21.7359 Y26.9054
G1 X21.5722 Y26.998
G1 X21.4027 Y27.0508
G1 X21.2363 Y27.0677
G1 X20.0947 Y27.0677
G1 X19.9079 Y27.0464
G1 X19.7397 Y26.9895
G1 X19.5951 Y26.9054
G1 X19.4704 Y26.7939
G1 X19.3761 Y26.6677
G1 X16.6119 Y26.6677
G1 X16.5019 Y26.8199
G1 X16.3702 Y26.9392
G1 X16.2085 Y27.0352
G1 X16.0303 Y27.0953
G1 X15.8331 Y27.1177
G1 X15.0331 Y27.1177
G1 X14.8563 Y27.0997
G1 X14.6577 Y27.0352
G1 X14.496 Y26.9392
G1 X14.3643 Y26.8199
G1 X14.2594 Y26.6765
G1 X14.1809 Y26.5056
G1 X14.1375 Y26.3013
G1 X14.1397 Y26.1133
G1 X14.1772 Y25.9396
G1 X14.2489 Y25.777
G1 X14.3643 Y25.6155
G1 X14.5129 Y25.4839
G1 X14.6768 Y25.3918
G1 X14.8563 Y25.3357
G1 X15.0331 Y25.3177
G1 X15.8331 Y25.3177
G1 X16.0303 Y25.3401
G1 X16.2085 Y25.4003
G1 X16.3702 Y25.4962
G1 X16.5019 Y25.6155
G1 X16.6119 Y25.7677
G1 X19.3761 Y25.7677
G1 X19.4704 Y25.6416
G1 X19.5951 Y25.5301
G1 X19.7588 Y25.4374
G1 X19.918 Y25.3863
G1 X20.0947 Y25.3677
G1 X21.2363 Y25.3677
G1 X21.4027 Y25.3847
G1 X21.5913 Y25.4459
G1 X21.7359 Y25.5301
G1 X21.8606 Y25.6416
G1 X21.9772 Y25.802
G1 X22.0447 Y25.955
G1 X22.0822 Y26.1393
G04 P0 ( dwell for no time -- G64 should not smooth over this point )
G0 Z5
(Block-name: block)
(Block-expand: 0)
(Block-enable: 1)

G0 X22.0822 Y28.6793
G01 F300.00000
G1 Z-0.05
G04 P0 ( dwell for no time -- G64 should not smooth over this point )
G01 F600.00000
G1 X22.0822 Y28.6793
G1 X22.0816 Y28.8465
G1 X22.0447 Y29.0204
G1 X21.9724 Y29.1827
G1 X21.8606 Y29.3339
G1 X21.7359 Y29.4454
G1 X21.5722 Y29.538
G1 X21.413 Y29.5891
G1 X21.2363 Y29.6077
G1 X20.0947 Y29.6077
G1 X19.918 Y29.5891
G1 X19.7588 Y29.538
G1 X19.5951 Y29.4454
G1 X19.4704 Y29.3339
G1 X19.3761 Y29.2077
G1 X16.6119 Y29.2077
G1 X16.5019 Y29.3599
G1 X16.3702 Y29.4792
G1 X16.2085 Y29.5751
G1 X16.0303 Y29.6354
G1 X15.8331 Y29.6577
G1 X15.0331 Y29.6577
G1 X14.8563 Y29.6397
G1 X14.6577 Y29.5751
G1 X14.496 Y29.4792
G1 X14.3643 Y29.3599
G1 X14.2594 Y29.2165
G1 X14.1809 Y29.0456
G1 X14.1375 Y28.8413
G1 X14.1397 Y28.6533
G1 X14.1772 Y28.4796
G1 X14.2489 Y28.317
G1 X14.3643 Y28.1555
G1 X14.5129 Y28.0239
G1 X14.6768 Y27.9318
G1 X14.846 Y27.8774
G1 X15.0331 Y27.8577
G1 X15.8331 Y27.8577
G1 X16.0303 Y27.8801
G1 X16.2085 Y27.9403
G1 X16.3702 Y28.0362
G1 X16.5019 Y28.1555
G1 X16.6119 Y28.3077
G1 X19.3761 Y28.3077
G1 X19.4704 Y28.1816
G1 X19.5951 Y28.0701
G1 X19.7588 Y27.9774
G1 X19.918 Y27.9263
G1 X20.0947 Y27.9077
G1 X21.2363 Y27.9077
G1 X21.4027 Y27.9247
G1 X21.5913 Y27.986
G1 X21.7359 Y28.0701
G1 X21.8606 Y28.1816
G1 X21.9772 Y28.342
G1 X22.0447 Y28.495
G1 X22.0822 Y28.6793
G04 P0 ( dwell for no time -- G64 should not smooth over this point )
G0 Z5
(Block-name: block)
(Block-expand: 0)
(Block-enable: 1)

G0 X22.0822 Y31.2193
G01 F300.00000
G1 Z-0.05
G04 P0 ( dwell for no time -- G64 should not smooth over this point )
G01 F600.00000
G1 X22.0822 Y31.2193
G1 X22.0816 Y31.3865
G1 X22.0447 Y31.5604
G1 X21.9667 Y31.7315
G1 X21.868 Y31.8665
G1 X21.7271 Y31.9911
G1 X21.5722 Y32.078
G1 X21.413 Y32.1292
G1 X21.2363 Y32.1477
G1 X20.0947 Y32.1477
G1 X19.918 Y32.1292
G1 X19.7588 Y32.078
G1 X19.5951 Y31.9854
G1 X19.4704 Y31.8739
G1 X19.3761 Y31.7477
G1 X16.6119 Y31.7477
G1 X16.5019 Y31.8999
G1 X16.3702 Y32.0192
G1 X16.2085 Y32.1151
G1 X16.0202 Y32.178
G1 X15.8331 Y32.1977
G1 X15.0331 Y32.1977
G1 X14.8563 Y32.1797
G1 X14.6577 Y32.1151
G1 X14.496 Y32.0192
G1 X14.3643 Y31.8999
G1 X14.2594 Y31.7565
G1 X14.1809 Y31.5856
G1 X14.1375 Y31.3813
G1 X14.1397 Y31.1933
G1 X14.1772 Y31.0196
G1 X14.2489 Y30.857
G1 X14.3643 Y30.6955
G1 X14.5129 Y30.5639
G1 X14.6768 Y30.4718
G1 X14.8563 Y30.4157
G1 X15.0331 Y30.3977
G1 X15.8331 Y30.3977
G1 X16.0303 Y30.4201
G1 X16.2085 Y30.4803
G1 X16.3702 Y30.5762
G1 X16.5019 Y30.6955
G1 X16.6119 Y30.8477
G1 X19.3761 Y30.8477
G1 X19.4704 Y30.7215
G1 X19.5951 Y30.61
G1 X19.7588 Y30.5174
G1 X19.918 Y30.4663
G1 X20.0947 Y30.4477
G1 X21.2363 Y30.4477
G1 X21.4027 Y30.4647
G1 X21.5913 Y30.526
G1 X21.7359 Y30.61
G1 X21.8606 Y30.7215
G1 X21.9772 Y30.882
G1 X22.0447 Y31.035
G1 X22.0822 Y31.2193

G04 P0 ( dwell for no time -- G64 should not smooth over this point )
G0 Z10
(Block-name: block)
(Block-expand: 0)
(Block-enable: 1)

M5 ( Spindle off. )
G04 P1.000000
M9 ( Coolant off. )
M2 ( Program end. )

