(Block-name: Header)
(Block-expand: 0)
(Block-enable: 1)
( pcb2gcode 1.3.2 )
( Software-independent Gcode )

G94 ( Millimeters per minute feed rate. )
G21 ( Units == Millimeters. )

G90 ( Absolute coordinates. )
(Block-name: block)
(Block-expand: 0)
(Block-enable: 1)
G00 S10000 ( RPM spindle speed. )
G64 P0.01000 ( set maximum deviation from commanded toolpath )
G01 F600.00000 ( Feedrate. )

G01 F600.00000 ( Feedrate. )
M3 ( Spindle on clockwise. )
G04 P1.00000
G04 P0 ( dwell for no time -- G64 should not smooth over this point )
G0 Z5
(Block-name: block)
(Block-expand: 0)
(Block-enable: 1)

G0 X1.9309 Y24.6023
G01 F300.00000
G1 Z-0.05
G04 P0 ( dwell for no time -- G64 should not smooth over this point )
G01 F600.00000
G1 X1.9309 Y24.6023
G1 X1.9279 Y25.9756
G1 X1.9013 Y26.0696
G1 X1.8223 Y26.1809
G1 X1.7249 Y26.246
G1 X1.6189 Y26.2748
G1 X-1.5178 Y26.2768
G1 X-1.6051 Y26.265
G1 X-1.7239 Y26.2088
G1 X-1.7885 Y26.1489
G1 X-1.8403 Y26.063
G1 X-1.8674 Y25.9366
G1 X-1.8679 Y25.7268
G1 X-12.3008 Y25.7268
G1 X-12.3008 Y27.639
G1 X-12.3318 Y27.802
G1 X-12.3825 Y27.8969
G1 X-12.5092 Y28.0182
G1 X-12.6727 Y28.0818
G1 X-13.8076 Y28.089
G1 X-13.8421 Y28.1653
G1 X-13.9648 Y28.3351
G1 X-14.1349 Y28.4905
G1 X-14.3255 Y28.6005
G1 X-14.5247 Y28.6658
G1 X-14.859 Y28.691
G1 X-15.0775 Y28.6658
G1 X-15.2767 Y28.6005
G1 X-15.4672 Y28.4905
G1 X-15.6234 Y28.3507
G1 X-15.7544 Y28.1741
G1 X-15.7946 Y28.089
G1 X-19.8811 Y28.089
G1 X-19.9784 Y28.078
G1 X-20.1227 Y28.0182
G1 X-20.1993 Y27.9572
G1 X-25.1566 Y22.9999
G1 X-25.4303 Y23.0688
G1 X-25.6706 Y23.0672
G1 X-25.8852 Y23.021
G1 X-26.086 Y22.9322
G1 X-26.2887 Y22.7849
G1 X-26.4352 Y22.6214
G1 X-26.5454 Y22.4315
G1 X-26.6212 Y22.2035
G1 X-26.6447 Y21.9644
G1 X-26.6212 Y21.7457
G1 X-26.569 Y21.5876
G1 X-28.9575 Y19.199
G1 X-30.4534 Y19.199
G1 X-30.5478 Y19.3252
G1 X-30.6725 Y19.4367
G1 X-30.8362 Y19.5293
G1 X-31.0057 Y19.5821
G1 X-31.1721 Y19.599
G1 X-32.3137 Y19.599
G1 X-32.4904 Y19.5804
G1 X-32.6687 Y19.5208
G1 X-32.8133 Y19.4367
G1 X-32.938 Y19.3252
G1 X-33.0441 Y19.1828
G1 X-33.1221 Y19.0117
G1 X-33.159 Y18.8378
G1 X-33.1574 Y18.6498
G1 X-33.1221 Y18.4863
G1 X-33.0546 Y18.3333
G1 X-32.952 Y18.1884
G1 X-32.8045 Y18.0557
G1 X-32.6496 Y17.9687
G1 X-32.4904 Y17.9176
G1 X-32.3137 Y17.899
G1 X-31.1721 Y17.899
G1 X-30.9954 Y17.9176
G1 X-30.8171 Y17.9773
G1 X-30.6644 Y18.0679
G1 X-30.5478 Y18.1729
G1 X-30.4534 Y18.299
G1 X-28.7711 Y18.299
G1 X-28.6081 Y18.33
G1 X-28.5132 Y18.3807
G1 X-25.934 Y20.9498
G1 X-25.6603 Y20.8808
G1 X-25.42 Y20.8825
G1 X-25.2054 Y20.9287
G1 X-25.0046 Y21.0174
G1 X-24.8092 Y21.1574
G1 X-24.6497 Y21.337
G1 X-24.5404 Y21.5274
G1 X-24.472 Y21.736
G1 X-24.4458 Y21.9853
G1 X-24.4694 Y22.2039
G1 X-24.5216 Y22.3621
G1 X-19.6947 Y27.189
G1 X-15.7946 Y27.189
G1 X-15.7544 Y27.104
G1 X-15.6373 Y26.9429
G1 X-15.4585 Y26.7818
G1 X-15.2767 Y26.6775
G1 X-15.0775 Y26.6122
G1 X-14.8486 Y26.5865
G1 X-14.5247 Y26.6122
G1 X-14.3255 Y26.6775
G1 X-14.1437 Y26.7818
G1 X-13.9648 Y26.9429
G1 X-13.8478 Y27.104
G1 X-13.8076 Y27.189
G1 X-13.2008 Y27.189
G1 X-13.2008 Y25.3062
G1 X-13.1714 Y25.1515
G1 X-13.1714 Y23.3337
G1 X-22.3861 Y14.119
G1 X-30.4534 Y14.119
G1 X-30.5478 Y14.2452
G1 X-30.6725 Y14.3567
G1 X-30.8362 Y14.4493
G1 X-30.9954 Y14.5005
G1 X-31.1721 Y14.519
G1 X-32.3137 Y14.519
G1 X-32.4904 Y14.5005
G1 X-32.6687 Y14.4408
G1 X-32.8215 Y14.3501
G1 X-32.938 Y14.2452
G1 X-33.0323 Y14.119
G1 X-34.1238 Y14.1185
G1 X-34.277 Y14.0881
G1 X-34.4249 Y13.9938
G1 X-34.5256 Y13.8501
G1 X-34.564 Y13.669
G1 X-34.564 Y3.509
G1 X-34.553 Y3.4117
G1 X-34.4932 Y3.2674
G1 X-34.4388 Y3.1981
G1 X-34.3556 Y3.1298
G1 X-34.1921 Y3.0662
G1 X-33.0323 Y3.059
G1 X-32.938 Y2.9329
G1 X-32.8215 Y2.8279
G1 X-32.6687 Y2.7373
G1 X-32.4904 Y2.6776
G1 X-32.3137 Y2.659
G1 X-31.1721 Y2.659
G1 X-30.9954 Y2.6776
G1 X-30.8362 Y2.7287
G1 X-30.6725 Y2.8213
G1 X-30.5478 Y2.9329
G1 X-30.4534 Y3.059
G1 X-21.0581 Y3.059
G1 X-17.5774 Y-0.4217
G1 X-17.6296 Y-0.5799
G1 X-17.6531 Y-0.7985
G1 X-17.627 Y-1.0478
G1 X-17.5586 Y-1.2564
G1 X-17.4493 Y-1.4468
G1 X-17.2897 Y-1.6264
G1 X-17.0944 Y-1.7664
G1 X-16.8936 Y-1.8552
G1 X-16.6687 Y-1.903
G1 X-16.4387 Y-1.903
G1 X-16.2239 Y-1.8579
G1 X-15.9949 Y-1.7559
G1 X-15.8176 Y-1.6264
G1 X-15.6638 Y-1.4556
G1 X-15.5488 Y-1.2564
G1 X-15.4761 Y-1.0274
G1 X-15.4542 Y-0.7985
G1 X-15.4804 Y-0.5702
G1 X-15.5488 Y-0.3616
G1 X-15.6704 Y-0.1543
G1 X-15.8176 Y0.0085
G1 X-15.9949 Y0.1379
G1 X-16.2138 Y0.2372
G1 X-16.4387 Y0.285
G1 X-16.6582 Y0.2855
G1 X-16.9424 Y0.2161
G1 X-20.5535 Y3.8272
G1 X-20.7087 Y3.9281
G1 X-20.8717 Y3.959
G1 X-30.4534 Y3.959
G1 X-30.5478 Y4.0852
G1 X-30.6644 Y4.1901
G1 X-30.8171 Y4.2808
G1 X-30.9853 Y4.3377
G1 X-31.1721 Y4.359
G1 X-32.3137 Y4.359
G1 X-32.4801 Y4.3421
G1 X-32.6496 Y4.2893
G1 X-32.8133 Y4.1967
G1 X-32.938 Y4.0852
G1 X-33.0323 Y3.959
G1 X-33.664 Y3.959
G1 X-33.664 Y13.219
G1 X-33.0323 Y13.219
G1 X-32.9454 Y13.1003
G1 X-32.8045 Y12.9757
G1 X-32.6496 Y12.8887
G1 X-32.4904 Y12.8376
G1 X-32.3137 Y12.819
G1 X-31.1721 Y12.819
G1 X-30.9954 Y12.8376
G1 X-30.8171 Y12.8972
G1 X-30.6644 Y12.9879
G1 X-30.5404 Y13.1003
G1 X-30.4534 Y13.219
G1 X-22.1997 Y13.219
G1 X-22.1024 Y13.23
G1 X-21.9581 Y13.2898
G1 X-21.8815 Y13.3508
G1 X-12.3966 Y22.8364
G1 X-12.3023 Y22.9843
G1 X-12.2719 Y23.1375
G1 X-12.2714 Y24.8268
G1 X-1.8679 Y24.8268
G1 X-1.8626 Y24.5682
G1 X-1.8403 Y24.4906
G1 X-1.7969 Y24.4168
G1 X-1.738 Y24.3547
G1 X-1.6541 Y24.3044
G1 X-1.5178 Y24.2768
G1 X1.6189 Y24.2788
G1 X1.7249 Y24.3077
G1 X1.8362 Y24.3866
G1 X1.9064 Y24.4951
G1 X1.9309 Y24.6023
G04 P0 ( dwell for no time -- G64 should not smooth over this point )
G0 Z5
(Block-name: block)
(Block-expand: 0)
(Block-enable: 1)

G0 X3.3396 Y15.7387
G01 F300.00000
G1 Z-0.05
G04 P0 ( dwell for no time -- G64 should not smooth over this point )
G01 F600.00000
G1 X3.3396 Y15.7387
G1 X3.3324 Y26.5879
G1 X3.3011 Y26.6909
G1 X3.2078 Y26.828
G1 X1.2508 Y28.7748
G1 X1.174 Y28.8181
G1 X1.071 Y28.8493
G1 X0.4821 Y28.8565
G1 X0.4821 Y29.3568
G1 X0.9425 Y29.3574
G1 X1.1501 Y29.3814
G1 X1.3388 Y29.4433
G1 X1.5111 Y29.5421
G1 X1.6752 Y29.6877
G1 X1.7924 Y29.848
G1 X1.8832 Y30.0478
G1 X1.9272 Y30.2627
G1 X1.925 Y30.4717
G1 X1.8794 Y30.6756
G1 X1.7981 Y30.8568
G1 X1.6678 Y31.0334
G1 X1.5199 Y31.1658
G1 X1.3388 Y31.2704
G1 X1.1501 Y31.3323
G1 X0.9321 Y31.3568
G1 X-0.8679 Y31.3568
G1 X-1.0655 Y31.3366
G1 X-1.2746 Y31.2704
G1 X-1.4557 Y31.1658
G1 X-1.6176 Y31.0178
G1 X-1.7568 Y30.8068
G1 X-12.573 Y30.8068
G1 X-12.7541 Y30.7684
G1 X-12.8309 Y30.7251
G1 X-12.9372 Y30.629
G1 X-13.7011 Y30.629
G1 X-13.703 Y31.151
G1 X-13.7304 Y31.2022
G1 X-13.7816 Y31.2296
G1 X-15.8011 Y31.2315
G1 X-15.8567 Y31.2147
G1 X-15.8992 Y31.151
G1 X-15.9011 Y30.629
G1 X-43.615 Y30.629
G1 X-43.7123 Y30.618
G1 X-43.8566 Y30.5582
G1 X-43.9332 Y30.4972
G1 X-50.1514 Y24.279
G1 X-51.0359 Y24.279
G1 X-51.1465 Y24.4312
G1 X-51.2782 Y24.5505
G1 X-51.4399 Y24.6465
G1 X-51.6181 Y24.7066
G1 X-51.8153 Y24.729
G1 X-52.6153 Y24.729
G1 X-52.8125 Y24.7066
G1 X-52.9716 Y24.655
G1 X-53.1355 Y24.5628
G1 X-53.2907 Y24.4231
G1 X-53.3995 Y24.2697
G1 X-53.4712 Y24.1071
G1 X-53.5109 Y23.9126
G1 X-53.5087 Y23.7246
G1 X-53.4712 Y23.5509
G1 X-53.3995 Y23.3883
G1 X-53.2907 Y23.2349
G1 X-53.1355 Y23.0952
G1 X-52.9716 Y23.0031
G1 X-52.8125 Y22.9514
G1 X-52.6258 Y22.9296
G1 X-51.8153 Y22.929
G1 X-51.6282 Y22.9487
G1 X-51.5402 Y22.9767
G1 X-51.5402 Y22.1413
G1 X-51.6282 Y22.1693
G1 X-51.8153 Y22.189
G1 X-52.6153 Y22.189
G1 X-52.8024 Y22.1693
G1 X-52.9716 Y22.115
G1 X-53.1355 Y22.0228
G1 X-53.2907 Y21.8831
G1 X-53.3995 Y21.7297
G1 X-53.4675 Y21.5769
G1 X-53.5109 Y21.3726
G1 X-53.5087 Y21.1846
G1 X-53.4712 Y21.0109
G1 X-53.3995 Y20.8483
G1 X-53.2767 Y20.6794
G1 X-53.1355 Y20.5552
G1 X-52.9907 Y20.4716
G1 X-52.8024 Y20.4087
G1 X-52.6153 Y20.389
G1 X-51.8153 Y20.389
G1 X-51.6282 Y20.4087
G1 X-51.5402 Y20.4367
G1 X-51.5402 Y19.6013
G1 X-51.6282 Y19.6293
G1 X-51.8153 Y19.649
G1 X-52.6153 Y19.649
G1 X-52.8024 Y19.6293
G1 X-52.9716 Y19.575
G1 X-53.1355 Y19.4828
G1 X-53.2907 Y19.3431
G1 X-53.3947 Y19.199
G1 X-53.4675 Y19.0369
G1 X-53.5109 Y18.8326
G1 X-53.5087 Y18.6446
G1 X-53.4712 Y18.4709
G1 X-53.3995 Y18.3083
G1 X-53.2767 Y18.1394
G1 X-53.1355 Y18.0152
G1 X-52.9907 Y17.9316
G1 X-52.8024 Y17.8687
G1 X-52.6153 Y17.849
G1 X-51.8153 Y17.849
G1 X-51.6282 Y17.8687
G1 X-51.5402 Y17.8967
G1 X-51.5402 Y17.0613
G1 X-51.6282 Y17.0893
G1 X-51.8153 Y17.109
G1 X-52.6153 Y17.109
G1 X-52.8024 Y17.0893
G1 X-52.9716 Y17.035
G1 X-53.1355 Y16.9428
G1 X-53.2907 Y16.8031
G1 X-53.3995 Y16.6497
G1 X-53.4675 Y16.4969
G1 X-53.5109 Y16.2926
G1 X-53.5087 Y16.1046
G1 X-53.4712 Y15.9309
G1 X-53.3995 Y15.7683
G1 X-53.2767 Y15.5994
G1 X-53.1355 Y15.4752
G1 X-52.9907 Y15.3916
G1 X-52.8024 Y15.3287
G1 X-52.6153 Y15.309
G1 X-51.8153 Y15.309
G1 X-51.6282 Y15.3287
G1 X-51.5402 Y15.3567
G1 X-51.5402 Y14.5213
G1 X-51.6282 Y14.5493
G1 X-51.8153 Y14.569
G1 X-52.6153 Y14.569
G1 X-52.8024 Y14.5493
G1 X-52.9716 Y14.495
G1 X-53.1355 Y14.4028
G1 X-53.2907 Y14.2631
G1 X-53.3995 Y14.1097
G1 X-53.4675 Y13.9569
G1 X-53.5109 Y13.7526
G1 X-53.5087 Y13.5646
G1 X-53.4712 Y13.3909
G1 X-53.3995 Y13.2283
G1 X-53.2767 Y13.0594
G1 X-53.1355 Y12.9352
G1 X-52.9907 Y12.8516
G1 X-52.8024 Y12.7887
G1 X-52.6153 Y12.769
G1 X-51.8153 Y12.769
G1 X-51.6282 Y12.7887
G1 X-51.5402 Y12.8167
G1 X-51.5402 Y11.9813
G1 X-51.6282 Y12.0093
G1 X-51.8153 Y12.029
G1 X-52.6153 Y12.029
G1 X-52.8024 Y12.0093
G1 X-52.9716 Y11.955
G1 X-53.1355 Y11.8628
G1 X-53.2907 Y11.7231
G1 X-53.3995 Y11.5697
G1 X-53.4675 Y11.4169
G1 X-53.5109 Y11.2126
G1 X-53.5087 Y11.0246
G1 X-53.4712 Y10.8509
G1 X-53.3995 Y10.6883
G1 X-53.2767 Y10.5194
G1 X-53.1355 Y10.3952
G1 X-52.9907 Y10.3116
G1 X-52.8024 Y10.2487
G1 X-52.6153 Y10.229
G1 X-51.8153 Y10.229
G1 X-51.6282 Y10.2487
G1 X-51.5402 Y10.2767
G1 X-51.5402 Y9.4413
G1 X-51.6282 Y9.4693
G1 X-51.8153 Y9.489
G1 X-52.6153 Y9.489
G1 X-52.8024 Y9.4693
G1 X-52.9716 Y9.415
G1 X-53.1355 Y9.3228
G1 X-53.2907 Y9.1831
G1 X-53.3995 Y9.0297
G1 X-53.4675 Y8.8769
G1 X-53.5109 Y8.6726
G1 X-53.5087 Y8.4846
G1 X-53.4712 Y8.3109
G1 X-53.3995 Y8.1483
G1 X-53.2767 Y7.9794
G1 X-53.1355 Y7.8552
G1 X-52.9907 Y7.7716
G1 X-52.8024 Y7.7087
G1 X-52.6153 Y7.689
G1 X-51.8153 Y7.689
G1 X-51.6282 Y7.7087
G1 X-51.5402 Y7.7367
G1 X-51.5402 Y6.9013
G1 X-51.6282 Y6.9293
G1 X-51.8153 Y6.949
G1 X-52.6153 Y6.949
G1 X-52.8024 Y6.9293
G1 X-52.9716 Y6.875
G1 X-53.1355 Y6.7828
G1 X-53.2907 Y6.6431
G1 X-53.3947 Y6.499
G1 X-53.4675 Y6.3369
G1 X-53.5109 Y6.1326
G1 X-53.5087 Y5.9446
G1 X-53.4712 Y5.7709
G1 X-53.3995 Y5.6083
G1 X-53.2767 Y5.4394
G1 X-53.1355 Y5.3152
G1 X-52.9907 Y5.2316
G1 X-52.8024 Y5.1687
G1 X-52.6153 Y5.149
G1 X-51.8153 Y5.149
G1 X-51.6282 Y5.1687
G1 X-51.5402 Y5.1967
G1 X-51.5402 Y4.3613
G1 X-51.6282 Y4.3893
G1 X-51.8153 Y4.409
G1 X-52.6153 Y4.409
G1 X-52.8024 Y4.3893
G1 X-52.9907 Y4.3265
G1 X-53.1355 Y4.2428
G1 X-53.2767 Y4.1186
G1 X-53.3995 Y3.9497
G1 X-53.4712 Y3.7871
G1 X-53.5087 Y3.6134
G1 X-53.5087 Y3.4046
G1 X-53.4712 Y3.2309
G1 X-53.3995 Y3.0683
G1 X-53.2841 Y2.9068
G1 X-53.1524 Y2.7875
G1 X-52.9907 Y2.6916
G1 X-52.8024 Y2.6287
G1 X-52.6153 Y2.609
G1 X-51.8153 Y2.609
G1 X-51.6282 Y2.6287
G1 X-51.459 Y2.6831
G1 X-51.2951 Y2.7752
G1 X-51.1368 Y2.9192
G1 X-50.415 Y2.1974
G1 X-50.415 Y1.419
G1 X-50.9153 Y1.419
G1 X-50.9172 Y1.7885
G1 X-50.9446 Y1.8397
G1 X-50.9958 Y1.8671
G1 X-53.4536 Y1.8614
G1 X-53.4984 Y1.8246
G1 X-53.5153 Y1.769
G1 X-53.5134 Y0.1495
G1 X-53.4709 Y0.0859
G1 X-53.4153 Y0.069
G1 X-50.9958 Y0.0709
G1 X-50.9446 Y0.0983
G1 X-50.9172 Y0.1495
G1 X-50.9153 Y0.519
G1 X-49.8677 Y0.53
G1 X-49.7234 Y0.5898
G1 X-49.6402 Y0.6581
G1 X-49.5534 Y0.7879
G1 X-49.5222 Y0.8909
G1 X-49.515 Y2.3838
G1 X-49.546 Y2.5468
G1 X-49.6468 Y2.702
G1 X-50.6402 Y3.6954
G1 X-50.6402 Y23.379
G1 X-49.8869 Y23.3862
G1 X-49.7839 Y23.4175
G1 X-49.6541 Y23.5042
G1 X-43.4286 Y29.729
G1 X-15.9011 Y29.729
G1 X-15.8992 Y29.207
G1 X-15.8718 Y29.1558
G1 X-15.8206 Y29.1284
G1 X-13.8011 Y29.1265
G1 X-13.7455 Y29.1434
G1 X-13.703 Y29.207
G1 X-13.7011 Y29.729
G1 X-12.6727 Y29.7362
G1 X-12.5092 Y29.7998
G1 X-12.3866 Y29.9068
G1 X-1.7568 Y29.9068
G1 X-1.6037 Y29.6803
G1 X-1.4557 Y29.5478
G1 X-1.2746 Y29.4433
G1 X-1.0859 Y29.3814
G1 X-0.8783 Y29.3574
G1 X-0.4179 Y29.3568
G1 X-0.4107 Y28.3284
G1 X-0.3795 Y28.2254
G1 X-0.2927 Y28.0956
G1 X-0.149 Y27.995
G1 X-0.046 Y27.9637
G1 X0.8065 Y27.9565
G1 X2.4396 Y26.3234
G1 X2.4396 Y15.9251
G1 X1.101 Y14.5865
G1 X0.9543 Y14.6154
G1 X0.7871 Y14.6154
G1 X0.5828 Y14.572
G1 X0.4207 Y14.4992
G1 X0.2766 Y14.3952
G1 X0.1492 Y14.257
G1 X0.0448 Y14.0761
G1 X-0.0096 Y13.9069
G1 X-0.0287 Y13.7303
G1 X-0.0069 Y13.5226
G1 X0.0533 Y13.3444
G1 X0.1426 Y13.1908
G1 X0.2766 Y13.0444
G1 X0.43 Y12.9356
G1 X0.5926 Y12.8639
G1 X0.7766 Y12.8248
G1 X0.9543 Y12.8242
G1 X1.1488 Y12.8639
G1 X1.3207 Y12.9404
G1 X1.4648 Y13.0444
G1 X1.6045 Y13.1996
G1 X1.6967 Y13.3635
G1 X1.7483 Y13.5226
G1 X1.7707 Y13.7198
G1 X1.7375 Y13.9503
G1 X3.2144 Y15.4278
G1 X3.3087 Y15.5757
G1 X3.3396 Y15.7387
G04 P0 ( dwell for no time -- G64 should not smooth over this point )
G0 Z5
(Block-name: block)
(Block-expand: 0)
(Block-enable: 1)

G0 X1.7707 Y8.6398
G01 F300.00000
G1 Z-0.05
G04 P0 ( dwell for no time -- G64 should not smooth over this point )
G01 F600.00000
G1 X1.7707 Y8.6398
G1 X1.751 Y8.4527
G1 X1.6967 Y8.2835
G1 X1.6045 Y8.1196
G1 X1.4803 Y7.9784
G1 X1.3207 Y7.8604
G1 X1.1387 Y7.7812
G1 X0.9543 Y7.7442
G1 X0.7766 Y7.7448
G1 X0.6404 Y7.7731
G1 X-7.3346 Y-0.2019
G1 X-7.243 Y-0.3616
G1 X-7.1703 Y-0.5906
G1 X-7.1485 Y-0.7985
G1 X-7.1703 Y-1.0274
G1 X-7.2478 Y-1.2657
G1 X-7.358 Y-1.4556
G1 X-7.5118 Y-1.6264
G1 X-7.7072 Y-1.7664
G1 X-7.908 Y-1.8552
G1 X-8.1329 Y-1.903
G1 X-8.3524 Y-1.9035
G1 X-8.5878 Y-1.8552
G1 X-8.7886 Y-1.7664
G1 X-8.9913 Y-1.6191
G1 X-9.1378 Y-1.4556
G1 X-9.2528 Y-1.2564
G1 X-9.3212 Y-1.0478
G1 X-9.3473 Y-0.8194
G1 X-9.3212 Y-0.5702
G1 X-9.248 Y-0.3523
G1 X-9.1312 Y-0.1543
G1 X-8.984 Y0.0085
G1 X-8.8067 Y0.1379
G1 X-8.5976 Y0.2334
G1 X-8.3629 Y0.285
G1 X-8.1222 Y0.2833
G1 X0.0039 Y8.4094
G1 X-0.0287 Y8.6503
G1 X-0.0096 Y8.8269
G1 X0.0448 Y8.9961
G1 X0.1492 Y9.177
G1 X0.2766 Y9.3152
G1 X0.4207 Y9.4186
G1 X0.4207 Y10.401
G1 X0.2611 Y10.5184
G1 X0.1426 Y10.6508
G1 X0.0533 Y10.8044
G1 X-0.0113 Y11.003
G1 X-0.0287 Y11.1903
G1 X-0.0096 Y11.3669
G1 X0.0533 Y11.5552
G1 X0.1492 Y11.717
G1 X0.2766 Y11.8552
G1 X0.4207 Y11.9592
G1 X0.5828 Y12.032
G1 X0.7766 Y12.0749
G1 X0.9648 Y12.0749
G1 X1.1387 Y12.0385
G1 X1.3114 Y11.964
G1 X1.4729 Y11.8486
G1 X1.5922 Y11.717
G1 X1.6967 Y11.5361
G1 X1.751 Y11.3669
G1 X1.7707 Y11.1798
G1 X1.751 Y10.9927
G1 X1.6967 Y10.8235
G1 X1.5922 Y10.6427
G1 X1.4648 Y10.5044
G1 X1.3207 Y10.401
G1 X1.3207 Y9.4186
G1 X1.4803 Y9.3012
G1 X1.6045 Y9.16
G1 X1.6967 Y8.9961
G1 X1.7483 Y8.837
G1 X1.7707 Y8.6398
G04 P0 ( dwell for no time -- G64 should not smooth over this point )
G0 Z5
(Block-name: block)
(Block-expand: 0)
(Block-enable: 1)

G0 X-7.1485 Y14.4206
G01 F300.00000
G1 Z-0.05
G04 P0 ( dwell for no time -- G64 should not smooth over this point )
G01 F600.00000
G1 X-7.1485 Y14.4206
G1 X-7.1746 Y14.6698
G1 X-7.243 Y14.8784
G1 X-7.3646 Y15.0857
G1 X-7.52 Y15.2551
G1 X-7.7072 Y15.3884
G1 X-7.908 Y15.4772
G1 X-8.1329 Y15.525
G1 X-8.3732 Y15.5234
G1 X-8.5878 Y15.4772
G1 X-8.7886 Y15.3884
G1 X-8.9913 Y15.2411
G1 X-9.1435 Y15.0688
G1 X-9.2515 Y14.881
G1 X-15.5501 Y14.881
G1 X-15.6581 Y15.0688
G1 X-15.8102 Y15.2411
G1 X-16.013 Y15.3884
G1 X-16.2138 Y15.4772
G1 X-16.4284 Y15.5234
G1 X-16.6687 Y15.525
G1 X-16.8936 Y15.4772
G1 X-17.0944 Y15.3884
G1 X-17.2816 Y15.2551
G1 X-17.437 Y15.0857
G1 X-17.5623 Y14.8686
G1 X-17.6313 Y14.6494
G1 X-17.6531 Y14.4206
G1 X-17.6296 Y14.2019
G1 X-17.5774 Y14.0437
G1 X-20.0421 Y11.579
G1 X-30.4534 Y11.579
G1 X-30.5478 Y11.7052
G1 X-30.6725 Y11.8167
G1 X-30.8171 Y11.9008
G1 X-30.9853 Y11.9577
G1 X-31.1721 Y11.979
G1 X-32.3137 Y11.979
G1 X-32.5005 Y11.9577
G1 X-32.6594 Y11.9055
G1 X-32.8133 Y11.8167
G1 X-32.938 Y11.7052
G1 X-33.0441 Y11.5628
G1 X-33.1221 Y11.3917
G1 X-33.159 Y11.2179
G1 X-33.159 Y11.0402
G1 X-33.1221 Y10.8663
G1 X-33.0546 Y10.7133
G1 X-32.938 Y10.5528
G1 X-32.8133 Y10.4413
G1 X-32.6496 Y10.3487
G1 X-32.4801 Y10.296
G1 X-32.3137 Y10.279
G1 X-31.1721 Y10.279
G1 X-30.9853 Y10.3003
G1 X-30.8171 Y10.3573
G1 X-30.6725 Y10.4413
G1 X-30.5478 Y10.5528
G1 X-30.4534 Y10.679
G1 X-19.7776 Y10.6862
G1 X-19.6746 Y10.7175
G1 X-19.5375 Y10.8108
G1 X-16.9424 Y13.406
G1 X-16.6582 Y13.3365
G1 X-16.4387 Y13.337
G1 X-16.204 Y13.3886
G1 X-15.9949 Y13.4841
G1 X-15.8102 Y13.621
G1 X-15.6638 Y13.7844
G1 X-15.5501 Y13.981
G1 X-9.2515 Y13.981
G1 X-9.1312 Y13.7763
G1 X-8.9913 Y13.621
G1 X-8.8067 Y13.4841
G1 X-8.5777 Y13.3821
G1 X-8.3629 Y13.337
G1 X-8.1434 Y13.3365
G1 X-7.908 Y13.3849
G1 X-7.7072 Y13.4736
G1 X-7.5045 Y13.621
G1 X-7.358 Y13.7844
G1 X-7.2393 Y13.9934
G1 X-7.1719 Y14.2023
G1 X-7.1485 Y14.4206
G04 P0 ( dwell for no time -- G64 should not smooth over this point )
G0 Z5
(Block-name: block)
(Block-expand: 0)
(Block-enable: 1)

G0 X-13.7063 Y24.9995
G01 F300.00000
G1 Z-0.05
G04 P0 ( dwell for no time -- G64 should not smooth over this point )
G01 F600.00000
G1 X-13.7063 Y24.9995
G1 X-13.7069 Y25.209
G1 X-13.7499 Y25.4141
G1 X-13.8421 Y25.6253
G1 X-13.9788 Y25.8107
G1 X-14.1349 Y25.9505
G1 X-14.3255 Y26.0605
G1 X-14.5247 Y26.1258
G1 X-14.7431 Y26.151
G1 X-15.0571 Y26.1301
G1 X-15.286 Y26.0558
G1 X-15.4672 Y25.9505
G1 X-15.6234 Y25.8107
G1 X-15.7601 Y25.6253
G1 X-15.8458 Y25.434
G1 X-15.8953 Y25.209
G1 X-15.8953 Y24.989
G1 X-15.8458 Y24.764
G1 X-15.7544 Y24.564
G1 X-15.6373 Y24.4029
G1 X-15.4672 Y24.2475
G1 X-15.2511 Y24.1286
G1 X-15.2511 Y23.2826
G1 X-21.8747 Y16.659
G1 X-30.4534 Y16.659
G1 X-30.5478 Y16.7852
G1 X-30.6725 Y16.8967
G1 X-30.8362 Y16.9893
G1 X-31.0057 Y17.0421
G1 X-31.1721 Y17.059
G1 X-32.3137 Y17.059
G1 X-32.4801 Y17.0421
G1 X-32.6496 Y16.9893
G1 X-32.8133 Y16.8967
G1 X-32.938 Y16.7852
G1 X-33.0323 Y16.659
G1 X-34.1238 Y16.6585
G1 X-34.277 Y16.6281
G1 X-34.3556 Y16.5882
G1 X-34.4322 Y16.5272
G1 X-35.8708 Y15.0879
G1 X-35.9651 Y14.94
G1 X-35.996 Y14.777
G1 X-35.9888 Y2.3229
G1 X-35.9576 Y2.2199
G1 X-35.8642 Y2.0828
G1 X-34.4249 Y0.6442
G1 X-34.277 Y0.5499
G1 X-34.1238 Y0.5195
G1 X-33.0323 Y0.519
G1 X-32.9454 Y0.4003
G1 X-32.8045 Y0.2757
G1 X-32.6594 Y0.1925
G1 X-32.4801 Y0.136
G1 X-32.3137 Y0.119
G1 X-31.1617 Y0.1196
G1 X-30.9853 Y0.1403
G1 X-30.8171 Y0.1972
G1 X-30.6644 Y0.2879
G1 X-30.5404 Y0.4003
G1 X-30.4417 Y0.5352
G1 X-30.3637 Y0.7063
G1 X-30.3268 Y0.8802
G1 X-30.3262 Y1.0474
G1 X-30.3637 Y1.2317
G1 X-30.4312 Y1.3847
G1 X-30.5478 Y1.5452
G1 X-30.6725 Y1.6567
G1 X-30.8362 Y1.7493
G1 X-30.9954 Y1.8005
G1 X-31.1617 Y1.8184
G1 X-32.3137 Y1.819
G1 X-32.4801 Y1.8021
G1 X-32.6496 Y1.7493
G1 X-32.8133 Y1.6567
G1 X-32.938 Y1.5452
G1 X-33.0323 Y1.419
G1 X-33.9276 Y1.419
G1 X-35.096 Y2.5874
G1 X-35.096 Y14.5906
G1 X-33.9276 Y15.759
G1 X-33.0323 Y15.759
G1 X-32.938 Y15.6329
G1 X-32.8133 Y15.5214
G1 X-32.6496 Y15.4287
G1 X-32.4801 Y15.376
G1 X-32.3137 Y15.359
G1 X-31.1721 Y15.359
G1 X-30.9954 Y15.3776
G1 X-30.8171 Y15.4372
G1 X-30.6644 Y15.5279
G1 X-30.5478 Y15.6329
G1 X-30.4534 Y15.759
G1 X-21.6883 Y15.759
G1 X-21.5072 Y15.7975
G1 X-21.3701 Y15.8908
G1 X-14.4763 Y22.7853
G1 X-14.382 Y22.9333
G1 X-14.3516 Y23.0864
G1 X-14.3511 Y24.1286
G1 X-14.1349 Y24.2475
G1 X-13.9648 Y24.4029
G1 X-13.8478 Y24.564
G1 X-13.7564 Y24.764
G1 X-13.7063 Y24.9995
G04 P0 ( dwell for no time -- G64 should not smooth over this point )
G0 Z5
(Block-name: block)
(Block-expand: 0)
(Block-enable: 1)

G0 X-24.4458 Y6.7244
G01 F300.00000
G1 Z-0.05
G04 P0 ( dwell for no time -- G64 should not smooth over this point )
G01 F600.00000
G1 X-24.4458 Y6.7244
G1 X-24.472 Y6.496
G1 X-24.5404 Y6.2874
G1 X-24.6554 Y6.0883
G1 X-24.8018 Y5.9248
G1 X-25.0046 Y5.7774
G1 X-25.2054 Y5.6886
G1 X-25.42 Y5.6425
G1 X-25.6706 Y5.6425
G1 X-25.8852 Y5.6886
G1 X-26.086 Y5.7774
G1 X-26.2887 Y5.9248
G1 X-26.4352 Y6.0883
G1 X-26.5489 Y6.2848
G1 X-30.3574 Y6.2848
G1 X-30.3268 Y6.1379
G1 X-30.3268 Y5.9602
G1 X-30.3637 Y5.7863
G1 X-30.4312 Y5.6333
G1 X-30.5478 Y5.4729
G1 X-30.6725 Y5.3613
G1 X-30.8171 Y5.2773
G1 X-30.9954 Y5.2176
G1 X-31.1721 Y5.199
G1 X-32.3137 Y5.199
G1 X-32.4904 Y5.2176
G1 X-32.6496 Y5.2687
G1 X-32.8133 Y5.3613
G1 X-32.938 Y5.4729
G1 X-33.0441 Y5.6153
G1 X-33.1248 Y5.7964
G1 X-33.159 Y5.9602
G1 X-33.159 Y6.1379
G1 X-33.1221 Y6.3117
G1 X-33.0441 Y6.4828
G1 X-32.938 Y6.6252
G1 X-32.8133 Y6.7367
G1 X-32.6496 Y6.8293
G1 X-32.4904 Y6.8804
G1 X-32.1929 Y6.899
G1 X-32.1929 Y7.739
G1 X-32.4801 Y7.756
G1 X-32.6496 Y7.8087
G1 X-32.8133 Y7.9014
G1 X-32.952 Y8.0284
G1 X-33.0546 Y8.1733
G1 X-33.1221 Y8.3263
G1 X-33.1574 Y8.4898
G1 X-33.159 Y8.6778
G1 X-33.1248 Y8.8416
G1 X-33.0441 Y9.0228
G1 X-32.938 Y9.1652
G1 X-32.8215 Y9.2701
G1 X-32.6687 Y9.3608
G1 X-32.4801 Y9.4221
G1 X-32.3137 Y9.439
G1 X-31.1721 Y9.439
G1 X-31.0057 Y9.4221
G1 X-30.8171 Y9.3608
G1 X-30.6644 Y9.2701
G1 X-30.5478 Y9.1652
G1 X-30.4417 Y9.0228
G1 X-30.361 Y8.8416
G1 X-30.3268 Y8.6778
G1 X-30.3262 Y8.5106
G1 X-30.3637 Y8.3263
G1 X-30.4312 Y8.1733
G1 X-30.5339 Y8.0284
G1 X-30.6813 Y7.8957
G1 X-30.8362 Y7.8087
G1 X-30.9954 Y7.7576
G1 X-31.2929 Y7.739
G1 X-31.2929 Y7.1848
G1 X-26.5485 Y7.1848
G1 X-26.4352 Y7.3814
G1 X-26.2887 Y7.5449
G1 X-26.0953 Y7.6875
G1 X-25.8751 Y7.7837
G1 X-25.6603 Y7.8288
G1 X-25.4303 Y7.8288
G1 X-25.2155 Y7.7837
G1 X-24.9953 Y7.6875
G1 X-24.8174 Y7.5588
G1 X-24.662 Y7.3895
G1 X-24.5404 Y7.1822
G1 X-24.472 Y6.9736
G1 X-24.4458 Y6.7244
G04 P0 ( dwell for no time -- G64 should not smooth over this point )
G0 Z5
(Block-name: block)
(Block-expand: 0)
(Block-enable: 1)

G0 X-37.9462 Y0.8906
G01 F300.00000
G1 Z-0.05
G04 P0 ( dwell for no time -- G64 should not smooth over this point )
G01 F600.00000
G1 X-37.9462 Y0.8906
G1 X-37.9875 Y0.6966
G1 X-38.0617 Y0.5352
G1 X-38.1604 Y0.4003
G1 X-38.2844 Y0.2879
G1 X-38.4371 Y0.1972
G1 X-38.6257 Y0.136
G1 X-38.7921 Y0.119
G1 X-39.9337 Y0.119
G1 X-40.1001 Y0.136
G1 X-40.2794 Y0.1925
G1 X-40.4245 Y0.2757
G1 X-40.5654 Y0.4003
G1 X-40.6523 Y0.519
G1 X-43.4165 Y0.519
G1 X-43.5265 Y0.3668
G1 X-43.6582 Y0.2475
G1 X-43.8199 Y0.1516
G1 X-43.9981 Y0.0914
G1 X-44.1953 Y0.069
G1 X-44.9953 Y0.069
G1 X-45.1824 Y0.0887
G1 X-45.3516 Y0.1431
G1 X-45.5155 Y0.2352
G1 X-45.6641 Y0.3668
G1 X-45.7795 Y0.5283
G1 X-45.8512 Y0.6909
G1 X-45.8887 Y0.8646
G1 X-45.8909 Y1.0526
G1 X-45.8475 Y1.2569
G1 X-45.769 Y1.4278
G1 X-45.6641 Y1.5712
G1 X-45.5324 Y1.6905
G1 X-45.3707 Y1.7865
G1 X-45.1721 Y1.851
G1 X-44.9953 Y1.869
G1 X-44.1953 Y1.869
G1 X-43.9981 Y1.8466
G1 X-43.8199 Y1.7865
G1 X-43.6582 Y1.6905
G1 X-43.5265 Y1.5712
G1 X-43.4165 Y1.419
G1 X-40.6523 Y1.419
G1 X-40.558 Y1.5452
G1 X-40.4333 Y1.6567
G1 X-40.2696 Y1.7493
G1 X-40.1104 Y1.8005
G1 X-39.9337 Y1.819
G1 X-38.7921 Y1.819
G1 X-38.6154 Y1.8005
G1 X-38.4562 Y1.7493
G1 X-38.2925 Y1.6567
G1 X-38.1678 Y1.5452
G1 X-38.056 Y1.394
G1 X-37.9837 Y1.2317
G1 X-37.9468 Y1.0579
G1 X-37.9462 Y0.8906
G04 P0 ( dwell for no time -- G64 should not smooth over this point )
G0 Z5
(Block-name: block)
(Block-expand: 0)
(Block-enable: 1)

G0 X-37.9462 Y3.4306
G01 F300.00000
G1 Z-0.05
G04 P0 ( dwell for no time -- G64 should not smooth over this point )
G01 F600.00000
G1 X-37.9462 Y3.4306
G1 X-37.9837 Y3.2463
G1 X-38.0512 Y3.0933
G1 X-38.1678 Y2.9329
G1 X-38.2925 Y2.8213
G1 X-38.4371 Y2.7373
G1 X-38.6257 Y2.676
G1 X-38.7921 Y2.659
G1 X-39.9337 Y2.659
G1 X-40.1104 Y2.6776
G1 X-40.2696 Y2.7287
G1 X-40.4333 Y2.8213
G1 X-40.558 Y2.9329
G1 X-40.6523 Y3.059
G1 X-43.4165 Y3.059
G1 X-43.5265 Y2.9068
G1 X-43.6582 Y2.7875
G1 X-43.8199 Y2.6916
G1 X-43.9981 Y2.6314
G1 X-44.1953 Y2.609
G1 X-44.9953 Y2.609
G1 X-45.1721 Y2.627
G1 X-45.3516 Y2.6831
G1 X-45.5155 Y2.7752
G1 X-45.6641 Y2.9068
G1 X-45.7795 Y3.0683
G1 X-45.8512 Y3.2309
G1 X-45.8887 Y3.4046
G1 X-45.8909 Y3.5926
G1 X-45.8475 Y3.7969
G1 X-45.769 Y3.9678
G1 X-45.6641 Y4.1112
G1 X-45.5324 Y4.2305
G1 X-45.3707 Y4.3265
G1 X-45.1721 Y4.391
G1 X-44.9953 Y4.409
G1 X-44.1953 Y4.409
G1 X-43.9981 Y4.3867
G1 X-43.8199 Y4.3265
G1 X-43.6582 Y4.2305
G1 X-43.5265 Y4.1112
G1 X-43.4165 Y3.959
G1 X-40.6523 Y3.959
G1 X-40.558 Y4.0852
G1 X-40.4333 Y4.1967
G1 X-40.2887 Y4.2808
G1 X-40.1205 Y4.3377
G1 X-39.9337 Y4.359
G1 X-38.7921 Y4.359
G1 X-38.6257 Y4.3421
G1 X-38.4562 Y4.2893
G1 X-38.2925 Y4.1967
G1 X-38.1678 Y4.0852
G1 X-38.0617 Y3.9428
G1 X-37.9837 Y3.7717
G1 X-37.9468 Y3.5979
G1 X-37.9462 Y3.4306
G04 P0 ( dwell for no time -- G64 should not smooth over this point )
G0 Z5
(Block-name: block)
(Block-expand: 0)
(Block-enable: 1)

G0 X-37.9462 Y5.9706
G01 F300.00000
G1 Z-0.05
G04 P0 ( dwell for no time -- G64 should not smooth over this point )
G01 F600.00000
G1 X-37.9462 Y5.9706
G1 X-37.9837 Y5.7863
G1 X-38.0512 Y5.6333
G1 X-38.1678 Y5.4729
G1 X-38.2925 Y5.3613
G1 X-38.4371 Y5.2773
G1 X-38.6257 Y5.216
G1 X-38.7921 Y5.199
G1 X-39.9337 Y5.199
G1 X-40.1104 Y5.2176
G1 X-40.2696 Y5.2687
G1 X-40.4333 Y5.3613
G1 X-40.558 Y5.4729
G1 X-40.6523 Y5.599
G1 X-43.4165 Y5.599
G1 X-43.5265 Y5.4468
G1 X-43.6582 Y5.3275
G1 X-43.8199 Y5.2316
G1 X-43.9981 Y5.1714
G1 X-44.1953 Y5.149
G1 X-44.9953 Y5.149
G1 X-45.1824 Y5.1687
G1 X-45.3516 Y5.2231
G1 X-45.5155 Y5.3152
G1 X-45.6641 Y5.4468
G1 X-45.7795 Y5.6083
G1 X-45.8512 Y5.7709
G1 X-45.8887 Y5.9446
G1 X-45.8909 Y6.1326
G1 X-45.8475 Y6.3369
G1 X-45.769 Y6.5078
G1 X-45.6641 Y6.6512
G1 X-45.5324 Y6.7705
G1 X-45.3707 Y6.8665
G1 X-45.1721 Y6.931
G1 X-44.9953 Y6.949
G1 X-44.1953 Y6.949
G1 X-43.9981 Y6.9267
G1 X-43.8199 Y6.8665
G1 X-43.6582 Y6.7705
G1 X-43.5265 Y6.6512
G1 X-43.4165 Y6.499
G1 X-40.6523 Y6.499
G1 X-40.558 Y6.6252
G1 X-40.4333 Y6.7367
G1 X-40.2696 Y6.8293
G1 X-40.1104 Y6.8804
G1 X-39.9337 Y6.899
G1 X-38.7921 Y6.899
G1 X-38.6154 Y6.8804
G1 X-38.4562 Y6.8293
G1 X-38.2925 Y6.7367
G1 X-38.1678 Y6.6252
G1 X-38.056 Y6.474
G1 X-37.9837 Y6.3117
G1 X-37.9468 Y6.1379
G1 X-37.9462 Y5.9706
G04 P0 ( dwell for no time -- G64 should not smooth over this point )
G0 Z5
(Block-name: block)
(Block-expand: 0)
(Block-enable: 1)

G0 X-37.9462 Y8.5106
G01 F300.00000
G1 Z-0.05
G04 P0 ( dwell for no time -- G64 should not smooth over this point )
G01 F600.00000
G1 X-37.9462 Y8.5106
G1 X-37.9837 Y8.3263
G1 X-38.0512 Y8.1733
G1 X-38.1678 Y8.0129
G1 X-38.2925 Y7.9014
G1 X-38.4371 Y7.8172
G1 X-38.6257 Y7.756
G1 X-38.7921 Y7.739
G1 X-39.9337 Y7.739
G1 X-40.1104 Y7.7576
G1 X-40.2696 Y7.8087
G1 X-40.4333 Y7.9014
G1 X-40.558 Y8.0129
G1 X-40.6523 Y8.139
G1 X-43.4165 Y8.139
G1 X-43.5265 Y7.9868
G1 X-43.6582 Y7.8675
G1 X-43.8199 Y7.7716
G1 X-43.9981 Y7.7114
G1 X-44.1953 Y7.689
G1 X-44.9953 Y7.689
G1 X-45.1721 Y7.707
G1 X-45.3516 Y7.7631
G1 X-45.5155 Y7.8552
G1 X-45.6641 Y7.9868
G1 X-45.7795 Y8.1483
G1 X-45.8512 Y8.3109
G1 X-45.8887 Y8.4846
G1 X-45.8909 Y8.6726
G1 X-45.8475 Y8.8769
G1 X-45.769 Y9.0478
G1 X-45.6641 Y9.1912
G1 X-45.5324 Y9.3105
G1 X-45.3707 Y9.4064
G1 X-45.1721 Y9.471
G1 X-44.9953 Y9.489
G1 X-44.1953 Y9.489
G1 X-44.0082 Y9.4693
G1 X-43.8199 Y9.4064
G1 X-43.6582 Y9.3105
G1 X-43.5265 Y9.1912
G1 X-43.4165 Y9.039
G1 X-40.6523 Y9.039
G1 X-40.558 Y9.1652
G1 X-40.4333 Y9.2767
G1 X-40.2696 Y9.3693
G1 X-40.1104 Y9.4205
G1 X-39.9337 Y9.439
G1 X-38.7921 Y9.439
G1 X-38.6154 Y9.4205
G1 X-38.4562 Y9.3693
G1 X-38.3013 Y9.2824
G1 X-38.1604 Y9.1578
G1 X-38.0617 Y9.0228
G1 X-37.9837 Y8.8517
G1 X-37.9468 Y8.6778
G1 X-37.9462 Y8.5106
G04 P0 ( dwell for no time -- G64 should not smooth over this point )
G0 Z5
(Block-name: block)
(Block-expand: 0)
(Block-enable: 1)

G0 X-37.9462 Y11.0506
G01 F300.00000
G1 Z-0.05
G04 P0 ( dwell for no time -- G64 should not smooth over this point )
G01 F600.00000
G1 X-37.9462 Y11.0506
G1 X-37.9837 Y10.8663
G1 X-38.0512 Y10.7133
G1 X-38.1678 Y10.5528
G1 X-38.2925 Y10.4413
G1 X-38.4371 Y10.3573
G1 X-38.6257 Y10.296
G1 X-38.7921 Y10.279
G1 X-39.9337 Y10.279
G1 X-40.1001 Y10.296
G1 X-40.2696 Y10.3487
G1 X-40.4333 Y10.4413
G1 X-40.558 Y10.5528
G1 X-40.6523 Y10.679
G1 X-43.4165 Y10.679
G1 X-43.5265 Y10.5268
G1 X-43.6582 Y10.4075
G1 X-43.8199 Y10.3116
G1 X-43.9981 Y10.2514
G1 X-44.1953 Y10.229
G1 X-44.9953 Y10.229
G1 X-45.1721 Y10.247
G1 X-45.3516 Y10.3031
G1 X-45.5155 Y10.3952
G1 X-45.6641 Y10.5268
G1 X-45.7795 Y10.6883
G1 X-45.8512 Y10.8509
G1 X-45.8887 Y11.0246
G1 X-45.8909 Y11.2126
G1 X-45.8475 Y11.4169
G1 X-45.769 Y11.5878
G1 X-45.6641 Y11.7312
G1 X-45.5324 Y11.8505
G1 X-45.3707 Y11.9465
G1 X-45.1721 Y12.011
G1 X-44.9953 Y12.029
G1 X-44.1953 Y12.029
G1 X-43.9981 Y12.0067
G1 X-43.8199 Y11.9465
G1 X-43.6582 Y11.8505
G1 X-43.5265 Y11.7312
G1 X-43.4165 Y11.579
G1 X-40.6523 Y11.579
G1 X-40.558 Y11.7052
G1 X-40.4333 Y11.8167
G1 X-40.2794 Y11.9055
G1 X-40.1205 Y11.9577
G1 X-39.9337 Y11.979
G1 X-38.7921 Y11.979
G1 X-38.6053 Y11.9577
G1 X-38.4464 Y11.9055
G1 X-38.2925 Y11.8167
G1 X-38.1678 Y11.7052
G1 X-38.0617 Y11.5628
G1 X-37.9837 Y11.3917
G1 X-37.9468 Y11.2179
G1 X-37.9462 Y11.0506
G04 P0 ( dwell for no time -- G64 should not smooth over this point )
G0 Z5
(Block-name: block)
(Block-expand: 0)
(Block-enable: 1)

G0 X-37.9462 Y13.5906
G01 F300.00000
G1 Z-0.05
G04 P0 ( dwell for no time -- G64 should not smooth over this point )
G01 F600.00000
G1 X-37.9462 Y13.5906
G1 X-37.9875 Y13.3966
G1 X-38.0617 Y13.2353
G1 X-38.1604 Y13.1003
G1 X-38.2844 Y12.9879
G1 X-38.4371 Y12.8972
G1 X-38.6257 Y12.836
G1 X-38.7921 Y12.819
G1 X-39.9337 Y12.819
G1 X-40.1104 Y12.8376
G1 X-40.2696 Y12.8887
G1 X-40.4333 Y12.9814
G1 X-40.558 Y13.0929
G1 X-40.6523 Y13.219
G1 X-43.4165 Y13.219
G1 X-43.5265 Y13.0668
G1 X-43.6582 Y12.9475
G1 X-43.8199 Y12.8516
G1 X-43.9981 Y12.7914
G1 X-44.1953 Y12.769
G1 X-44.9953 Y12.769
G1 X-45.1824 Y12.7887
G1 X-45.3516 Y12.8431
G1 X-45.5155 Y12.9352
G1 X-45.6641 Y13.0668
G1 X-45.7795 Y13.2283
G1 X-45.8512 Y13.3909
G1 X-45.8887 Y13.5646
G1 X-45.8909 Y13.7526
G1 X-45.8475 Y13.9569
G1 X-45.769 Y14.1278
G1 X-45.6641 Y14.2712
G1 X-45.5324 Y14.3905
G1 X-45.3707 Y14.4865
G1 X-45.1721 Y14.551
G1 X-44.9953 Y14.569
G1 X-44.1953 Y14.569
G1 X-43.9981 Y14.5466
G1 X-43.8199 Y14.4865
G1 X-43.6582 Y14.3905
G1 X-43.5265 Y14.2712
G1 X-43.4165 Y14.119
G1 X-40.6523 Y14.119
G1 X-40.558 Y14.2452
G1 X-40.4333 Y14.3567
G1 X-40.2696 Y14.4493
G1 X-40.1104 Y14.5005
G1 X-39.9337 Y14.519
G1 X-38.7921 Y14.519
G1 X-38.6154 Y14.5005
G1 X-38.4562 Y14.4493
G1 X-38.2925 Y14.3567
G1 X-38.1678 Y14.2452
G1 X-38.056 Y14.094
G1 X-37.9837 Y13.9317
G1 X-37.9468 Y13.7578
G1 X-37.9462 Y13.5906
G04 P0 ( dwell for no time -- G64 should not smooth over this point )
G0 Z5
(Block-name: block)
(Block-expand: 0)
(Block-enable: 1)

G0 X-30.3262 Y21.2106
G01 F300.00000
G1 Z-0.05
G04 P0 ( dwell for no time -- G64 should not smooth over this point )
G01 F600.00000
G1 X-30.3262 Y21.2106
G1 X-30.3637 Y21.0263
G1 X-30.4417 Y20.8553
G1 X-30.5478 Y20.7128
G1 X-30.6644 Y20.6079
G1 X-30.8362 Y20.5087
G1 X-30.9954 Y20.4576
G1 X-31.1721 Y20.439
G1 X-32.3137 Y20.439
G1 X-32.4904 Y20.4576
G1 X-32.6496 Y20.5087
G1 X-32.8133 Y20.6013
G1 X-32.938 Y20.7128
G1 X-33.0323 Y20.839
G1 X-34.1238 Y20.8395
G1 X-34.277 Y20.8699
G1 X-34.3719 Y20.9207
G1 X-36.8404 Y23.379
G1 X-43.4165 Y23.379
G1 X-43.5265 Y23.2268
G1 X-43.6582 Y23.1075
G1 X-43.8199 Y23.0116
G1 X-43.9981 Y22.9514
G1 X-44.1953 Y22.929
G1 X-45.0058 Y22.9296
G1 X-45.1925 Y22.9514
G1 X-45.3707 Y23.0116
G1 X-45.5324 Y23.1075
G1 X-45.6641 Y23.2268
G1 X-45.7795 Y23.3883
G1 X-45.8512 Y23.5509
G1 X-45.8909 Y23.7454
G1 X-45.8887 Y23.9334
G1 X-45.8512 Y24.1071
G1 X-45.7795 Y24.2697
G1 X-45.6641 Y24.4312
G1 X-45.5324 Y24.5505
G1 X-45.3516 Y24.655
G1 X-45.1721 Y24.711
G1 X-44.9953 Y24.729
G1 X-44.1953 Y24.729
G1 X-43.9981 Y24.7066
G1 X-43.8199 Y24.6465
G1 X-43.6582 Y24.5505
G1 X-43.5265 Y24.4312
G1 X-43.4165 Y24.279
G1 X-36.5759 Y24.2718
G1 X-36.4729 Y24.2406
G1 X-36.3358 Y24.1472
G1 X-33.9276 Y21.739
G1 X-33.0323 Y21.739
G1 X-32.9454 Y21.8578
G1 X-32.8045 Y21.9824
G1 X-32.6496 Y22.0693
G1 X-32.4801 Y22.1221
G1 X-32.3137 Y22.139
G1 X-31.1721 Y22.139
G1 X-31.0057 Y22.1221
G1 X-30.8171 Y22.0608
G1 X-30.6644 Y21.9701
G1 X-30.5339 Y21.8496
G1 X-30.4312 Y21.7047
G1 X-30.3637 Y21.5517
G1 X-30.3268 Y21.3778
G1 X-30.3262 Y21.2106
G04 P0 ( dwell for no time -- G64 should not smooth over this point )
G0 Z5
(Block-name: block)
(Block-expand: 0)
(Block-enable: 1)

G0 X-37.9462 Y16.1306
G01 F300.00000
G1 Z-0.05
G04 P0 ( dwell for no time -- G64 should not smooth over this point )
G01 F600.00000
G1 X-37.9462 Y16.1306
G1 X-37.9468 Y16.2979
G1 X-37.9837 Y16.4717
G1 X-38.0617 Y16.6428
G1 X-38.1678 Y16.7852
G1 X-38.2925 Y16.8967
G1 X-38.4562 Y16.9893
G1 X-38.6257 Y17.0421
G1 X-38.7921 Y17.059
G1 X-39.9337 Y17.059
G1 X-40.1205 Y17.0377
G1 X-40.2887 Y16.9808
G1 X-40.4333 Y16.8967
G1 X-40.558 Y16.7852
G1 X-40.6523 Y16.659
G1 X-43.4165 Y16.659
G1 X-43.5265 Y16.8112
G1 X-43.6582 Y16.9305
G1 X-43.8199 Y17.0265
G1 X-43.9981 Y17.0866
G1 X-44.1953 Y17.109
G1 X-44.9953 Y17.109
G1 X-45.1721 Y17.091
G1 X-45.3707 Y17.0265
G1 X-45.5324 Y16.9305
G1 X-45.6641 Y16.8112
G1 X-45.769 Y16.6678
G1 X-45.8475 Y16.4969
G1 X-45.8909 Y16.2926
G1 X-45.8887 Y16.1046
G1 X-45.8512 Y15.9309
G1 X-45.7795 Y15.7683
G1 X-45.6641 Y15.6068
G1 X-45.5155 Y15.4752
G1 X-45.3516 Y15.3831
G1 X-45.1721 Y15.327
G1 X-44.9953 Y15.309
G1 X-44.1953 Y15.309
G1 X-43.9981 Y15.3314
G1 X-43.8199 Y15.3916
G1 X-43.6582 Y15.4875
G1 X-43.5265 Y15.6068
G1 X-43.4165 Y15.759
G1 X-40.6523 Y15.759
G1 X-40.558 Y15.6329
G1 X-40.4333 Y15.5214
G1 X-40.2696 Y15.4287
G1 X-40.1104 Y15.3776
G1 X-39.9337 Y15.359
G1 X-38.7921 Y15.359
G1 X-38.6257 Y15.376
G1 X-38.4371 Y15.4372
G1 X-38.2925 Y15.5214
G1 X-38.1678 Y15.6329
G1 X-38.0512 Y15.7933
G1 X-37.9837 Y15.9463
G1 X-37.9462 Y16.1306
G04 P0 ( dwell for no time -- G64 should not smooth over this point )
G0 Z5
(Block-name: block)
(Block-expand: 0)
(Block-enable: 1)

G0 X-37.9462 Y18.6706
G01 F300.00000
G1 Z-0.05
G04 P0 ( dwell for no time -- G64 should not smooth over this point )
G01 F600.00000
G1 X-37.9462 Y18.6706
G1 X-37.9468 Y18.8378
G1 X-37.9837 Y19.0117
G1 X-38.056 Y19.174
G1 X-38.1678 Y19.3252
G1 X-38.2925 Y19.4367
G1 X-38.4562 Y19.5293
G1 X-38.6154 Y19.5804
G1 X-38.7921 Y19.599
G1 X-39.9337 Y19.599
G1 X-40.1104 Y19.5804
G1 X-40.2696 Y19.5293
G1 X-40.4333 Y19.4367
G1 X-40.558 Y19.3252
G1 X-40.6523 Y19.199
G1 X-43.4165 Y19.199
G1 X-43.5265 Y19.3512
G1 X-43.6582 Y19.4705
G1 X-43.8199 Y19.5664
G1 X-43.9981 Y19.6267
G1 X-44.1953 Y19.649
G1 X-44.9953 Y19.649
G1 X-45.1721 Y19.631
G1 X-45.3707 Y19.5664
G1 X-45.5324 Y19.4705
G1 X-45.6641 Y19.3512
G1 X-45.769 Y19.2078
G1 X-45.8475 Y19.0369
G1 X-45.8909 Y18.8326
G1 X-45.8887 Y18.6446
G1 X-45.8512 Y18.4709
G1 X-45.7795 Y18.3083
G1 X-45.6641 Y18.1468
G1 X-45.5155 Y18.0152
G1 X-45.3516 Y17.9231
G1 X-45.1824 Y17.8687
G1 X-44.9953 Y17.849
G1 X-44.1953 Y17.849
G1 X-43.9981 Y17.8714
G1 X-43.8199 Y17.9316
G1 X-43.6582 Y18.0275
G1 X-43.5265 Y18.1468
G1 X-43.4165 Y18.299
G1 X-40.6523 Y18.299
G1 X-40.558 Y18.1729
G1 X-40.4333 Y18.0614
G1 X-40.2696 Y17.9687
G1 X-40.1104 Y17.9176
G1 X-39.9337 Y17.899
G1 X-38.7921 Y17.899
G1 X-38.6257 Y17.916
G1 X-38.4371 Y17.9773
G1 X-38.2925 Y18.0614
G1 X-38.1678 Y18.1729
G1 X-38.0512 Y18.3333
G1 X-37.9837 Y18.4863
G1 X-37.9462 Y18.6706
G04 P0 ( dwell for no time -- G64 should not smooth over this point )
G0 Z5
(Block-name: block)
(Block-expand: 0)
(Block-enable: 1)

G0 X-37.9462 Y21.2106
G01 F300.00000
G1 Z-0.05
G04 P0 ( dwell for no time -- G64 should not smooth over this point )
G01 F600.00000
G1 X-37.9462 Y21.2106
G1 X-37.9468 Y21.3778
G1 X-37.9837 Y21.5517
G1 X-38.0617 Y21.7228
G1 X-38.1604 Y21.8578
G1 X-38.3013 Y21.9824
G1 X-38.4562 Y22.0693
G1 X-38.6154 Y22.1205
G1 X-38.7921 Y22.139
G1 X-39.9337 Y22.139
G1 X-40.1104 Y22.1205
G1 X-40.2696 Y22.0693
G1 X-40.4333 Y21.9767
G1 X-40.558 Y21.8652
G1 X-40.6523 Y21.739
G1 X-43.4165 Y21.739
G1 X-43.5265 Y21.8912
G1 X-43.6582 Y22.0105
G1 X-43.8199 Y22.1064
G1 X-44.0082 Y22.1693
G1 X-44.1953 Y22.189
G1 X-44.9953 Y22.189
G1 X-45.1721 Y22.171
G1 X-45.3707 Y22.1064
G1 X-45.5324 Y22.0105
G1 X-45.6641 Y21.8912
G1 X-45.769 Y21.7478
G1 X-45.8475 Y21.5769
G1 X-45.8909 Y21.3726
G1 X-45.8887 Y21.1846
G1 X-45.8512 Y21.0109
G1 X-45.7795 Y20.8483
G1 X-45.6641 Y20.6868
G1 X-45.5155 Y20.5552
G1 X-45.3516 Y20.4631
G1 X-45.1721 Y20.407
G1 X-44.9953 Y20.389
G1 X-44.1953 Y20.389
G1 X-43.9981 Y20.4114
G1 X-43.8199 Y20.4716
G1 X-43.6582 Y20.5675
G1 X-43.5265 Y20.6868
G1 X-43.4165 Y20.839
G1 X-40.6523 Y20.839
G1 X-40.558 Y20.7128
G1 X-40.4333 Y20.6013
G1 X-40.2696 Y20.5087
G1 X-40.1104 Y20.4576
G1 X-39.9337 Y20.439
G1 X-38.7921 Y20.439
G1 X-38.6257 Y20.456
G1 X-38.4371 Y20.5173
G1 X-38.2925 Y20.6013
G1 X-38.1678 Y20.7128
G1 X-38.0512 Y20.8733
G1 X-37.9837 Y21.0263
G1 X-37.9462 Y21.2106

G04 P0 ( dwell for no time -- G64 should not smooth over this point )
G0 Z10
(Block-name: block)
(Block-expand: 0)
(Block-enable: 1)

M5 ( Spindle off. )
G04 P1.000000
M9 ( Coolant off. )
M2 ( Program end. )

