( pcb2gcode 1.3.2 )
( Software-independent Gcode )

G94 ( Millimeters per minute feed rate. )
G21 ( Units == Millimeters. )

G90 ( Absolute coordinates. )
G00 S10000 ( RPM spindle speed. )
G64 P0.01000 ( set maximum deviation from commanded toolpath )
G01 F600.00000 ( Feedrate. )

G01 F600.00000 ( Feedrate. )
M3 ( Spindle on clockwise. )
G04 P1.00000
G04 P0 ( dwell for no time -- G64 should not smooth over this point )
G00 Z5.00000 ( retract )

G00 X-25.19509 Y58.05631 ( rapid move to begin. )
G01 F300.00000
G01 Z-0.05000
G04 P0 ( dwell for no time -- G64 should not smooth over this point )
G01 F600.00000
G01 X-25.19509 Y58.05631
G01 X-25.20038 Y65.83018
G01 X-25.22593 Y65.91443
G01 X-25.29761 Y66.01910
G01 X-26.28780 Y67.00930
G01 X-26.39248 Y67.08098
G01 X-26.53528 Y67.11181
G01 X-53.47558 Y67.10269
G01 X-53.58381 Y67.05786
G01 X-53.64528 Y67.00930
G01 X-59.26587 Y61.38802
G01 X-59.33094 Y61.29061
G01 X-59.35649 Y61.20639
G01 X-59.36178 Y60.42458
G01 X-59.48616 Y60.37063
G01 X-59.63932 Y60.26011
G01 X-59.78034 Y60.10593
G01 X-59.88342 Y59.92417
G01 X-59.94102 Y59.74505
G01 X-59.96178 Y59.54754
G01 X-59.96178 Y58.74754
G01 X-59.94102 Y58.55003
G01 X-59.87491 Y58.35181
G01 X-59.78034 Y58.18915
G01 X-59.65487 Y58.04896
G01 X-59.47745 Y57.92006
G01 X-59.29523 Y57.84132
G01 X-59.10064 Y57.80220
G01 X-58.91248 Y57.80274
G01 X-58.70844 Y57.84780
G01 X-58.52800 Y57.93052
G01 X-58.36871 Y58.04896
G01 X-58.24321 Y58.18915
G01 X-58.14867 Y58.35181
G01 X-58.08256 Y58.55003
G01 X-58.06178 Y58.74754
G01 X-58.06234 Y59.55800
G01 X-58.08256 Y59.74505
G01 X-58.14016 Y59.92417
G01 X-58.24321 Y60.10593
G01 X-58.38426 Y60.26011
G01 X-58.53740 Y60.37063
G01 X-58.66178 Y60.42458
G01 X-58.66178 Y61.00283
G01 X-53.25282 Y66.41181
G01 X-26.68026 Y66.41181
G01 X-25.89509 Y65.62662
G01 X-25.89509 Y58.20129
G01 X-34.94184 Y49.14164
G01 X-34.98667 Y49.03341
G01 X-34.99579 Y48.95561
G01 X-34.99579 Y47.50286
G01 X-35.12017 Y47.44888
G01 X-35.28146 Y47.33179
G01 X-35.42004 Y47.17543
G01 X-35.51740 Y47.00243
G01 X-35.57232 Y46.83344
G01 X-35.59523 Y46.63626
G01 X-35.59579 Y45.82580
G01 X-35.57666 Y45.63863
G01 X-35.51740 Y45.44919
G01 X-35.41435 Y45.26741
G01 X-35.28885 Y45.12722
G01 X-35.12957 Y45.00878
G01 X-34.94913 Y44.92605
G01 X-34.73462 Y44.88046
G01 X-34.54649 Y44.88102
G01 X-34.35223 Y44.92230
G01 X-34.18012 Y44.99834
G01 X-34.01824 Y45.11323
G01 X-33.87153 Y45.27619
G01 X-33.77791 Y45.43941
G01 X-33.71492 Y45.63863
G01 X-33.69579 Y45.82580
G01 X-33.69579 Y46.62582
G01 X-33.71926 Y46.83344
G01 X-33.77791 Y47.01221
G01 X-33.88380 Y47.19234
G01 X-34.01824 Y47.33839
G01 X-34.17140 Y47.44888
G01 X-34.29579 Y47.50286
G01 X-34.29579 Y48.81063
G01 X-25.29761 Y57.80883
G01 X-25.21841 Y57.93162
G01 X-25.19509 Y58.05631
G04 P0 ( dwell for no time -- G64 should not smooth over this point )
G00 Z5.00000 ( retract )

G00 X-26.19540 Y58.47071 ( rapid move to begin. )
G01 F300.00000
G01 Z-0.05000
G04 P0 ( dwell for no time -- G64 should not smooth over this point )
G01 F600.00000
G01 X-26.19540 Y58.47071
G01 X-26.20068 Y65.41578
G01 X-26.22623 Y65.50003
G01 X-26.29131 Y65.59744
G01 X-26.70220 Y66.00899
G01 X-26.80688 Y66.08067
G01 X-26.94968 Y66.11151
G01 X-49.39588 Y66.10239
G01 X-49.50411 Y66.05756
G01 X-49.56558 Y66.00899
G01 X-54.18587 Y61.38802
G01 X-54.25094 Y61.29061
G01 X-54.27649 Y61.20639
G01 X-54.28178 Y60.42458
G01 X-54.40616 Y60.37063
G01 X-54.55932 Y60.26011
G01 X-54.70606 Y60.09717
G01 X-54.79966 Y59.93395
G01 X-54.85831 Y59.75516
G01 X-54.88178 Y59.54754
G01 X-54.88178 Y58.74754
G01 X-54.86102 Y58.55003
G01 X-54.79491 Y58.35181
G01 X-54.70034 Y58.18915
G01 X-54.57487 Y58.04896
G01 X-54.39745 Y57.92006
G01 X-54.21523 Y57.84132
G01 X-54.02064 Y57.80220
G01 X-53.83248 Y57.80274
G01 X-53.62844 Y57.84780
G01 X-53.45679 Y57.92481
G01 X-53.28871 Y58.04896
G01 X-53.16321 Y58.18915
G01 X-53.06867 Y58.35181
G01 X-53.00256 Y58.55003
G01 X-52.98178 Y58.74754
G01 X-52.98234 Y59.55800
G01 X-53.00256 Y59.74505
G01 X-53.06016 Y59.92417
G01 X-53.16321 Y60.10593
G01 X-53.30426 Y60.26011
G01 X-53.45740 Y60.37063
G01 X-53.58178 Y60.42458
G01 X-53.58178 Y61.00283
G01 X-49.17310 Y65.41151
G01 X-27.09466 Y65.41151
G01 X-26.89540 Y65.21225
G01 X-26.89540 Y58.61569
G01 X-36.93495 Y48.57611
G01 X-37.26360 Y48.56699
G01 X-37.38811 Y48.51129
G01 X-37.47097 Y48.42844
G01 X-37.51244 Y48.35081
G01 X-37.53530 Y48.23590
G01 X-37.53579 Y47.50286
G01 X-37.66017 Y47.44888
G01 X-37.81333 Y47.33839
G01 X-37.94777 Y47.19234
G01 X-38.05367 Y47.01221
G01 X-38.11232 Y46.83344
G01 X-38.13579 Y46.62582
G01 X-38.13523 Y45.81536
G01 X-38.11232 Y45.61818
G01 X-38.05740 Y45.44919
G01 X-37.95435 Y45.26741
G01 X-37.82885 Y45.12722
G01 X-37.66957 Y45.00878
G01 X-37.48913 Y44.92605
G01 X-37.27462 Y44.88046
G01 X-37.08649 Y44.88102
G01 X-36.89223 Y44.92230
G01 X-36.72012 Y44.99834
G01 X-36.55824 Y45.11323
G01 X-36.41153 Y45.27619
G01 X-36.31417 Y45.44919
G01 X-36.25492 Y45.63863
G01 X-36.23579 Y45.82580
G01 X-36.23579 Y46.62582
G01 X-36.25926 Y46.83344
G01 X-36.31791 Y47.01221
G01 X-36.42380 Y47.19234
G01 X-36.55824 Y47.33839
G01 X-36.71140 Y47.44888
G01 X-36.83579 Y47.50286
G01 X-36.83579 Y47.87611
G01 X-36.66528 Y47.89946
G01 X-36.54249 Y47.97863
G01 X-26.29791 Y58.22323
G01 X-26.21871 Y58.34602
G01 X-26.19540 Y58.47071
G04 P0 ( dwell for no time -- G64 should not smooth over this point )
G00 Z5.00000 ( retract )

G00 X-27.19578 Y63.00580 ( rapid move to begin. )
G01 F300.00000
G01 Z-0.05000
G04 P0 ( dwell for no time -- G64 should not smooth over this point )
G01 F600.00000
G01 X-27.19578 Y63.00580
G01 X-27.19578 Y65.00582
G01 X-27.22509 Y65.07651
G01 X-27.29578 Y65.10582
G01 X-29.29580 Y65.10582
G01 X-29.36649 Y65.07651
G01 X-29.39580 Y65.00582
G01 X-29.39387 Y62.98629
G01 X-29.36649 Y62.93511
G01 X-29.31531 Y62.90773
G01 X-28.64579 Y62.90580
G01 X-28.64579 Y61.52879
G01 X-28.81696 Y61.35015
G01 X-28.87268 Y61.22562
G01 X-28.88178 Y60.42458
G01 X-29.00616 Y60.37063
G01 X-29.15932 Y60.26011
G01 X-29.29377 Y60.11406
G01 X-29.39966 Y59.93395
G01 X-29.45831 Y59.75516
G01 X-29.48178 Y59.54754
G01 X-29.48124 Y58.73710
G01 X-29.46268 Y58.56037
G01 X-29.40342 Y58.37091
G01 X-29.30034 Y58.18915
G01 X-29.17487 Y58.04896
G01 X-29.01556 Y57.93052
G01 X-28.81523 Y57.84132
G01 X-28.63108 Y57.80274
G01 X-28.43248 Y57.80274
G01 X-28.24833 Y57.84132
G01 X-28.06611 Y57.92006
G01 X-27.89611 Y58.04155
G01 X-27.76982 Y58.18102
G01 X-27.66392 Y58.36113
G01 X-27.60525 Y58.53992
G01 X-27.58178 Y58.74754
G01 X-27.58178 Y59.54754
G01 X-27.60525 Y59.75516
G01 X-27.66867 Y59.94327
G01 X-27.76982 Y60.11406
G01 X-27.90426 Y60.26011
G01 X-28.05740 Y60.37063
G01 X-28.18178 Y60.42458
G01 X-28.18178 Y61.00283
G01 X-28.01061 Y61.18147
G01 X-27.95107 Y61.32523
G01 X-27.94579 Y62.90580
G01 X-27.27627 Y62.90773
G01 X-27.21264 Y62.95025
G01 X-27.19578 Y63.00580
G04 P0 ( dwell for no time -- G64 should not smooth over this point )
G00 Z5.00000 ( retract )

G00 X-29.73634 Y63.99536 ( rapid move to begin. )
G01 F300.00000
G01 Z-0.05000
G04 P0 ( dwell for no time -- G64 should not smooth over this point )
G01 F600.00000
G01 X-29.73634 Y63.99536
G01 X-29.76252 Y64.24463
G01 X-29.83090 Y64.45322
G01 X-29.95246 Y64.66051
G01 X-30.10789 Y64.82985
G01 X-30.29511 Y64.96320
G01 X-30.49587 Y65.05197
G01 X-30.72081 Y65.09978
G01 X-30.95076 Y65.09978
G01 X-31.16559 Y65.05469
G01 X-31.39457 Y64.95274
G01 X-31.57184 Y64.82327
G01 X-31.73140 Y64.64359
G01 X-31.84067 Y64.45322
G01 X-31.90905 Y64.24463
G01 X-31.93524 Y64.01626
G01 X-31.91339 Y63.78743
G01 X-31.83592 Y63.54908
G01 X-31.71911 Y63.35111
G01 X-31.57184 Y63.18835
G01 X-31.39457 Y63.05889
G01 X-31.18579 Y62.96353
G01 X-31.18579 Y61.52879
G01 X-31.35696 Y61.35015
G01 X-31.41268 Y61.22562
G01 X-31.42178 Y60.42458
G01 X-31.54616 Y60.37063
G01 X-31.69932 Y60.26011
G01 X-31.84606 Y60.09717
G01 X-31.93966 Y59.93395
G01 X-31.99831 Y59.75516
G01 X-32.02178 Y59.54754
G01 X-32.02124 Y58.73710
G01 X-32.00102 Y58.55003
G01 X-31.94342 Y58.37091
G01 X-31.84034 Y58.18915
G01 X-31.71487 Y58.04896
G01 X-31.54680 Y57.92481
G01 X-31.35523 Y57.84132
G01 X-31.17108 Y57.80274
G01 X-30.97248 Y57.80274
G01 X-30.78833 Y57.84132
G01 X-30.59679 Y57.92481
G01 X-30.42871 Y58.04896
G01 X-30.30321 Y58.18915
G01 X-30.20016 Y58.37091
G01 X-30.14256 Y58.55003
G01 X-30.12178 Y58.74754
G01 X-30.12178 Y59.54754
G01 X-30.14256 Y59.74505
G01 X-30.20867 Y59.94327
G01 X-30.30982 Y60.11406
G01 X-30.44426 Y60.26011
G01 X-30.59740 Y60.37063
G01 X-30.72178 Y60.42458
G01 X-30.72178 Y61.00283
G01 X-30.55061 Y61.18147
G01 X-30.49107 Y61.32523
G01 X-30.48579 Y62.96353
G01 X-30.29511 Y63.04842
G01 X-30.10789 Y63.18177
G01 X-29.94586 Y63.35924
G01 X-29.82714 Y63.56818
G01 X-29.75983 Y63.77710
G01 X-29.73634 Y63.99536
G04 P0 ( dwell for no time -- G64 should not smooth over this point )
G00 Z5.00000 ( retract )

G00 X-32.66178 Y58.74754 ( rapid move to begin. )
G01 F300.00000
G01 Z-0.05000
G04 P0 ( dwell for no time -- G64 should not smooth over this point )
G01 F600.00000
G01 X-32.66178 Y58.74754
G01 X-32.66178 Y59.54754
G01 X-32.68256 Y59.74505
G01 X-32.74016 Y59.92417
G01 X-32.83752 Y60.09717
G01 X-32.98426 Y60.26011
G01 X-33.13679 Y60.37027
G01 X-33.32833 Y60.45376
G01 X-33.51248 Y60.49234
G01 X-33.71108 Y60.49234
G01 X-33.90536 Y60.45104
G01 X-34.07745 Y60.37502
G01 X-34.24745 Y60.25353
G01 X-34.37377 Y60.11406
G01 X-34.47966 Y59.93395
G01 X-34.54268 Y59.73471
G01 X-34.56178 Y59.54754
G01 X-34.56124 Y58.73710
G01 X-34.54268 Y58.56037
G01 X-34.48342 Y58.37091
G01 X-34.38034 Y58.18915
G01 X-34.23932 Y58.03497
G01 X-34.08616 Y57.92445
G01 X-33.96178 Y57.87050
G01 X-33.96178 Y55.09449
G01 X-40.02184 Y49.02155
G01 X-40.06667 Y48.91332
G01 X-40.07579 Y48.83552
G01 X-40.07579 Y47.50286
G01 X-40.20017 Y47.44888
G01 X-40.35333 Y47.33839
G01 X-40.49435 Y47.18422
G01 X-40.58889 Y47.02153
G01 X-40.65232 Y46.83344
G01 X-40.67579 Y46.62582
G01 X-40.67579 Y45.82580
G01 X-40.65232 Y45.61818
G01 X-40.58889 Y45.43009
G01 X-40.49435 Y45.26741
G01 X-40.35333 Y45.11323
G01 X-40.19146 Y44.99834
G01 X-40.01935 Y44.92230
G01 X-39.81462 Y44.88046
G01 X-39.61615 Y44.88265
G01 X-39.43223 Y44.92230
G01 X-39.26012 Y44.99834
G01 X-39.09824 Y45.11323
G01 X-38.95722 Y45.26741
G01 X-38.85417 Y45.44919
G01 X-38.79654 Y45.62829
G01 X-38.77579 Y45.82580
G01 X-38.77579 Y46.62582
G01 X-38.79654 Y46.82333
G01 X-38.86268 Y47.02153
G01 X-38.96380 Y47.19234
G01 X-39.09824 Y47.33839
G01 X-39.25140 Y47.44888
G01 X-39.37579 Y47.50286
G01 X-39.37579 Y48.69054
G01 X-33.31573 Y54.76347
G01 X-33.27090 Y54.87170
G01 X-33.26178 Y54.94950
G01 X-33.26178 Y57.87050
G01 X-33.13740 Y57.92445
G01 X-32.98426 Y58.03497
G01 X-32.84321 Y58.18915
G01 X-32.74016 Y58.37091
G01 X-32.68256 Y58.55003
G01 X-32.66178 Y58.74754
G04 P0 ( dwell for no time -- G64 should not smooth over this point )
G00 Z5.00000 ( retract )

G00 X-35.20178 Y58.74754 ( rapid move to begin. )
G01 F300.00000
G01 Z-0.05000
G04 P0 ( dwell for no time -- G64 should not smooth over this point )
G01 F600.00000
G01 X-35.20178 Y58.74754
G01 X-35.20178 Y59.54754
G01 X-35.22525 Y59.75516
G01 X-35.28016 Y59.92417
G01 X-35.37752 Y60.09717
G01 X-35.52426 Y60.26011
G01 X-35.68611 Y60.37502
G01 X-35.85822 Y60.45104
G01 X-36.05248 Y60.49234
G01 X-36.25108 Y60.49234
G01 X-36.43523 Y60.45376
G01 X-36.62680 Y60.37027
G01 X-36.78745 Y60.25353
G01 X-36.91377 Y60.11406
G01 X-37.02342 Y59.92417
G01 X-37.08268 Y59.73471
G01 X-37.10178 Y59.54754
G01 X-37.10124 Y58.73710
G01 X-37.08102 Y58.55003
G01 X-37.02342 Y58.37091
G01 X-36.92034 Y58.18915
G01 X-36.77932 Y58.03497
G01 X-36.62616 Y57.92445
G01 X-36.50178 Y57.87050
G01 X-36.50178 Y55.45499
G01 X-42.56184 Y49.38205
G01 X-42.60667 Y49.27382
G01 X-42.61579 Y49.19600
G01 X-42.61579 Y47.50286
G01 X-42.74017 Y47.44888
G01 X-42.89333 Y47.33839
G01 X-43.04004 Y47.17543
G01 X-43.13367 Y47.01221
G01 X-43.19232 Y46.83344
G01 X-43.21579 Y46.62582
G01 X-43.21579 Y45.82580
G01 X-43.19232 Y45.61818
G01 X-43.12889 Y45.43009
G01 X-43.03435 Y45.26741
G01 X-42.89333 Y45.11323
G01 X-42.73146 Y44.99834
G01 X-42.55935 Y44.92230
G01 X-42.35462 Y44.88046
G01 X-42.15615 Y44.88265
G01 X-41.97223 Y44.92230
G01 X-41.80012 Y44.99834
G01 X-41.63824 Y45.11323
G01 X-41.49722 Y45.26741
G01 X-41.39417 Y45.44919
G01 X-41.33492 Y45.63863
G01 X-41.31579 Y45.82580
G01 X-41.31579 Y46.62582
G01 X-41.33926 Y46.83344
G01 X-41.39791 Y47.01221
G01 X-41.50380 Y47.19234
G01 X-41.63824 Y47.33839
G01 X-41.79140 Y47.44888
G01 X-41.91579 Y47.50286
G01 X-41.91579 Y49.05104
G01 X-35.86663 Y55.10767
G01 X-35.82512 Y55.18532
G01 X-35.80178 Y55.31001
G01 X-35.80178 Y57.87050
G01 X-35.67740 Y57.92445
G01 X-35.52426 Y58.03497
G01 X-35.38321 Y58.18915
G01 X-35.28016 Y58.37091
G01 X-35.22091 Y58.56037
G01 X-35.20178 Y58.74754
G04 P0 ( dwell for no time -- G64 should not smooth over this point )
G00 Z5.00000 ( retract )

G00 X-37.74178 Y58.74754 ( rapid move to begin. )
G01 F300.00000
G01 Z-0.05000
G04 P0 ( dwell for no time -- G64 should not smooth over this point )
G01 F600.00000
G01 X-37.74178 Y58.74754
G01 X-37.74178 Y59.54754
G01 X-37.76256 Y59.74505
G01 X-37.82016 Y59.92417
G01 X-37.91752 Y60.09717
G01 X-38.06426 Y60.26011
G01 X-38.22611 Y60.37502
G01 X-38.39822 Y60.45104
G01 X-38.59248 Y60.49234
G01 X-38.79108 Y60.49234
G01 X-38.98536 Y60.45104
G01 X-39.15745 Y60.37502
G01 X-39.32745 Y60.25353
G01 X-39.45377 Y60.11406
G01 X-39.55966 Y59.93395
G01 X-39.62268 Y59.73471
G01 X-39.64178 Y59.54754
G01 X-39.64124 Y58.73710
G01 X-39.62102 Y58.55003
G01 X-39.56342 Y58.37091
G01 X-39.46034 Y58.18915
G01 X-39.31932 Y58.03497
G01 X-39.16616 Y57.92445
G01 X-39.04178 Y57.87050
G01 X-39.04178 Y56.17599
G01 X-45.10184 Y50.10303
G01 X-45.14667 Y49.99480
G01 X-45.15579 Y49.91700
G01 X-45.15579 Y47.50286
G01 X-45.28017 Y47.44888
G01 X-45.43333 Y47.33839
G01 X-45.58004 Y47.17543
G01 X-45.67367 Y47.01221
G01 X-45.73232 Y46.83344
G01 X-45.75579 Y46.62582
G01 X-45.75579 Y45.82580
G01 X-45.73232 Y45.61818
G01 X-45.66889 Y45.43009
G01 X-45.57435 Y45.26741
G01 X-45.43333 Y45.11323
G01 X-45.27146 Y44.99834
G01 X-45.09935 Y44.92230
G01 X-44.89462 Y44.88046
G01 X-44.69615 Y44.88265
G01 X-44.51223 Y44.92230
G01 X-44.34012 Y44.99834
G01 X-44.17824 Y45.11323
G01 X-44.03722 Y45.26741
G01 X-43.93791 Y45.43941
G01 X-43.87492 Y45.63863
G01 X-43.85579 Y45.82580
G01 X-43.85579 Y46.62582
G01 X-43.87926 Y46.83344
G01 X-43.93791 Y47.01221
G01 X-44.04380 Y47.19234
G01 X-44.17824 Y47.33839
G01 X-44.33140 Y47.44888
G01 X-44.45579 Y47.50286
G01 X-44.45579 Y49.77204
G01 X-38.40663 Y55.82867
G01 X-38.36512 Y55.90632
G01 X-38.34178 Y56.03101
G01 X-38.34178 Y57.87050
G01 X-38.21740 Y57.92445
G01 X-38.06426 Y58.03497
G01 X-37.91752 Y58.19794
G01 X-37.82392 Y58.36113
G01 X-37.76525 Y58.53992
G01 X-37.74178 Y58.74754
G04 P0 ( dwell for no time -- G64 should not smooth over this point )
G00 Z5.00000 ( retract )

G00 X-40.28178 Y58.74754 ( rapid move to begin. )
G01 F300.00000
G01 Z-0.05000
G04 P0 ( dwell for no time -- G64 should not smooth over this point )
G01 F600.00000
G01 X-40.28178 Y58.74754
G01 X-40.28178 Y59.54754
G01 X-40.30091 Y59.73471
G01 X-40.36016 Y59.92417
G01 X-40.46982 Y60.11406
G01 X-40.58871 Y60.24612
G01 X-40.74800 Y60.36456
G01 X-40.94833 Y60.45376
G01 X-41.13248 Y60.49234
G01 X-41.33108 Y60.49234
G01 X-41.52536 Y60.45104
G01 X-41.69745 Y60.37502
G01 X-41.87487 Y60.24612
G01 X-42.00606 Y60.09717
G01 X-42.09491 Y59.94327
G01 X-42.16268 Y59.73471
G01 X-42.18178 Y59.49750
G01 X-42.89067 Y59.49222
G01 X-42.97489 Y59.46667
G01 X-43.07230 Y59.40159
G01 X-47.64184 Y54.81984
G01 X-47.68667 Y54.71161
G01 X-47.69579 Y54.63381
G01 X-47.69579 Y47.50286
G01 X-47.82017 Y47.44888
G01 X-47.97333 Y47.33839
G01 X-48.12004 Y47.17543
G01 X-48.21367 Y47.01221
G01 X-48.27232 Y46.83344
G01 X-48.29579 Y46.62582
G01 X-48.29579 Y45.82580
G01 X-48.27232 Y45.61818
G01 X-48.20889 Y45.43009
G01 X-48.11435 Y45.26741
G01 X-47.97333 Y45.11323
G01 X-47.81146 Y44.99834
G01 X-47.63935 Y44.92230
G01 X-47.45543 Y44.88265
G01 X-47.25695 Y44.88046
G01 X-47.05223 Y44.92230
G01 X-46.86201 Y45.00878
G01 X-46.70272 Y45.12722
G01 X-46.57153 Y45.27619
G01 X-46.47791 Y45.43941
G01 X-46.41926 Y45.61818
G01 X-46.39635 Y45.81536
G01 X-46.39635 Y46.63626
G01 X-46.41926 Y46.83344
G01 X-46.47417 Y47.00243
G01 X-46.57722 Y47.18422
G01 X-46.70272 Y47.32440
G01 X-46.87140 Y47.44888
G01 X-46.99579 Y47.50286
G01 X-46.99579 Y54.48882
G01 X-42.68711 Y58.79750
G01 X-42.18178 Y58.79750
G01 X-42.15831 Y58.53992
G01 X-42.09491 Y58.35181
G01 X-41.99377 Y58.18102
G01 X-41.85932 Y58.03497
G01 X-41.70680 Y57.92481
G01 X-41.51523 Y57.84132
G01 X-41.32064 Y57.80220
G01 X-41.13248 Y57.80274
G01 X-40.92844 Y57.84780
G01 X-40.75679 Y57.92481
G01 X-40.58871 Y58.04896
G01 X-40.46321 Y58.18915
G01 X-40.36016 Y58.37091
G01 X-40.30256 Y58.55003
G01 X-40.28178 Y58.74754
G04 P0 ( dwell for no time -- G64 should not smooth over this point )
G00 Z5.00000 ( retract )

G00 X-45.36178 Y58.74754 ( rapid move to begin. )
G01 F300.00000
G01 Z-0.05000
G04 P0 ( dwell for no time -- G64 should not smooth over this point )
G01 F600.00000
G01 X-45.36178 Y58.74754
G01 X-45.36178 Y59.54754
G01 X-45.38256 Y59.74505
G01 X-45.44016 Y59.92417
G01 X-45.53752 Y60.09717
G01 X-45.68426 Y60.26011
G01 X-45.83679 Y60.37027
G01 X-46.02833 Y60.45376
G01 X-46.21248 Y60.49234
G01 X-46.41108 Y60.49234
G01 X-46.60536 Y60.45104
G01 X-46.77745 Y60.37502
G01 X-46.94745 Y60.25353
G01 X-47.07377 Y60.11406
G01 X-47.17966 Y59.93395
G01 X-47.24268 Y59.73471
G01 X-47.26178 Y59.54754
G01 X-47.26124 Y58.73710
G01 X-47.23831 Y58.53992
G01 X-47.17491 Y58.35181
G01 X-47.08034 Y58.18915
G01 X-46.93932 Y58.03497
G01 X-46.78680 Y57.92481
G01 X-46.61512 Y57.84780
G01 X-46.41108 Y57.80274
G01 X-46.20214 Y57.80439
G01 X-46.02833 Y57.84132
G01 X-45.84611 Y57.92006
G01 X-45.66871 Y58.04896
G01 X-45.53752 Y58.19794
G01 X-45.44016 Y58.37091
G01 X-45.38525 Y58.53992
G01 X-45.36178 Y58.74754
G04 P0 ( dwell for no time -- G64 should not smooth over this point )
G00 Z5.00000 ( retract )

G00 X-47.90178 Y58.74754 ( rapid move to begin. )
G01 F300.00000
G01 Z-0.05000
G04 P0 ( dwell for no time -- G64 should not smooth over this point )
G01 F600.00000
G01 X-47.90178 Y58.74754
G01 X-47.90178 Y59.54754
G01 X-47.92525 Y59.75516
G01 X-47.98016 Y59.92417
G01 X-48.07752 Y60.09717
G01 X-48.22426 Y60.26011
G01 X-48.38611 Y60.37502
G01 X-48.55822 Y60.45104
G01 X-48.75248 Y60.49234
G01 X-48.95108 Y60.49234
G01 X-49.13523 Y60.45376
G01 X-49.32680 Y60.37027
G01 X-49.48745 Y60.25353
G01 X-49.61377 Y60.11406
G01 X-49.72342 Y59.92417
G01 X-49.78268 Y59.73471
G01 X-49.80178 Y59.54754
G01 X-49.80124 Y58.73710
G01 X-49.78102 Y58.55003
G01 X-49.71491 Y58.35181
G01 X-49.62034 Y58.18915
G01 X-49.47932 Y58.03497
G01 X-49.32680 Y57.92481
G01 X-49.15512 Y57.84780
G01 X-48.95108 Y57.80274
G01 X-48.74214 Y57.80439
G01 X-48.56833 Y57.84132
G01 X-48.38611 Y57.92006
G01 X-48.20871 Y58.04896
G01 X-48.07752 Y58.19794
G01 X-47.98016 Y58.37091
G01 X-47.92525 Y58.53992
G01 X-47.90178 Y58.74754
G04 P0 ( dwell for no time -- G64 should not smooth over this point )
G00 Z5.00000 ( retract )

G00 X-50.44178 Y58.74754 ( rapid move to begin. )
G01 F300.00000
G01 Z-0.05000
G04 P0 ( dwell for no time -- G64 should not smooth over this point )
G01 F600.00000
G01 X-50.44178 Y58.74754
G01 X-50.44178 Y59.54754
G01 X-50.46256 Y59.74505
G01 X-50.52016 Y59.92417
G01 X-50.61752 Y60.09717
G01 X-50.76426 Y60.26011
G01 X-50.92611 Y60.37502
G01 X-51.09822 Y60.45104
G01 X-51.29248 Y60.49234
G01 X-51.49108 Y60.49234
G01 X-51.68536 Y60.45104
G01 X-51.85745 Y60.37502
G01 X-52.02745 Y60.25353
G01 X-52.15377 Y60.11406
G01 X-52.25966 Y59.93395
G01 X-52.32268 Y59.73471
G01 X-52.34178 Y59.54754
G01 X-52.34124 Y58.73710
G01 X-52.32102 Y58.55003
G01 X-52.25491 Y58.35181
G01 X-52.16034 Y58.18915
G01 X-52.01932 Y58.03497
G01 X-51.86680 Y57.92481
G01 X-51.69512 Y57.84780
G01 X-51.49108 Y57.80274
G01 X-51.28214 Y57.80439
G01 X-51.10833 Y57.84132
G01 X-50.92611 Y57.92006
G01 X-50.75611 Y58.04155
G01 X-50.61752 Y58.19794
G01 X-50.52392 Y58.36113
G01 X-50.46525 Y58.53992
G01 X-50.44178 Y58.74754
G04 P0 ( dwell for no time -- G64 should not smooth over this point )
G00 Z5.00000 ( retract )

G00 X-55.52178 Y58.74754 ( rapid move to begin. )
G01 F300.00000
G01 Z-0.05000
G04 P0 ( dwell for no time -- G64 should not smooth over this point )
G01 F600.00000
G01 X-55.52178 Y58.74754
G01 X-55.52178 Y59.54754
G01 X-55.54256 Y59.74505
G01 X-55.60016 Y59.92417
G01 X-55.69752 Y60.09717
G01 X-55.84426 Y60.26011
G01 X-55.99679 Y60.37027
G01 X-56.18833 Y60.45376
G01 X-56.36214 Y60.49069
G01 X-56.56064 Y60.49288
G01 X-56.76536 Y60.45104
G01 X-56.93745 Y60.37502
G01 X-57.09932 Y60.26011
G01 X-57.23377 Y60.11406
G01 X-57.33966 Y59.93395
G01 X-57.40268 Y59.73471
G01 X-57.42178 Y59.54754
G01 X-57.42124 Y58.73710
G01 X-57.39831 Y58.53992
G01 X-57.33966 Y58.36113
G01 X-57.23377 Y58.18102
G01 X-57.09932 Y58.03497
G01 X-56.93745 Y57.92006
G01 X-56.77512 Y57.84780
G01 X-56.57108 Y57.80274
G01 X-56.36214 Y57.80439
G01 X-56.18833 Y57.84132
G01 X-56.00611 Y57.92006
G01 X-55.83611 Y58.04155
G01 X-55.69752 Y58.19794
G01 X-55.60016 Y58.37091
G01 X-55.54525 Y58.53992
G01 X-55.52178 Y58.74754
G04 P0 ( dwell for no time -- G64 should not smooth over this point )
G00 Z5.00000 ( retract )

G00 X-60.60178 Y58.74754 ( rapid move to begin. )
G01 F300.00000
G01 Z-0.05000
G04 P0 ( dwell for no time -- G64 should not smooth over this point )
G01 F600.00000
G01 X-60.60178 Y58.74754
G01 X-60.60178 Y59.54754
G01 X-60.62256 Y59.74505
G01 X-60.68016 Y59.92417
G01 X-60.77752 Y60.09717
G01 X-60.92426 Y60.26011
G01 X-61.08611 Y60.37502
G01 X-61.25822 Y60.45104
G01 X-61.46294 Y60.49288
G01 X-61.66142 Y60.49069
G01 X-61.84536 Y60.45104
G01 X-62.03556 Y60.36456
G01 X-62.19487 Y60.24612
G01 X-62.32034 Y60.10593
G01 X-62.42342 Y59.92417
G01 X-62.48268 Y59.73471
G01 X-62.50178 Y59.54754
G01 X-62.50124 Y58.73710
G01 X-62.48102 Y58.55003
G01 X-62.41491 Y58.35181
G01 X-62.32034 Y58.18915
G01 X-62.17932 Y58.03497
G01 X-62.01745 Y57.92006
G01 X-61.85512 Y57.84780
G01 X-61.65108 Y57.80274
G01 X-61.44214 Y57.80439
G01 X-61.26833 Y57.84132
G01 X-61.08611 Y57.92006
G01 X-60.90871 Y58.04896
G01 X-60.77752 Y58.19794
G01 X-60.68016 Y58.37091
G01 X-60.62525 Y58.53992
G01 X-60.60178 Y58.74754
G04 P0 ( dwell for no time -- G64 should not smooth over this point )
G00 Z5.00000 ( retract )

G00 X-63.14178 Y58.74754 ( rapid move to begin. )
G01 F300.00000
G01 Z-0.05000
G04 P0 ( dwell for no time -- G64 should not smooth over this point )
G01 F600.00000
G01 X-63.14178 Y58.74754
G01 X-63.14178 Y59.54754
G01 X-63.16256 Y59.74505
G01 X-63.22016 Y59.92417
G01 X-63.31752 Y60.09717
G01 X-63.46426 Y60.26011
G01 X-63.62611 Y60.37502
G01 X-63.79822 Y60.45104
G01 X-64.00294 Y60.49288
G01 X-64.20142 Y60.49069
G01 X-64.38536 Y60.45104
G01 X-64.57556 Y60.36456
G01 X-64.73487 Y60.24612
G01 X-64.86034 Y60.10593
G01 X-64.96342 Y59.92417
G01 X-65.02268 Y59.73471
G01 X-65.04178 Y59.54754
G01 X-65.04124 Y58.73710
G01 X-65.02102 Y58.55003
G01 X-64.95491 Y58.35181
G01 X-64.86034 Y58.18915
G01 X-64.71932 Y58.03497
G01 X-64.55745 Y57.92006
G01 X-64.39512 Y57.84780
G01 X-64.19108 Y57.80274
G01 X-63.98214 Y57.80439
G01 X-63.80833 Y57.84132
G01 X-63.62611 Y57.92006
G01 X-63.44871 Y58.04896
G01 X-63.31752 Y58.19794
G01 X-63.22016 Y58.37091
G01 X-63.16525 Y58.53992
G01 X-63.14178 Y58.74754
G04 P0 ( dwell for no time -- G64 should not smooth over this point )
G00 Z5.00000 ( retract )

G00 X-54.01579 Y45.82580 ( rapid move to begin. )
G01 F300.00000
G01 Z-0.05000
G04 P0 ( dwell for no time -- G64 should not smooth over this point )
G01 F600.00000
G01 X-54.01579 Y45.82580
G01 X-54.03654 Y45.62829
G01 X-54.10268 Y45.43009
G01 X-54.20380 Y45.25928
G01 X-54.33824 Y45.11323
G01 X-54.48201 Y45.00878
G01 X-54.67223 Y44.92230
G01 X-54.87695 Y44.88046
G01 X-55.07543 Y44.88265
G01 X-55.25935 Y44.92230
G01 X-55.43146 Y44.99834
G01 X-55.59333 Y45.11323
G01 X-55.73435 Y45.26741
G01 X-55.83367 Y45.43941
G01 X-55.89232 Y45.61818
G01 X-55.91579 Y45.82580
G01 X-55.91579 Y46.62582
G01 X-55.89232 Y46.83344
G01 X-55.83367 Y47.01221
G01 X-55.73435 Y47.18422
G01 X-55.59333 Y47.33839
G01 X-55.44017 Y47.44888
G01 X-55.31579 Y47.50286
G01 X-55.31579 Y47.87611
G01 X-58.04862 Y47.87611
G01 X-65.02489 Y40.89982
G01 X-65.02489 Y20.41589
G01 X-57.69572 Y13.07385
G01 X-57.65088 Y12.96562
G01 X-57.64227 Y12.89762
G01 X-57.64179 Y12.16458
G01 X-57.51741 Y12.11063
G01 X-57.36425 Y12.00011
G01 X-57.22980 Y11.85406
G01 X-57.12391 Y11.67395
G01 X-57.06526 Y11.49516
G01 X-57.04179 Y11.28754
G01 X-57.04179 Y10.48754
G01 X-57.06092 Y10.30037
G01 X-57.12866 Y10.09181
G01 X-57.22980 Y9.92102
G01 X-57.36425 Y9.77497
G01 X-57.52612 Y9.66006
G01 X-57.69823 Y9.58404
G01 X-57.90293 Y9.54220
G01 X-58.10143 Y9.54439
G01 X-58.28535 Y9.58404
G01 X-58.45746 Y9.66006
G01 X-58.63486 Y9.78896
G01 X-58.76605 Y9.93794
G01 X-58.85965 Y10.10113
G01 X-58.91832 Y10.27992
G01 X-58.94123 Y10.47710
G01 X-58.94179 Y11.28754
G01 X-58.91832 Y11.49516
G01 X-58.85965 Y11.67395
G01 X-58.75375 Y11.85406
G01 X-58.61934 Y12.00011
G01 X-58.46617 Y12.11063
G01 X-58.34179 Y12.16458
G01 X-58.34179 Y12.74283
G01 X-65.62237 Y20.02341
G01 X-65.67093 Y20.08488
G01 X-65.71577 Y20.19311
G01 X-65.71960 Y41.10338
G01 X-65.69405 Y41.18763
G01 X-65.62237 Y41.29231
G01 X-58.44108 Y48.47360
G01 X-58.31830 Y48.55277
G01 X-58.19358 Y48.57611
G01 X-54.96580 Y48.57611
G01 X-54.88797 Y48.56699
G01 X-54.77974 Y48.52216
G01 X-54.68061 Y48.42844
G01 X-54.62107 Y48.28470
G01 X-54.61579 Y47.50286
G01 X-54.49140 Y47.44888
G01 X-54.33824 Y47.33839
G01 X-54.20380 Y47.19234
G01 X-54.09791 Y47.01221
G01 X-54.03926 Y46.83344
G01 X-54.01579 Y46.62582
G01 X-54.01579 Y45.82580
G04 P0 ( dwell for no time -- G64 should not smooth over this point )
G00 Z5.00000 ( retract )

G00 X-51.47579 Y45.82580 ( rapid move to begin. )
G01 F300.00000
G01 Z-0.05000
G04 P0 ( dwell for no time -- G64 should not smooth over this point )
G01 F600.00000
G01 X-51.47579 Y45.82580
G01 X-51.47579 Y46.62582
G01 X-51.49654 Y46.82333
G01 X-51.56268 Y47.02153
G01 X-51.66380 Y47.19234
G01 X-51.79824 Y47.33839
G01 X-51.95140 Y47.44888
G01 X-52.07579 Y47.50286
G01 X-52.07579 Y48.22610
G01 X-52.10662 Y48.36892
G01 X-52.17830 Y48.47360
G01 X-53.18259 Y49.47789
G01 X-53.28727 Y49.54957
G01 X-53.43009 Y49.58040
G01 X-58.70648 Y49.57131
G01 X-58.81471 Y49.52648
G01 X-58.87618 Y49.47789
G01 X-66.62277 Y41.73129
G01 X-66.67134 Y41.66985
G01 X-66.71617 Y41.56162
G01 X-66.72001 Y18.67274
G01 X-66.69445 Y18.58849
G01 X-66.62277 Y18.48382
G01 X-60.88179 Y12.74283
G01 X-60.88179 Y12.16458
G01 X-61.00617 Y12.11063
G01 X-61.15934 Y12.00011
G01 X-61.29375 Y11.85406
G01 X-61.39965 Y11.67395
G01 X-61.45832 Y11.49516
G01 X-61.48179 Y11.28754
G01 X-61.48179 Y10.48754
G01 X-61.46266 Y10.30037
G01 X-61.40340 Y10.11091
G01 X-61.29375 Y9.92102
G01 X-61.16746 Y9.78155
G01 X-61.01557 Y9.67052
G01 X-60.81524 Y9.58132
G01 X-60.62063 Y9.54220
G01 X-60.42215 Y9.54439
G01 X-60.23823 Y9.58404
G01 X-60.04801 Y9.67052
G01 X-59.89612 Y9.78155
G01 X-59.75751 Y9.93794
G01 X-59.66391 Y10.10113
G01 X-59.60092 Y10.30037
G01 X-59.58179 Y10.48754
G01 X-59.58179 Y11.28754
G01 X-59.60526 Y11.49516
G01 X-59.66391 Y11.67395
G01 X-59.76980 Y11.85406
G01 X-59.90425 Y12.00011
G01 X-60.05741 Y12.11063
G01 X-60.18179 Y12.16458
G01 X-60.18227 Y12.89762
G01 X-60.19088 Y12.96562
G01 X-60.23572 Y13.07385
G01 X-66.02529 Y18.87630
G01 X-66.02529 Y41.33884
G01 X-58.48373 Y48.88040
G01 X-53.57505 Y48.88040
G01 X-52.77579 Y48.08114
G01 X-52.77579 Y47.50286
G01 X-52.90017 Y47.44888
G01 X-53.05333 Y47.33839
G01 X-53.18777 Y47.19234
G01 X-53.29740 Y47.00243
G01 X-53.35666 Y46.81300
G01 X-53.37579 Y46.62582
G01 X-53.37523 Y45.81536
G01 X-53.35503 Y45.62829
G01 X-53.29740 Y45.44919
G01 X-53.19435 Y45.26741
G01 X-53.05333 Y45.11323
G01 X-52.89146 Y44.99834
G01 X-52.71935 Y44.92230
G01 X-52.51462 Y44.88046
G01 X-52.32649 Y44.88102
G01 X-52.13223 Y44.92230
G01 X-51.96012 Y44.99834
G01 X-51.79824 Y45.11323
G01 X-51.65722 Y45.26741
G01 X-51.56268 Y45.43009
G01 X-51.49926 Y45.61818
G01 X-51.47579 Y45.82580
G04 P0 ( dwell for no time -- G64 should not smooth over this point )
G00 Z5.00000 ( retract )

G00 X-48.93579 Y45.82580 ( rapid move to begin. )
G01 F300.00000
G01 Z-0.05000
G04 P0 ( dwell for no time -- G64 should not smooth over this point )
G01 F600.00000
G01 X-48.93579 Y45.82580
G01 X-48.95926 Y45.61818
G01 X-49.02268 Y45.43009
G01 X-49.11722 Y45.26741
G01 X-49.25824 Y45.11323
G01 X-49.42012 Y44.99834
G01 X-49.59223 Y44.92230
G01 X-49.79695 Y44.88046
G01 X-49.98509 Y44.88102
G01 X-50.17935 Y44.92230
G01 X-50.35146 Y44.99834
G01 X-50.51333 Y45.11323
G01 X-50.65435 Y45.26741
G01 X-50.75740 Y45.44919
G01 X-50.81232 Y45.61818
G01 X-50.83523 Y45.81536
G01 X-50.83579 Y46.62582
G01 X-50.81666 Y46.81300
G01 X-50.75367 Y47.01221
G01 X-50.64777 Y47.19234
G01 X-50.51333 Y47.33839
G01 X-50.36017 Y47.44888
G01 X-50.23579 Y47.50286
G01 X-50.23579 Y48.08114
G01 X-52.03695 Y49.88231
G01 X-58.93432 Y49.88231
G01 X-67.03138 Y41.78524
G01 X-67.03138 Y17.34239
G01 X-62.82431 Y13.13529
G01 X-62.75263 Y13.03061
G01 X-62.72179 Y12.88782
G01 X-62.72179 Y12.16458
G01 X-62.59741 Y12.11063
G01 X-62.44425 Y12.00011
G01 X-62.30980 Y11.85406
G01 X-62.20866 Y11.68327
G01 X-62.14254 Y11.48505
G01 X-62.12179 Y11.28754
G01 X-62.12179 Y10.48754
G01 X-62.14254 Y10.29003
G01 X-62.20866 Y10.09181
G01 X-62.30322 Y9.92915
G01 X-62.44425 Y9.77497
G01 X-62.60612 Y9.66006
G01 X-62.77823 Y9.58404
G01 X-62.98293 Y9.54220
G01 X-63.18143 Y9.54439
G01 X-63.37513 Y9.58780
G01 X-63.53746 Y9.66006
G01 X-63.69934 Y9.77497
G01 X-63.84036 Y9.92915
G01 X-63.94340 Y10.11091
G01 X-64.00104 Y10.29003
G01 X-64.02179 Y10.48754
G01 X-64.02179 Y11.28754
G01 X-64.00104 Y11.48505
G01 X-63.93490 Y11.68327
G01 X-63.83375 Y11.85406
G01 X-63.69934 Y12.00011
G01 X-63.54617 Y12.11063
G01 X-63.42179 Y12.16458
G01 X-63.42179 Y12.74283
G01 X-67.62887 Y16.94994
G01 X-67.70055 Y17.05461
G01 X-67.72610 Y17.13884
G01 X-67.73138 Y41.93020
G01 X-67.70804 Y42.05492
G01 X-67.62887 Y42.17770
G01 X-59.32678 Y50.47979
G01 X-59.26531 Y50.52838
G01 X-59.15708 Y50.57321
G01 X-51.89199 Y50.58230
G01 X-51.74917 Y50.55147
G01 X-51.64450 Y50.47979
G01 X-49.58974 Y48.41215
G01 X-49.55913 Y48.35081
G01 X-49.53627 Y48.23590
G01 X-49.53579 Y47.50286
G01 X-49.41140 Y47.44888
G01 X-49.25824 Y47.33839
G01 X-49.12380 Y47.19234
G01 X-49.01791 Y47.01221
G01 X-48.95926 Y46.83344
G01 X-48.93579 Y46.62582
G01 X-48.93579 Y45.82580
G04 P0 ( dwell for no time -- G64 should not smooth over this point )
G00 Z5.00000 ( retract )

G00 X-50.33279 Y42.90480 ( rapid move to begin. )
G01 F300.00000
G01 Z-0.05000
G04 P0 ( dwell for no time -- G64 should not smooth over this point )
G01 F600.00000
G01 X-50.33279 Y42.90480
G01 X-50.33279 Y43.70482
G01 X-50.35626 Y43.91244
G01 X-50.41491 Y44.09121
G01 X-50.50853 Y44.25443
G01 X-50.65524 Y44.41739
G01 X-50.81712 Y44.53228
G01 X-50.98923 Y44.60833
G01 X-51.19395 Y44.65016
G01 X-51.39243 Y44.64798
G01 X-51.57635 Y44.60833
G01 X-51.75778 Y44.52753
G01 X-51.91033 Y44.41739
G01 X-52.05135 Y44.26322
G01 X-52.15067 Y44.09121
G01 X-52.21366 Y43.89200
G01 X-52.23279 Y43.70482
G01 X-52.23223 Y42.89436
G01 X-52.20932 Y42.69718
G01 X-52.15067 Y42.51841
G01 X-52.05135 Y42.34641
G01 X-51.91033 Y42.19223
G01 X-51.75778 Y42.08209
G01 X-51.58613 Y42.00505
G01 X-51.39243 Y41.96165
G01 X-51.17315 Y41.96165
G01 X-50.98923 Y42.00130
G01 X-50.81712 Y42.07734
G01 X-50.65524 Y42.19223
G01 X-50.50853 Y42.35519
G01 X-50.41491 Y42.51841
G01 X-50.35626 Y42.69718
G01 X-50.33279 Y42.90480
G04 P0 ( dwell for no time -- G64 should not smooth over this point )
G00 Z5.00000 ( retract )

G00 X-47.79279 Y42.90480 ( rapid move to begin. )
G01 F300.00000
G01 Z-0.05000
G04 P0 ( dwell for no time -- G64 should not smooth over this point )
G01 F600.00000
G01 X-47.79279 Y42.90480
G01 X-47.79279 Y43.70482
G01 X-47.81354 Y43.90233
G01 X-47.87117 Y44.08143
G01 X-47.96853 Y44.25443
G01 X-48.11524 Y44.41739
G01 X-48.27712 Y44.53228
G01 X-48.44923 Y44.60833
G01 X-48.65395 Y44.65016
G01 X-48.85243 Y44.64798
G01 X-49.03635 Y44.60833
G01 X-49.22657 Y44.52184
G01 X-49.38585 Y44.40340
G01 X-49.51135 Y44.26322
G01 X-49.61067 Y44.09121
G01 X-49.67366 Y43.89200
G01 X-49.69279 Y43.70482
G01 X-49.69223 Y42.89436
G01 X-49.66932 Y42.69718
G01 X-49.61067 Y42.51841
G01 X-49.51135 Y42.34641
G01 X-49.37033 Y42.19223
G01 X-49.21778 Y42.08209
G01 X-49.04613 Y42.00505
G01 X-48.85243 Y41.96165
G01 X-48.63315 Y41.96165
G01 X-48.44923 Y42.00130
G01 X-48.27712 Y42.07734
G01 X-48.11524 Y42.19223
G01 X-47.96853 Y42.35519
G01 X-47.87117 Y42.52819
G01 X-47.81626 Y42.69718
G01 X-47.79279 Y42.90480
G04 P0 ( dwell for no time -- G64 should not smooth over this point )
G00 Z5.00000 ( retract )

G00 X-72.28179 Y10.48754 ( rapid move to begin. )
G01 F300.00000
G01 Z-0.05000
G04 P0 ( dwell for no time -- G64 should not smooth over this point )
G01 F600.00000
G01 X-72.28179 Y10.48754
G01 X-72.30526 Y10.27992
G01 X-72.36391 Y10.10113
G01 X-72.45751 Y9.93794
G01 X-72.59612 Y9.78155
G01 X-72.76612 Y9.66006
G01 X-72.93823 Y9.58404
G01 X-73.12215 Y9.54439
G01 X-73.34143 Y9.54439
G01 X-73.52535 Y9.58404
G01 X-73.69746 Y9.66006
G01 X-73.85934 Y9.77497
G01 X-73.99375 Y9.92102
G01 X-74.09965 Y10.10113
G01 X-74.15832 Y10.27992
G01 X-74.18123 Y10.47710
G01 X-74.18179 Y11.28754
G01 X-74.16266 Y11.47471
G01 X-74.09965 Y11.67395
G01 X-73.99375 Y11.85406
G01 X-73.86746 Y11.99353
G01 X-73.69746 Y12.11502
G01 X-73.52535 Y12.19104
G01 X-73.34143 Y12.23069
G01 X-73.14293 Y12.23288
G01 X-72.93823 Y12.19104
G01 X-72.76612 Y12.11502
G01 X-72.60425 Y12.00011
G01 X-72.45751 Y11.83717
G01 X-72.36391 Y11.67395
G01 X-72.30526 Y11.49516
G01 X-72.28179 Y11.28754
G01 X-72.28179 Y10.48754
G04 P0 ( dwell for no time -- G64 should not smooth over this point )
G00 Z5.00000 ( retract )

G00 X-69.74179 Y10.48754 ( rapid move to begin. )
G01 F300.00000
G01 Z-0.05000
G04 P0 ( dwell for no time -- G64 should not smooth over this point )
G01 F600.00000
G01 X-69.74179 Y10.48754
G01 X-69.76526 Y10.27992
G01 X-69.82391 Y10.10113
G01 X-69.91751 Y9.93794
G01 X-70.05612 Y9.78155
G01 X-70.22612 Y9.66006
G01 X-70.39823 Y9.58404
G01 X-70.58215 Y9.54439
G01 X-70.80143 Y9.54439
G01 X-70.98535 Y9.58404
G01 X-71.15746 Y9.66006
G01 X-71.31934 Y9.77497
G01 X-71.45375 Y9.92102
G01 X-71.55965 Y10.10113
G01 X-71.61832 Y10.27992
G01 X-71.64123 Y10.47710
G01 X-71.64179 Y11.28754
G01 X-71.62266 Y11.47471
G01 X-71.55965 Y11.67395
G01 X-71.45375 Y11.85406
G01 X-71.32746 Y11.99353
G01 X-71.15746 Y12.11502
G01 X-70.98535 Y12.19104
G01 X-70.80143 Y12.23069
G01 X-70.60293 Y12.23288
G01 X-70.39823 Y12.19104
G01 X-70.22612 Y12.11502
G01 X-70.06425 Y12.00011
G01 X-69.91751 Y11.83717
G01 X-69.82391 Y11.67395
G01 X-69.76526 Y11.49516
G01 X-69.74179 Y11.28754
G01 X-69.74179 Y10.48754
G04 P0 ( dwell for no time -- G64 should not smooth over this point )
G00 Z5.00000 ( retract )

G00 X-67.20179 Y10.48754 ( rapid move to begin. )
G01 F300.00000
G01 Z-0.05000
G04 P0 ( dwell for no time -- G64 should not smooth over this point )
G01 F600.00000
G01 X-67.20179 Y10.48754
G01 X-67.22526 Y10.27992
G01 X-67.28866 Y10.09181
G01 X-67.37751 Y9.93794
G01 X-67.50870 Y9.78896
G01 X-67.68612 Y9.66006
G01 X-67.85823 Y9.58404
G01 X-68.04215 Y9.54439
G01 X-68.26143 Y9.54439
G01 X-68.44535 Y9.58404
G01 X-68.61746 Y9.66006
G01 X-68.77934 Y9.77497
G01 X-68.92036 Y9.92915
G01 X-69.01490 Y10.09181
G01 X-69.08104 Y10.29003
G01 X-69.10123 Y10.47710
G01 X-69.10179 Y11.28754
G01 X-69.08266 Y11.47471
G01 X-69.02340 Y11.66417
G01 X-68.92036 Y11.84593
G01 X-68.79486 Y11.98612
G01 X-68.63557 Y12.10456
G01 X-68.44535 Y12.19104
G01 X-68.26143 Y12.23069
G01 X-68.06293 Y12.23288
G01 X-67.85823 Y12.19104
G01 X-67.68612 Y12.11502
G01 X-67.52425 Y12.00011
G01 X-67.37751 Y11.83717
G01 X-67.28018 Y11.66417
G01 X-67.22254 Y11.48505
G01 X-67.20179 Y11.28754
G01 X-67.20179 Y10.48754
G04 P0 ( dwell for no time -- G64 should not smooth over this point )
G00 Z5.00000 ( retract )

G00 X-64.66179 Y10.48754 ( rapid move to begin. )
G01 F300.00000
G01 Z-0.05000
G04 P0 ( dwell for no time -- G64 should not smooth over this point )
G01 F600.00000
G01 X-64.66179 Y10.48754
G01 X-64.68526 Y10.27992
G01 X-64.74866 Y10.09181
G01 X-64.83751 Y9.93794
G01 X-64.97612 Y9.78155
G01 X-65.14612 Y9.66006
G01 X-65.31823 Y9.58404
G01 X-65.50215 Y9.54439
G01 X-65.72143 Y9.54439
G01 X-65.90535 Y9.58404
G01 X-66.07746 Y9.66006
G01 X-66.23934 Y9.77497
G01 X-66.37375 Y9.92102
G01 X-66.47490 Y10.09181
G01 X-66.54104 Y10.29003
G01 X-66.56123 Y10.47710
G01 X-66.56179 Y11.28754
G01 X-66.54266 Y11.47471
G01 X-66.48340 Y11.66417
G01 X-66.38036 Y11.84593
G01 X-66.25486 Y11.98612
G01 X-66.09557 Y12.10456
G01 X-65.90535 Y12.19104
G01 X-65.72143 Y12.23069
G01 X-65.52293 Y12.23288
G01 X-65.31823 Y12.19104
G01 X-65.14612 Y12.11502
G01 X-64.98425 Y12.00011
G01 X-64.83751 Y11.83717
G01 X-64.74018 Y11.66417
G01 X-64.68254 Y11.48505
G01 X-64.66179 Y11.28754
G01 X-64.66179 Y10.48754
G04 P0 ( dwell for no time -- G64 should not smooth over this point )
G00 Z5.00000 ( retract )

G00 X-54.50179 Y10.48754 ( rapid move to begin. )
G01 F300.00000
G01 Z-0.05000
G04 P0 ( dwell for no time -- G64 should not smooth over this point )
G01 F600.00000
G01 X-54.50179 Y10.48754
G01 X-54.52092 Y10.30037
G01 X-54.58018 Y10.11091
G01 X-54.68322 Y9.92915
G01 X-54.82425 Y9.77497
G01 X-54.98612 Y9.66006
G01 X-55.14845 Y9.58780
G01 X-55.36293 Y9.54220
G01 X-55.56143 Y9.54439
G01 X-55.73524 Y9.58132
G01 X-55.91746 Y9.66006
G01 X-56.09486 Y9.78896
G01 X-56.22036 Y9.92915
G01 X-56.31490 Y10.09181
G01 X-56.38104 Y10.29003
G01 X-56.40179 Y10.48754
G01 X-56.40123 Y11.29800
G01 X-56.38104 Y11.48505
G01 X-56.32340 Y11.66417
G01 X-56.22036 Y11.84593
G01 X-56.07934 Y12.00011
G01 X-55.92617 Y12.11063
G01 X-55.80179 Y12.16458
G01 X-55.80179 Y12.74283
G01 X-64.58359 Y21.52463
G01 X-64.65524 Y21.62930
G01 X-64.68562 Y21.76232
G01 X-64.67698 Y39.47331
G01 X-64.63215 Y39.58154
G01 X-64.58359 Y39.64301
G01 X-58.45106 Y45.77553
G01 X-58.45523 Y46.63626
G01 X-58.43503 Y46.82333
G01 X-58.36889 Y47.02153
G01 X-58.26777 Y47.19234
G01 X-58.13333 Y47.33839
G01 X-57.98957 Y47.44284
G01 X-57.80913 Y47.52557
G01 X-57.60509 Y47.57060
G01 X-57.40649 Y47.57060
G01 X-57.22234 Y47.53202
G01 X-57.02201 Y47.44284
G01 X-56.87824 Y47.33839
G01 X-56.74380 Y47.19234
G01 X-56.63417 Y47.00243
G01 X-56.57654 Y46.82333
G01 X-56.55635 Y46.63626
G01 X-56.55635 Y45.81536
G01 X-56.57654 Y45.62829
G01 X-56.63417 Y45.44919
G01 X-56.73722 Y45.26741
G01 X-56.86272 Y45.12722
G01 X-57.02201 Y45.00878
G01 X-57.21223 Y44.92230
G01 X-57.39615 Y44.88265
G01 X-57.59462 Y44.88046
G01 X-57.79935 Y44.92230
G01 X-57.97146 Y44.99834
G01 X-58.12757 Y45.10906
G01 X-63.98608 Y39.25053
G01 X-63.98610 Y21.91708
G01 X-55.19770 Y13.12802
G01 X-55.13263 Y13.03061
G01 X-55.10707 Y12.94639
G01 X-55.10179 Y12.16458
G01 X-54.97741 Y12.11063
G01 X-54.82425 Y12.00011
G01 X-54.68980 Y11.85406
G01 X-54.58866 Y11.68327
G01 X-54.52254 Y11.48505
G01 X-54.50179 Y11.28754
G01 X-54.50179 Y10.48754
G04 P0 ( dwell for no time -- G64 should not smooth over this point )
G00 Z5.00000 ( retract )

G00 X-51.96179 Y10.48754 ( rapid move to begin. )
G01 F300.00000
G01 Z-0.05000
G04 P0 ( dwell for no time -- G64 should not smooth over this point )
G01 F600.00000
G01 X-51.96179 Y10.48754
G01 X-51.98254 Y10.29003
G01 X-52.04018 Y10.11091
G01 X-52.14322 Y9.92915
G01 X-52.28425 Y9.77497
G01 X-52.44612 Y9.66006
G01 X-52.61823 Y9.58404
G01 X-52.82293 Y9.54220
G01 X-53.02143 Y9.54439
G01 X-53.20535 Y9.58404
G01 X-53.39557 Y9.67052
G01 X-53.54746 Y9.78155
G01 X-53.67375 Y9.92102
G01 X-53.77965 Y10.10113
G01 X-53.84266 Y10.30037
G01 X-53.86179 Y10.48754
G01 X-53.86179 Y11.28754
G01 X-53.84266 Y11.47471
G01 X-53.78340 Y11.66417
G01 X-53.67375 Y11.85406
G01 X-53.53934 Y12.00011
G01 X-53.38617 Y12.11063
G01 X-53.26179 Y12.16458
G01 X-53.26179 Y12.74283
G01 X-57.75327 Y17.23431
G01 X-57.80184 Y17.29578
G01 X-57.84667 Y17.40401
G01 X-57.85579 Y29.70876
G01 X-57.98017 Y29.76274
G01 X-58.14146 Y29.87983
G01 X-58.27435 Y30.02741
G01 X-58.37740 Y30.20919
G01 X-58.43503 Y30.38829
G01 X-58.45523 Y30.57536
G01 X-58.45579 Y31.38582
G01 X-58.43232 Y31.59344
G01 X-58.36889 Y31.78153
G01 X-58.27435 Y31.94422
G01 X-58.14885 Y32.08440
G01 X-57.98957 Y32.20284
G01 X-57.78924 Y32.29202
G01 X-57.60509 Y32.33060
G01 X-57.39615 Y32.32898
G01 X-57.20245 Y32.28557
G01 X-57.02201 Y32.20284
G01 X-56.87824 Y32.09839
G01 X-56.73722 Y31.94422
G01 X-56.64268 Y31.78153
G01 X-56.57654 Y31.58333
G01 X-56.55579 Y31.38582
G01 X-56.55635 Y30.57536
G01 X-56.57654 Y30.38829
G01 X-56.63417 Y30.20919
G01 X-56.73722 Y30.02741
G01 X-56.87011 Y29.87983
G01 X-57.03140 Y29.76274
G01 X-57.15579 Y29.70876
G01 X-57.15579 Y17.62680
G01 X-52.62661 Y13.09015
G01 X-52.58513 Y13.01250
G01 X-52.56227 Y12.89762
G01 X-52.56179 Y12.16458
G01 X-52.43741 Y12.11063
G01 X-52.28425 Y12.00011
G01 X-52.14980 Y11.85406
G01 X-52.04866 Y11.68327
G01 X-51.98254 Y11.48505
G01 X-51.96179 Y11.28754
G01 X-51.96179 Y10.48754
G04 P0 ( dwell for no time -- G64 should not smooth over this point )
G00 Z5.00000 ( retract )

G00 X-49.42179 Y10.48754 ( rapid move to begin. )
G01 F300.00000
G01 Z-0.05000
G04 P0 ( dwell for no time -- G64 should not smooth over this point )
G01 F600.00000
G01 X-49.42179 Y10.48754
G01 X-49.44526 Y10.27992
G01 X-49.50391 Y10.10113
G01 X-49.59751 Y9.93794
G01 X-49.74425 Y9.77497
G01 X-49.90612 Y9.66006
G01 X-50.07823 Y9.58404
G01 X-50.28293 Y9.54220
G01 X-50.48143 Y9.54439
G01 X-50.66535 Y9.58404
G01 X-50.85557 Y9.67052
G01 X-51.00746 Y9.78155
G01 X-51.13375 Y9.92102
G01 X-51.23965 Y10.10113
G01 X-51.30266 Y10.30037
G01 X-51.32179 Y10.48754
G01 X-51.32179 Y11.28754
G01 X-51.30266 Y11.47471
G01 X-51.24340 Y11.66417
G01 X-51.13375 Y11.85406
G01 X-50.99934 Y12.00011
G01 X-50.84617 Y12.11063
G01 X-50.72179 Y12.16458
G01 X-50.72179 Y12.74283
G01 X-55.21327 Y17.23431
G01 X-55.26184 Y17.29578
G01 X-55.30667 Y17.40401
G01 X-55.31579 Y29.70876
G01 X-55.44017 Y29.76274
G01 X-55.60885 Y29.88722
G01 X-55.74004 Y30.03619
G01 X-55.83740 Y30.20919
G01 X-55.89232 Y30.37818
G01 X-55.91523 Y30.57536
G01 X-55.91579 Y31.38582
G01 X-55.89232 Y31.59344
G01 X-55.83367 Y31.77221
G01 X-55.73435 Y31.94422
G01 X-55.60885 Y32.08440
G01 X-55.44957 Y32.20284
G01 X-55.24924 Y32.29202
G01 X-55.06509 Y32.33060
G01 X-54.85615 Y32.32898
G01 X-54.66245 Y32.28557
G01 X-54.49079 Y32.20853
G01 X-54.33824 Y32.09839
G01 X-54.19722 Y31.94422
G01 X-54.09791 Y31.77221
G01 X-54.03654 Y31.58333
G01 X-54.01579 Y31.38582
G01 X-54.01635 Y30.57536
G01 X-54.03654 Y30.38829
G01 X-54.09417 Y30.20919
G01 X-54.19722 Y30.02741
G01 X-54.32272 Y29.88722
G01 X-54.49140 Y29.76274
G01 X-54.61579 Y29.70876
G01 X-54.61579 Y17.62680
G01 X-50.08661 Y13.09015
G01 X-50.04513 Y13.01250
G01 X-50.02227 Y12.89762
G01 X-50.02179 Y12.16458
G01 X-49.89741 Y12.11063
G01 X-49.74425 Y12.00011
G01 X-49.60980 Y11.85406
G01 X-49.50866 Y11.68327
G01 X-49.44254 Y11.48505
G01 X-49.42179 Y11.28754
G01 X-49.42179 Y10.48754
G04 P0 ( dwell for no time -- G64 should not smooth over this point )
G00 Z5.00000 ( retract )

G00 X-45.36178 Y10.48754 ( rapid move to begin. )
G01 F300.00000
G01 Z-0.05000
G04 P0 ( dwell for no time -- G64 should not smooth over this point )
G01 F600.00000
G01 X-45.36178 Y10.48754
G01 X-45.38525 Y10.27992
G01 X-45.44392 Y10.10113
G01 X-45.53752 Y9.93794
G01 X-45.68426 Y9.77497
G01 X-45.84611 Y9.66006
G01 X-46.01822 Y9.58404
G01 X-46.22294 Y9.54220
G01 X-46.42142 Y9.54439
G01 X-46.60536 Y9.58404
G01 X-46.79556 Y9.67052
G01 X-46.94745 Y9.78155
G01 X-47.07377 Y9.92102
G01 X-47.17966 Y10.10113
G01 X-47.24268 Y10.30037
G01 X-47.26178 Y10.48754
G01 X-47.26178 Y11.28754
G01 X-47.24268 Y11.47471
G01 X-47.18342 Y11.66417
G01 X-47.07377 Y11.85406
G01 X-46.93932 Y12.00011
G01 X-46.78616 Y12.11063
G01 X-46.66178 Y12.16458
G01 X-46.66178 Y12.74283
G01 X-52.67327 Y18.75433
G01 X-52.75244 Y18.87711
G01 X-52.77579 Y19.00180
G01 X-52.77579 Y29.70876
G01 X-52.90017 Y29.76274
G01 X-53.06146 Y29.87983
G01 X-53.19435 Y30.02741
G01 X-53.29740 Y30.20919
G01 X-53.35503 Y30.38829
G01 X-53.37523 Y30.57536
G01 X-53.37579 Y31.38582
G01 X-53.35232 Y31.59344
G01 X-53.28889 Y31.78153
G01 X-53.19435 Y31.94422
G01 X-53.05333 Y32.09839
G01 X-52.90078 Y32.20853
G01 X-52.72913 Y32.28557
G01 X-52.52509 Y32.33060
G01 X-52.32649 Y32.33060
G01 X-52.13223 Y32.28933
G01 X-51.94201 Y32.20284
G01 X-51.79824 Y32.09839
G01 X-51.66380 Y31.95234
G01 X-51.56268 Y31.78153
G01 X-51.49654 Y31.58333
G01 X-51.47579 Y31.38582
G01 X-51.47635 Y30.57536
G01 X-51.49654 Y30.38829
G01 X-51.55417 Y30.20919
G01 X-51.65722 Y30.02741
G01 X-51.79011 Y29.87983
G01 X-51.95140 Y29.76274
G01 X-52.07579 Y29.70876
G01 X-52.07579 Y19.14678
G01 X-46.02663 Y13.09015
G01 X-45.98512 Y13.01250
G01 X-45.96226 Y12.89762
G01 X-45.96178 Y12.16458
G01 X-45.83740 Y12.11063
G01 X-45.68426 Y12.00011
G01 X-45.54982 Y11.85406
G01 X-45.44867 Y11.68327
G01 X-45.38256 Y11.48505
G01 X-45.36178 Y11.28754
G01 X-45.36178 Y10.48754
G04 P0 ( dwell for no time -- G64 should not smooth over this point )
G00 Z5.00000 ( retract )

G00 X-42.82178 Y10.48754 ( rapid move to begin. )
G01 F300.00000
G01 Z-0.05000
G04 P0 ( dwell for no time -- G64 should not smooth over this point )
G01 F600.00000
G01 X-42.82178 Y10.48754
G01 X-42.84525 Y10.27992
G01 X-42.90392 Y10.10113
G01 X-42.99752 Y9.93794
G01 X-43.14426 Y9.77497
G01 X-43.30611 Y9.66006
G01 X-43.47822 Y9.58404
G01 X-43.68294 Y9.54220
G01 X-43.88142 Y9.54439
G01 X-44.06536 Y9.58404
G01 X-44.25556 Y9.67052
G01 X-44.40745 Y9.78155
G01 X-44.53377 Y9.92102
G01 X-44.63966 Y10.10113
G01 X-44.70268 Y10.30037
G01 X-44.72178 Y10.48754
G01 X-44.72178 Y11.28754
G01 X-44.70268 Y11.47471
G01 X-44.64342 Y11.66417
G01 X-44.53377 Y11.85406
G01 X-44.39932 Y12.00011
G01 X-44.24616 Y12.11063
G01 X-44.12178 Y12.16458
G01 X-44.12178 Y12.74283
G01 X-50.13327 Y18.75433
G01 X-50.21244 Y18.87711
G01 X-50.23579 Y19.00180
G01 X-50.23579 Y29.70876
G01 X-50.36017 Y29.76274
G01 X-50.52146 Y29.87983
G01 X-50.65435 Y30.02741
G01 X-50.75740 Y30.20919
G01 X-50.81232 Y30.37818
G01 X-50.83523 Y30.57536
G01 X-50.83579 Y31.38582
G01 X-50.81232 Y31.59344
G01 X-50.75367 Y31.77221
G01 X-50.65435 Y31.94422
G01 X-50.51333 Y32.09839
G01 X-50.36078 Y32.20853
G01 X-50.18913 Y32.28557
G01 X-49.98509 Y32.33060
G01 X-49.78649 Y32.33060
G01 X-49.59223 Y32.28933
G01 X-49.40201 Y32.20284
G01 X-49.25824 Y32.09839
G01 X-49.12380 Y31.95234
G01 X-49.02268 Y31.78153
G01 X-48.95926 Y31.59344
G01 X-48.93579 Y31.38582
G01 X-48.93635 Y30.57536
G01 X-48.95926 Y30.37818
G01 X-49.01417 Y30.20919
G01 X-49.11722 Y30.02741
G01 X-49.25011 Y29.87983
G01 X-49.41140 Y29.76274
G01 X-49.53579 Y29.70876
G01 X-49.53579 Y19.14678
G01 X-43.48663 Y13.09015
G01 X-43.44512 Y13.01250
G01 X-43.42226 Y12.89762
G01 X-43.42178 Y12.16458
G01 X-43.29740 Y12.11063
G01 X-43.14426 Y12.00011
G01 X-43.00982 Y11.85406
G01 X-42.90867 Y11.68327
G01 X-42.84256 Y11.48505
G01 X-42.82178 Y11.28754
G01 X-42.82178 Y10.48754
G04 P0 ( dwell for no time -- G64 should not smooth over this point )
G00 Z5.00000 ( retract )

G00 X-40.28178 Y10.48754 ( rapid move to begin. )
G01 F300.00000
G01 Z-0.05000
G04 P0 ( dwell for no time -- G64 should not smooth over this point )
G01 F600.00000
G01 X-40.28178 Y10.48754
G01 X-40.30256 Y10.29003
G01 X-40.36016 Y10.11091
G01 X-40.45752 Y9.93794
G01 X-40.58871 Y9.78896
G01 X-40.76611 Y9.66006
G01 X-40.93822 Y9.58404
G01 X-41.14294 Y9.54220
G01 X-41.34142 Y9.54439
G01 X-41.52536 Y9.58404
G01 X-41.69745 Y9.66006
G01 X-41.85932 Y9.77497
G01 X-41.99377 Y9.92102
G01 X-42.09491 Y10.09181
G01 X-42.16268 Y10.30037
G01 X-42.18178 Y10.48754
G01 X-42.18178 Y11.28754
G01 X-42.15831 Y11.49516
G01 X-42.09491 Y11.68327
G01 X-41.99377 Y11.85406
G01 X-41.85932 Y12.00011
G01 X-41.70616 Y12.11063
G01 X-41.58178 Y12.16458
G01 X-41.58178 Y19.78275
G01 X-47.59327 Y25.79422
G01 X-47.67244 Y25.91700
G01 X-47.69579 Y26.04171
G01 X-47.69579 Y29.70876
G01 X-47.82017 Y29.76274
G01 X-47.98146 Y29.87983
G01 X-48.11435 Y30.02741
G01 X-48.21740 Y30.20919
G01 X-48.27232 Y30.37818
G01 X-48.29523 Y30.57536
G01 X-48.29579 Y31.38582
G01 X-48.27232 Y31.59344
G01 X-48.21367 Y31.77221
G01 X-48.11435 Y31.94422
G01 X-47.97333 Y32.09839
G01 X-47.82078 Y32.20853
G01 X-47.64913 Y32.28557
G01 X-47.44509 Y32.33060
G01 X-47.24649 Y32.33060
G01 X-47.05223 Y32.28933
G01 X-46.86201 Y32.20284
G01 X-46.70272 Y32.08440
G01 X-46.57722 Y31.94422
G01 X-46.47417 Y31.76243
G01 X-46.41492 Y31.57300
G01 X-46.39579 Y31.38582
G01 X-46.39579 Y30.58580
G01 X-46.41926 Y30.37818
G01 X-46.47791 Y30.19941
G01 X-46.58380 Y30.01928
G01 X-46.71824 Y29.87323
G01 X-46.87140 Y29.76274
G01 X-46.99579 Y29.70876
G01 X-46.99579 Y26.18667
G01 X-40.98429 Y20.17520
G01 X-40.90512 Y20.05242
G01 X-40.88178 Y19.92771
G01 X-40.88178 Y12.16458
G01 X-40.75740 Y12.11063
G01 X-40.58871 Y11.98612
G01 X-40.46321 Y11.84593
G01 X-40.36016 Y11.66417
G01 X-40.30256 Y11.48505
G01 X-40.28234 Y11.29800
G01 X-40.28178 Y10.48754
G04 P0 ( dwell for no time -- G64 should not smooth over this point )
G00 Z5.00000 ( retract )

G00 X-37.74178 Y10.48754 ( rapid move to begin. )
G01 F300.00000
G01 Z-0.05000
G04 P0 ( dwell for no time -- G64 should not smooth over this point )
G01 F600.00000
G01 X-37.74178 Y10.48754
G01 X-37.76525 Y10.27992
G01 X-37.82392 Y10.10113
G01 X-37.91752 Y9.93794
G01 X-38.04871 Y9.78896
G01 X-38.22611 Y9.66006
G01 X-38.39822 Y9.58404
G01 X-38.60294 Y9.54220
G01 X-38.80142 Y9.54439
G01 X-38.98536 Y9.58404
G01 X-39.15745 Y9.66006
G01 X-39.31932 Y9.77497
G01 X-39.45377 Y9.92102
G01 X-39.55491 Y10.09181
G01 X-39.62268 Y10.30037
G01 X-39.64178 Y10.48754
G01 X-39.64178 Y11.28754
G01 X-39.61831 Y11.49516
G01 X-39.55491 Y11.68327
G01 X-39.45377 Y11.85406
G01 X-39.31932 Y12.00011
G01 X-39.16616 Y12.11063
G01 X-39.04178 Y12.16458
G01 X-39.04178 Y18.82855
G01 X-45.05327 Y24.84001
G01 X-45.13244 Y24.96282
G01 X-45.15579 Y25.08751
G01 X-45.15579 Y29.70876
G01 X-45.28017 Y29.76274
G01 X-45.44146 Y29.87983
G01 X-45.57435 Y30.02741
G01 X-45.67740 Y30.20919
G01 X-45.73232 Y30.37818
G01 X-45.75523 Y30.57536
G01 X-45.75579 Y31.38582
G01 X-45.73232 Y31.59344
G01 X-45.67367 Y31.77221
G01 X-45.57435 Y31.94422
G01 X-45.43333 Y32.09839
G01 X-45.28078 Y32.20853
G01 X-45.10913 Y32.28557
G01 X-44.90509 Y32.33060
G01 X-44.70649 Y32.33060
G01 X-44.50245 Y32.28557
G01 X-44.32201 Y32.20284
G01 X-44.16272 Y32.08440
G01 X-44.03153 Y31.93543
G01 X-43.93417 Y31.76243
G01 X-43.87926 Y31.59344
G01 X-43.85635 Y31.39626
G01 X-43.85635 Y30.57536
G01 X-43.87926 Y30.37818
G01 X-43.93417 Y30.20919
G01 X-44.03722 Y30.02741
G01 X-44.17011 Y29.87983
G01 X-44.33140 Y29.76274
G01 X-44.45579 Y29.70876
G01 X-44.45579 Y25.23247
G01 X-38.44429 Y19.22100
G01 X-38.36512 Y19.09822
G01 X-38.34178 Y18.97350
G01 X-38.34178 Y12.16458
G01 X-38.21740 Y12.11063
G01 X-38.05611 Y11.99353
G01 X-37.91752 Y11.83717
G01 X-37.82016 Y11.66417
G01 X-37.76256 Y11.48505
G01 X-37.74234 Y11.29800
G01 X-37.74178 Y10.48754
G04 P0 ( dwell for no time -- G64 should not smooth over this point )
G00 Z5.00000 ( retract )

G00 X-35.20178 Y10.48754 ( rapid move to begin. )
G01 F300.00000
G01 Z-0.05000
G04 P0 ( dwell for no time -- G64 should not smooth over this point )
G01 F600.00000
G01 X-35.20178 Y10.48754
G01 X-35.22525 Y10.27992
G01 X-35.28392 Y10.10113
G01 X-35.37752 Y9.93794
G01 X-35.50871 Y9.78896
G01 X-35.68611 Y9.66006
G01 X-35.85822 Y9.58404
G01 X-36.06294 Y9.54220
G01 X-36.26142 Y9.54439
G01 X-36.44536 Y9.58404
G01 X-36.61745 Y9.66006
G01 X-36.77932 Y9.77497
G01 X-36.91377 Y9.92102
G01 X-37.01491 Y10.09181
G01 X-37.08268 Y10.30037
G01 X-37.10178 Y10.48754
G01 X-37.10178 Y11.28754
G01 X-37.07831 Y11.49516
G01 X-37.01491 Y11.68327
G01 X-36.91377 Y11.85406
G01 X-36.77932 Y12.00011
G01 X-36.62616 Y12.11063
G01 X-36.50178 Y12.16458
G01 X-36.50178 Y18.99964
G01 X-42.51327 Y25.01113
G01 X-42.59244 Y25.13392
G01 X-42.61579 Y25.25861
G01 X-42.61579 Y29.70876
G01 X-42.74017 Y29.76274
G01 X-42.90146 Y29.87983
G01 X-43.03435 Y30.02741
G01 X-43.13740 Y30.20919
G01 X-43.19232 Y30.37818
G01 X-43.21523 Y30.57536
G01 X-43.21579 Y31.38582
G01 X-43.19232 Y31.59344
G01 X-43.13367 Y31.77221
G01 X-43.03435 Y31.94422
G01 X-42.89333 Y32.09839
G01 X-42.74078 Y32.20853
G01 X-42.56913 Y32.28557
G01 X-42.36509 Y32.33060
G01 X-42.16649 Y32.33060
G01 X-41.97223 Y32.28933
G01 X-41.78201 Y32.20284
G01 X-41.62272 Y32.08440
G01 X-41.49153 Y31.93543
G01 X-41.39417 Y31.76243
G01 X-41.33926 Y31.59344
G01 X-41.31635 Y31.39626
G01 X-41.31635 Y30.57536
G01 X-41.33926 Y30.37818
G01 X-41.39417 Y30.20919
G01 X-41.49722 Y30.02741
G01 X-41.63011 Y29.87983
G01 X-41.79140 Y29.76274
G01 X-41.91579 Y29.70876
G01 X-41.91579 Y25.40359
G01 X-35.90429 Y19.39210
G01 X-35.82512 Y19.26931
G01 X-35.80178 Y19.14462
G01 X-35.80178 Y12.16458
G01 X-35.67740 Y12.11063
G01 X-35.51611 Y11.99353
G01 X-35.37752 Y11.83717
G01 X-35.28016 Y11.66417
G01 X-35.22525 Y11.49516
G01 X-35.20234 Y11.29800
G01 X-35.20178 Y10.48754
G04 P0 ( dwell for no time -- G64 should not smooth over this point )
G00 Z5.00000 ( retract )

G00 X-32.66178 Y10.48754 ( rapid move to begin. )
G01 F300.00000
G01 Z-0.05000
G04 P0 ( dwell for no time -- G64 should not smooth over this point )
G01 F600.00000
G01 X-32.66178 Y10.48754
G01 X-32.68525 Y10.27992
G01 X-32.74392 Y10.10113
G01 X-32.83752 Y9.93794
G01 X-32.96871 Y9.78896
G01 X-33.14611 Y9.66006
G01 X-33.31822 Y9.58404
G01 X-33.52294 Y9.54220
G01 X-33.72142 Y9.54439
G01 X-33.90536 Y9.58404
G01 X-34.07745 Y9.66006
G01 X-34.23932 Y9.77497
G01 X-34.37377 Y9.92102
G01 X-34.47491 Y10.09181
G01 X-34.54268 Y10.30037
G01 X-34.56178 Y10.48754
G01 X-34.56178 Y11.28754
G01 X-34.53831 Y11.49516
G01 X-34.47491 Y11.68327
G01 X-34.37377 Y11.85406
G01 X-34.23932 Y12.00011
G01 X-34.08616 Y12.11063
G01 X-33.96178 Y12.16458
G01 X-33.96178 Y19.79674
G01 X-39.97327 Y25.80821
G01 X-40.05244 Y25.93102
G01 X-40.07579 Y26.05571
G01 X-40.07579 Y29.70876
G01 X-40.20017 Y29.76274
G01 X-40.36146 Y29.87983
G01 X-40.49435 Y30.02741
G01 X-40.59740 Y30.20919
G01 X-40.65503 Y30.38829
G01 X-40.67523 Y30.57536
G01 X-40.67579 Y31.38582
G01 X-40.65232 Y31.59344
G01 X-40.58889 Y31.78153
G01 X-40.49435 Y31.94422
G01 X-40.35333 Y32.09839
G01 X-40.20078 Y32.20853
G01 X-40.02913 Y32.28557
G01 X-39.82509 Y32.33060
G01 X-39.62649 Y32.33060
G01 X-39.43223 Y32.28933
G01 X-39.24201 Y32.20284
G01 X-39.08272 Y32.08440
G01 X-38.95722 Y31.94422
G01 X-38.85417 Y31.76243
G01 X-38.79492 Y31.57300
G01 X-38.77579 Y31.38582
G01 X-38.77579 Y30.58580
G01 X-38.79926 Y30.37818
G01 X-38.86268 Y30.19009
G01 X-38.96380 Y30.01928
G01 X-39.09824 Y29.87323
G01 X-39.25140 Y29.76274
G01 X-39.37579 Y29.70876
G01 X-39.37579 Y26.20069
G01 X-33.36429 Y20.18920
G01 X-33.28512 Y20.06641
G01 X-33.26178 Y19.94170
G01 X-33.26178 Y12.16458
G01 X-33.13740 Y12.11063
G01 X-32.97611 Y11.99353
G01 X-32.83752 Y11.83717
G01 X-32.74016 Y11.66417
G01 X-32.68256 Y11.48505
G01 X-32.66234 Y11.29800
G01 X-32.66178 Y10.48754
G04 P0 ( dwell for no time -- G64 should not smooth over this point )
G00 Z5.00000 ( retract )

G00 X-27.58178 Y10.48754 ( rapid move to begin. )
G01 F300.00000
G01 Z-0.05000
G04 P0 ( dwell for no time -- G64 should not smooth over this point )
G01 F600.00000
G01 X-27.58178 Y10.48754
G01 X-27.58178 Y11.28754
G01 X-27.60525 Y11.49516
G01 X-27.66867 Y11.68327
G01 X-27.76982 Y11.85406
G01 X-27.90426 Y12.00011
G01 X-28.05740 Y12.11063
G01 X-28.18178 Y12.16458
G01 X-28.18226 Y12.89762
G01 X-28.20512 Y13.01250
G01 X-28.24663 Y13.09015
G01 X-31.75579 Y16.60678
G01 X-31.75579 Y29.70876
G01 X-31.63140 Y29.76274
G01 X-31.47011 Y29.87983
G01 X-31.33722 Y30.02741
G01 X-31.23417 Y30.20919
G01 X-31.17926 Y30.37818
G01 X-31.15635 Y30.57536
G01 X-31.15579 Y31.38582
G01 X-31.17926 Y31.59344
G01 X-31.24268 Y31.78153
G01 X-31.33722 Y31.94422
G01 X-31.47824 Y32.09839
G01 X-31.63079 Y32.20853
G01 X-31.80245 Y32.28557
G01 X-31.99615 Y32.32898
G01 X-32.20509 Y32.33060
G01 X-32.38924 Y32.29202
G01 X-32.58957 Y32.20284
G01 X-32.74885 Y32.08440
G01 X-32.87435 Y31.94422
G01 X-32.97367 Y31.77221
G01 X-33.03232 Y31.59344
G01 X-33.05579 Y31.38582
G01 X-33.05523 Y30.57536
G01 X-33.03232 Y30.37818
G01 X-32.97740 Y30.20919
G01 X-32.87435 Y30.02741
G01 X-32.74146 Y29.87983
G01 X-32.58017 Y29.76274
G01 X-32.45579 Y29.70876
G01 X-32.44667 Y16.38400
G01 X-32.40184 Y16.27577
G01 X-32.35327 Y16.21433
G01 X-28.88178 Y12.74283
G01 X-28.88178 Y12.16458
G01 X-29.00616 Y12.11063
G01 X-29.15932 Y12.00011
G01 X-29.29377 Y11.85406
G01 X-29.40342 Y11.66417
G01 X-29.46268 Y11.47471
G01 X-29.48178 Y11.28754
G01 X-29.48178 Y10.48754
G01 X-29.46268 Y10.30037
G01 X-29.39966 Y10.10113
G01 X-29.29377 Y9.92102
G01 X-29.16745 Y9.78155
G01 X-29.01556 Y9.67052
G01 X-28.82536 Y9.58404
G01 X-28.62064 Y9.54220
G01 X-28.42214 Y9.54439
G01 X-28.23822 Y9.58404
G01 X-28.06611 Y9.66006
G01 X-27.90426 Y9.77497
G01 X-27.75752 Y9.93794
G01 X-27.66392 Y10.10113
G01 X-27.60525 Y10.27992
G01 X-27.58178 Y10.48754
G04 P0 ( dwell for no time -- G64 should not smooth over this point )
G00 Z5.00000 ( retract )

G00 X-26.57129 Y9.80812 ( rapid move to begin. )
G01 F300.00000
G01 Z-0.05000
G04 P0 ( dwell for no time -- G64 should not smooth over this point )
G01 F600.00000
G01 X-26.57129 Y9.80812
G01 X-26.58039 Y16.48661
G01 X-26.62522 Y16.59484
G01 X-26.67381 Y16.65629
G01 X-29.21579 Y19.19829
G01 X-29.21579 Y29.70876
G01 X-29.09140 Y29.76274
G01 X-28.93011 Y29.87983
G01 X-28.79722 Y30.02741
G01 X-28.69417 Y30.20919
G01 X-28.63926 Y30.37818
G01 X-28.61635 Y30.57536
G01 X-28.61579 Y31.38582
G01 X-28.63926 Y31.59344
G01 X-28.70268 Y31.78153
G01 X-28.79722 Y31.94422
G01 X-28.93824 Y32.09839
G01 X-29.10012 Y32.21328
G01 X-29.27223 Y32.28933
G01 X-29.46649 Y32.33060
G01 X-29.66509 Y32.33060
G01 X-29.86913 Y32.28557
G01 X-30.04078 Y32.20853
G01 X-30.19333 Y32.09839
G01 X-30.32777 Y31.95234
G01 X-30.43740 Y31.76243
G01 X-30.49666 Y31.57300
G01 X-30.51579 Y31.38582
G01 X-30.51523 Y30.57536
G01 X-30.49232 Y30.37818
G01 X-30.43740 Y30.20919
G01 X-30.33435 Y30.02741
G01 X-30.20146 Y29.87983
G01 X-30.04017 Y29.76274
G01 X-29.91579 Y29.70876
G01 X-29.91050 Y18.99474
G01 X-29.88495 Y18.91051
G01 X-29.81327 Y18.80581
G01 X-27.27129 Y16.26383
G01 X-27.27129 Y9.95307
G01 X-27.98716 Y9.23720
G01 X-30.72178 Y9.23720
G01 X-30.72178 Y9.61050
G01 X-30.59740 Y9.66445
G01 X-30.44426 Y9.77497
G01 X-30.30982 Y9.92102
G01 X-30.20392 Y10.10113
G01 X-30.14525 Y10.27992
G01 X-30.12178 Y10.48754
G01 X-30.12234 Y11.29800
G01 X-30.14256 Y11.48505
G01 X-30.20016 Y11.66417
G01 X-30.29752 Y11.83717
G01 X-30.42871 Y11.98612
G01 X-30.60611 Y12.11502
G01 X-30.77822 Y12.19104
G01 X-30.98294 Y12.23288
G01 X-31.16064 Y12.23288
G01 X-31.35523 Y12.19376
G01 X-31.53745 Y12.11502
G01 X-31.71487 Y11.98612
G01 X-31.84606 Y11.83717
G01 X-31.93491 Y11.68327
G01 X-32.00102 Y11.48505
G01 X-32.02178 Y11.28754
G01 X-32.02178 Y10.48754
G01 X-32.00268 Y10.30037
G01 X-31.93966 Y10.10113
G01 X-31.83377 Y9.92102
G01 X-31.69932 Y9.77497
G01 X-31.54616 Y9.66445
G01 X-31.42178 Y9.61050
G01 X-31.42178 Y8.88721
G01 X-31.39846 Y8.76250
G01 X-31.35696 Y8.68488
G01 X-31.27413 Y8.60205
G01 X-31.19648 Y8.56054
G01 X-31.08160 Y8.53768
G01 X-27.76438 Y8.54632
G01 X-27.65615 Y8.59115
G01 X-27.59471 Y8.63972
G01 X-26.67381 Y9.56062
G01 X-26.60213 Y9.66529
G01 X-26.57129 Y9.80812
G04 P0 ( dwell for no time -- G64 should not smooth over this point )
G00 Z5.00000 ( retract )

G00 X-36.23579 Y30.58580 ( rapid move to begin. )
G01 F300.00000
G01 Z-0.05000
G04 P0 ( dwell for no time -- G64 should not smooth over this point )
G01 F600.00000
G01 X-36.23579 Y30.58580
G01 X-36.25926 Y30.37818
G01 X-36.31791 Y30.19941
G01 X-36.41153 Y30.03619
G01 X-36.55011 Y29.87983
G01 X-36.72012 Y29.75834
G01 X-36.89223 Y29.68230
G01 X-37.07615 Y29.64265
G01 X-37.28509 Y29.64102
G01 X-37.48913 Y29.68605
G01 X-37.66957 Y29.76878
G01 X-37.81333 Y29.87323
G01 X-37.95435 Y30.02741
G01 X-38.05367 Y30.19941
G01 X-38.11232 Y30.37818
G01 X-38.13523 Y30.57536
G01 X-38.13579 Y31.38582
G01 X-38.11666 Y31.57300
G01 X-38.05367 Y31.77221
G01 X-37.95435 Y31.94422
G01 X-37.81333 Y32.09839
G01 X-37.66078 Y32.20853
G01 X-37.48913 Y32.28557
G01 X-37.28509 Y32.33060
G01 X-37.08649 Y32.33060
G01 X-36.89223 Y32.28933
G01 X-36.72012 Y32.21328
G01 X-36.55824 Y32.09839
G01 X-36.41153 Y31.93543
G01 X-36.31417 Y31.76243
G01 X-36.25926 Y31.59344
G01 X-36.23579 Y31.38582
G01 X-36.23579 Y30.58580
G04 P0 ( dwell for no time -- G64 should not smooth over this point )
G00 Z5.00000 ( retract )

G00 X-33.69579 Y30.58580 ( rapid move to begin. )
G01 F300.00000
G01 Z-0.05000
G04 P0 ( dwell for no time -- G64 should not smooth over this point )
G01 F600.00000
G01 X-33.69579 Y30.58580
G01 X-33.71926 Y30.37818
G01 X-33.77791 Y30.19941
G01 X-33.87153 Y30.03619
G01 X-34.01011 Y29.87983
G01 X-34.18012 Y29.75834
G01 X-34.35223 Y29.68230
G01 X-34.53615 Y29.64265
G01 X-34.74509 Y29.64102
G01 X-34.94913 Y29.68605
G01 X-35.12957 Y29.76878
G01 X-35.27333 Y29.87323
G01 X-35.41435 Y30.02741
G01 X-35.51367 Y30.19941
G01 X-35.57232 Y30.37818
G01 X-35.59523 Y30.57536
G01 X-35.59579 Y31.38582
G01 X-35.57666 Y31.57300
G01 X-35.51367 Y31.77221
G01 X-35.41435 Y31.94422
G01 X-35.27333 Y32.09839
G01 X-35.12078 Y32.20853
G01 X-34.94913 Y32.28557
G01 X-34.74509 Y32.33060
G01 X-34.54649 Y32.33060
G01 X-34.35223 Y32.28933
G01 X-34.18012 Y32.21328
G01 X-34.01824 Y32.09839
G01 X-33.87153 Y31.93543
G01 X-33.77417 Y31.76243
G01 X-33.71926 Y31.59344
G01 X-33.69579 Y31.38582
G01 X-33.69579 Y30.58580
G04 P0 ( dwell for no time -- G64 should not smooth over this point )
G00 Z5.00000 ( retract )

G00 X-39.91879 Y42.90480 ( rapid move to begin. )
G01 F300.00000
G01 Z-0.05000
G04 P0 ( dwell for no time -- G64 should not smooth over this point )
G01 F600.00000
G01 X-39.91879 Y42.90480
G01 X-39.91879 Y43.70482
G01 X-39.93792 Y43.89200
G01 X-40.00091 Y44.09121
G01 X-40.10680 Y44.27134
G01 X-40.23311 Y44.41079
G01 X-40.38501 Y44.52184
G01 X-40.57523 Y44.60833
G01 X-40.75915 Y44.64798
G01 X-40.97843 Y44.64798
G01 X-41.16235 Y44.60833
G01 X-41.33446 Y44.53228
G01 X-41.51185 Y44.40340
G01 X-41.63735 Y44.26322
G01 X-41.73189 Y44.10053
G01 X-41.79966 Y43.89200
G01 X-41.81879 Y43.65481
G01 X-42.52767 Y43.64953
G01 X-42.61190 Y43.62397
G01 X-42.70931 Y43.55890
G01 X-47.94806 Y38.32081
G01 X-61.54867 Y38.32081
G01 X-61.58565 Y38.42754
G01 X-61.69586 Y38.61738
G01 X-61.84234 Y38.78088
G01 X-62.02700 Y38.91774
G01 X-62.25598 Y39.01969
G01 X-62.48125 Y39.06534
G01 X-62.69032 Y39.06534
G01 X-62.91559 Y39.01969
G01 X-63.12646 Y38.92820
G01 X-63.31369 Y38.79485
G01 X-63.47571 Y38.61738
G01 X-63.59067 Y38.41822
G01 X-63.66339 Y38.18919
G01 X-63.68524 Y37.96036
G01 X-63.65905 Y37.73199
G01 X-63.59067 Y37.52340
G01 X-63.48140 Y37.33303
G01 X-63.31369 Y37.14677
G01 X-63.12646 Y37.01342
G01 X-62.93548 Y36.92841
G01 X-62.69032 Y36.87629
G01 X-62.48125 Y36.87629
G01 X-62.25598 Y36.92193
G01 X-62.02700 Y37.02389
G01 X-61.84234 Y37.16074
G01 X-61.69586 Y37.32424
G01 X-61.58565 Y37.51408
G01 X-61.54867 Y37.62081
G01 X-47.72528 Y37.62993
G01 X-47.61705 Y37.67476
G01 X-47.55560 Y37.72333
G01 X-42.32412 Y42.95481
G01 X-41.81879 Y42.95481
G01 X-41.79532 Y42.69718
G01 X-41.73667 Y42.51841
G01 X-41.63077 Y42.33828
G01 X-41.49633 Y42.19223
G01 X-41.34378 Y42.08209
G01 X-41.16235 Y42.00130
G01 X-40.95762 Y41.95946
G01 X-40.75915 Y41.96165
G01 X-40.57523 Y42.00130
G01 X-40.38501 Y42.08778
G01 X-40.22572 Y42.20622
G01 X-40.10022 Y42.34641
G01 X-40.00091 Y42.51841
G01 X-39.94226 Y42.69718
G01 X-39.91879 Y42.90480
G04 P0 ( dwell for no time -- G64 should not smooth over this point )
G00 Z5.00000 ( retract )

G00 X-37.37879 Y42.90226 ( rapid move to begin. )
G01 F300.00000
G01 Z-0.05000
G04 P0 ( dwell for no time -- G64 should not smooth over this point )
G01 F600.00000
G01 X-37.37879 Y42.90226
G01 X-37.37879 Y43.70228
G01 X-37.39792 Y43.88946
G01 X-37.46568 Y44.09799
G01 X-37.56022 Y44.26068
G01 X-37.69311 Y44.40825
G01 X-37.84501 Y44.51930
G01 X-38.03523 Y44.60579
G01 X-38.21915 Y44.64544
G01 X-38.41762 Y44.64762
G01 X-38.63213 Y44.60203
G01 X-38.80378 Y44.52499
G01 X-38.97185 Y44.40086
G01 X-39.09735 Y44.26068
G01 X-39.19189 Y44.09799
G01 X-39.25966 Y43.88946
G01 X-39.27879 Y43.70228
G01 X-39.27823 Y42.89182
G01 X-39.25532 Y42.69464
G01 X-39.20040 Y42.52565
G01 X-39.09735 Y42.34387
G01 X-38.95633 Y42.18969
G01 X-38.80317 Y42.07920
G01 X-38.67879 Y42.02522
G01 X-38.67879 Y41.44699
G01 X-44.34497 Y35.78081
G01 X-61.48578 Y35.78081
G01 X-61.48578 Y36.43082
G01 X-61.50264 Y36.48637
G01 X-61.54752 Y36.52320
G01 X-63.58580 Y36.53082
G01 X-63.65649 Y36.50151
G01 X-63.68580 Y36.43082
G01 X-63.67818 Y34.39255
G01 X-63.64135 Y34.34767
G01 X-63.58580 Y34.33080
G01 X-61.54752 Y34.33842
G01 X-61.50264 Y34.37525
G01 X-61.48578 Y34.43080
G01 X-61.48578 Y35.08081
G01 X-44.19998 Y35.08081
G01 X-44.07530 Y35.10415
G01 X-43.95251 Y35.18333
G01 X-38.07470 Y41.06180
G01 X-38.00962 Y41.15921
G01 X-37.98407 Y41.24344
G01 X-37.97879 Y42.02522
G01 X-37.85440 Y42.07920
G01 X-37.70124 Y42.18969
G01 X-37.56022 Y42.34387
G01 X-37.46091 Y42.51587
G01 X-37.40226 Y42.69464
G01 X-37.37879 Y42.90226
G04 P0 ( dwell for no time -- G64 should not smooth over this point )
G00 Z5.00000 ( retract )

G00 X-31.15579 Y45.82580 ( rapid move to begin. )
G01 F300.00000
G01 Z-0.05000
G04 P0 ( dwell for no time -- G64 should not smooth over this point )
G01 F600.00000
G01 X-31.15579 Y45.82580
G01 X-31.15579 Y46.62582
G01 X-31.17926 Y46.83344
G01 X-31.23791 Y47.01221
G01 X-31.33153 Y47.17543
G01 X-31.47824 Y47.33839
G01 X-31.63079 Y47.44853
G01 X-31.82234 Y47.53202
G01 X-32.00649 Y47.57060
G01 X-32.20509 Y47.57060
G01 X-32.40913 Y47.52557
G01 X-32.58078 Y47.44853
G01 X-32.74146 Y47.33179
G01 X-32.86777 Y47.19234
G01 X-32.97367 Y47.01221
G01 X-33.03666 Y46.81300
G01 X-33.05579 Y46.62582
G01 X-33.05523 Y45.81536
G01 X-33.03232 Y45.61818
G01 X-32.96889 Y45.43009
G01 X-32.87435 Y45.26741
G01 X-32.73333 Y45.11323
G01 X-32.58957 Y45.00878
G01 X-32.40913 Y44.92605
G01 X-32.20509 Y44.88102
G01 X-31.99615 Y44.88265
G01 X-31.81223 Y44.92230
G01 X-31.64012 Y44.99834
G01 X-31.47824 Y45.11323
G01 X-31.33153 Y45.27619
G01 X-31.23791 Y45.43941
G01 X-31.17926 Y45.61818
G01 X-31.15579 Y45.82580
G04 P0 ( dwell for no time -- G64 should not smooth over this point )
G00 Z5.00000 ( retract )

G00 X-28.61579 Y45.82580 ( rapid move to begin. )
G01 F300.00000
G01 Z-0.05000
G04 P0 ( dwell for no time -- G64 should not smooth over this point )
G01 F600.00000
G01 X-28.61579 Y45.82580
G01 X-28.61579 Y46.62582
G01 X-28.63926 Y46.83344
G01 X-28.69791 Y47.01221
G01 X-28.79153 Y47.17543
G01 X-28.93824 Y47.33839
G01 X-29.09079 Y47.44853
G01 X-29.28234 Y47.53202
G01 X-29.46649 Y47.57060
G01 X-29.66509 Y47.57060
G01 X-29.86913 Y47.52557
G01 X-30.04078 Y47.44853
G01 X-30.20146 Y47.33179
G01 X-30.32777 Y47.19234
G01 X-30.43367 Y47.01221
G01 X-30.49666 Y46.81300
G01 X-30.51579 Y46.62582
G01 X-30.51523 Y45.81536
G01 X-30.49232 Y45.61818
G01 X-30.42889 Y45.43009
G01 X-30.33435 Y45.26741
G01 X-30.19333 Y45.11323
G01 X-30.04957 Y45.00878
G01 X-29.86913 Y44.92605
G01 X-29.66509 Y44.88102
G01 X-29.45615 Y44.88265
G01 X-29.27223 Y44.92230
G01 X-29.10012 Y44.99834
G01 X-28.93824 Y45.11323
G01 X-28.79153 Y45.27619
G01 X-28.69417 Y45.44919
G01 X-28.63926 Y45.61818
G01 X-28.61579 Y45.82580
G04 P0 ( dwell for no time -- G64 should not smooth over this point )
G00 Z5.00000 ( retract )

G00 X-3.60078 Y32.25580 ( rapid move to begin. )
G01 F300.00000
G01 Z-0.05000
G04 P0 ( dwell for no time -- G64 should not smooth over this point )
G01 F600.00000
G01 X-3.60078 Y32.25580
G01 X-3.62971 Y31.99621
G01 X-3.70454 Y31.76774
G01 X-3.82996 Y31.55047
G01 X-3.99044 Y31.37145
G01 X-4.19201 Y31.22227
G01 X-4.42996 Y31.11455
G01 X-4.66501 Y31.06403
G01 X-4.91576 Y31.06185
G01 X-5.18137 Y31.11828
G01 X-5.40956 Y31.22227
G01 X-5.59562 Y31.35745
G01 X-5.77730 Y31.55925
G01 X-5.89704 Y31.76774
G01 X-5.94248 Y31.90581
G01 X-25.74874 Y31.90581
G01 X-25.80271 Y31.78143
G01 X-25.92720 Y31.61275
G01 X-26.06738 Y31.48725
G01 X-26.24917 Y31.38420
G01 X-26.41816 Y31.32928
G01 X-26.61534 Y31.30637
G01 X-27.43624 Y31.30637
G01 X-27.63342 Y31.32928
G01 X-27.81218 Y31.38793
G01 X-27.98419 Y31.48725
G01 X-28.13837 Y31.62827
G01 X-28.25325 Y31.79014
G01 X-28.32930 Y31.96225
G01 X-28.37058 Y32.15651
G01 X-28.37114 Y32.34465
G01 X-28.32554 Y32.55915
G01 X-28.24282 Y32.73959
G01 X-28.12438 Y32.89888
G01 X-27.98419 Y33.02438
G01 X-27.81218 Y33.12369
G01 X-27.63342 Y33.18234
G01 X-27.42580 Y33.20581
G01 X-26.61534 Y33.20525
G01 X-26.41816 Y33.18234
G01 X-26.24917 Y33.12742
G01 X-26.07617 Y33.03007
G01 X-25.91981 Y32.89148
G01 X-25.80271 Y32.73019
G01 X-25.74874 Y32.60581
G01 X-5.94248 Y32.60581
G01 X-5.89704 Y32.74388
G01 X-5.77161 Y32.96116
G01 X-5.61114 Y33.14018
G01 X-5.40956 Y33.28935
G01 X-5.16151 Y33.39979
G01 X-4.93656 Y33.44759
G01 X-4.68581 Y33.44978
G01 X-4.42021 Y33.39334
G01 X-4.20078 Y33.29504
G01 X-3.99044 Y33.14018
G01 X-3.82996 Y32.96116
G01 X-3.70454 Y32.74388
G01 X-3.62971 Y32.51541
G01 X-3.60078 Y32.25580
G04 P0 ( dwell for no time -- G64 should not smooth over this point )
G00 Z5.00000 ( retract )

G00 X-3.60078 Y34.79580 ( rapid move to begin. )
G01 F300.00000
G01 Z-0.05000
G04 P0 ( dwell for no time -- G64 should not smooth over this point )
G01 F600.00000
G01 X-3.60078 Y34.79580
G01 X-3.62971 Y34.53621
G01 X-3.70454 Y34.30774
G01 X-3.82996 Y34.09047
G01 X-3.99044 Y33.91145
G01 X-4.20078 Y33.75658
G01 X-4.42996 Y33.65455
G01 X-4.66501 Y33.60403
G01 X-4.91576 Y33.60185
G01 X-5.18137 Y33.65828
G01 X-5.40080 Y33.75658
G01 X-5.59562 Y33.89745
G01 X-5.77730 Y34.09925
G01 X-5.89704 Y34.30774
G01 X-5.94248 Y34.44581
G01 X-25.74874 Y34.44581
G01 X-25.80271 Y34.32143
G01 X-25.92720 Y34.15275
G01 X-26.06738 Y34.02725
G01 X-26.24917 Y33.92420
G01 X-26.41816 Y33.86928
G01 X-26.61534 Y33.84637
G01 X-27.43624 Y33.84637
G01 X-27.63342 Y33.86928
G01 X-27.81218 Y33.92793
G01 X-27.98419 Y34.02725
G01 X-28.13837 Y34.16827
G01 X-28.25325 Y34.33014
G01 X-28.32930 Y34.50225
G01 X-28.37058 Y34.69651
G01 X-28.37114 Y34.88465
G01 X-28.32554 Y35.09915
G01 X-28.24282 Y35.27959
G01 X-28.12438 Y35.43888
G01 X-27.98419 Y35.56438
G01 X-27.81218 Y35.66369
G01 X-27.63342 Y35.72234
G01 X-27.42580 Y35.74581
G01 X-26.61534 Y35.74525
G01 X-26.41816 Y35.72234
G01 X-26.24917 Y35.66742
G01 X-26.07617 Y35.57007
G01 X-25.91981 Y35.43148
G01 X-25.80271 Y35.27019
G01 X-25.74874 Y35.14581
G01 X-5.94248 Y35.14581
G01 X-5.89704 Y35.28388
G01 X-5.77161 Y35.50116
G01 X-5.61114 Y35.68018
G01 X-5.40956 Y35.82935
G01 X-5.16151 Y35.93979
G01 X-4.93656 Y35.98759
G01 X-4.68581 Y35.98978
G01 X-4.42021 Y35.93334
G01 X-4.19201 Y35.82935
G01 X-3.99044 Y35.68018
G01 X-3.82996 Y35.50116
G01 X-3.70454 Y35.28388
G01 X-3.62971 Y35.05541
G01 X-3.60078 Y34.79580
G04 P0 ( dwell for no time -- G64 should not smooth over this point )
G00 Z5.00000 ( retract )

G00 X-3.60078 Y37.33580 ( rapid move to begin. )
G01 F300.00000
G01 Z-0.05000
G04 P0 ( dwell for no time -- G64 should not smooth over this point )
G01 F600.00000
G01 X-3.60078 Y37.33580
G01 X-3.62971 Y37.07621
G01 X-3.70454 Y36.84774
G01 X-3.82996 Y36.63047
G01 X-3.99044 Y36.45145
G01 X-4.19201 Y36.30227
G01 X-4.42996 Y36.19455
G01 X-4.66501 Y36.14403
G01 X-4.91576 Y36.14185
G01 X-5.18137 Y36.19828
G01 X-5.40956 Y36.30227
G01 X-5.59562 Y36.43745
G01 X-5.77730 Y36.63925
G01 X-5.89704 Y36.84774
G01 X-5.94248 Y36.98581
G01 X-25.74874 Y36.98581
G01 X-25.80271 Y36.86143
G01 X-25.92720 Y36.69275
G01 X-26.06738 Y36.56725
G01 X-26.24917 Y36.46420
G01 X-26.41816 Y36.40928
G01 X-26.61534 Y36.38637
G01 X-27.43624 Y36.38637
G01 X-27.63342 Y36.40928
G01 X-27.82151 Y36.47271
G01 X-27.98419 Y36.56725
G01 X-28.13837 Y36.70827
G01 X-28.25325 Y36.87014
G01 X-28.32930 Y37.04225
G01 X-28.37058 Y37.23651
G01 X-28.37114 Y37.42465
G01 X-28.32554 Y37.63915
G01 X-28.24282 Y37.81959
G01 X-28.12438 Y37.97888
G01 X-27.98419 Y38.10438
G01 X-27.80240 Y38.20742
G01 X-27.61297 Y38.26668
G01 X-27.42580 Y38.28581
G01 X-26.61534 Y38.28525
G01 X-26.41816 Y38.26234
G01 X-26.24917 Y38.20742
G01 X-26.07617 Y38.11007
G01 X-25.91981 Y37.97148
G01 X-25.80271 Y37.81019
G01 X-25.74874 Y37.68581
G01 X-5.94248 Y37.68581
G01 X-5.89704 Y37.82388
G01 X-5.77161 Y38.04116
G01 X-5.61114 Y38.22018
G01 X-5.40956 Y38.36935
G01 X-5.16151 Y38.47979
G01 X-4.93656 Y38.52759
G01 X-4.68581 Y38.52978
G01 X-4.42021 Y38.47334
G01 X-4.20078 Y38.37504
G01 X-3.99044 Y38.22018
G01 X-3.82996 Y38.04116
G01 X-3.70454 Y37.82388
G01 X-3.62971 Y37.59541
G01 X-3.60078 Y37.33580
G04 P0 ( dwell for no time -- G64 should not smooth over this point )
G00 Z5.00000 ( retract )

G00 X-3.60078 Y39.87580 ( rapid move to begin. )
G01 F300.00000
G01 Z-0.05000
G04 P0 ( dwell for no time -- G64 should not smooth over this point )
G01 F600.00000
G01 X-3.60078 Y39.87580
G01 X-3.62971 Y39.61621
G01 X-3.70454 Y39.38774
G01 X-3.82996 Y39.17047
G01 X-3.99044 Y38.99145
G01 X-4.20078 Y38.83658
G01 X-4.42996 Y38.73455
G01 X-4.66501 Y38.68403
G01 X-4.91576 Y38.68185
G01 X-5.18137 Y38.73828
G01 X-5.40080 Y38.83658
G01 X-5.59562 Y38.97745
G01 X-5.77730 Y39.17925
G01 X-5.89704 Y39.38774
G01 X-5.94248 Y39.52581
G01 X-25.74874 Y39.52581
G01 X-25.80271 Y39.40143
G01 X-25.92720 Y39.23275
G01 X-26.06738 Y39.10725
G01 X-26.24917 Y39.00420
G01 X-26.42826 Y38.94656
G01 X-26.61534 Y38.92637
G01 X-27.43624 Y38.92637
G01 X-27.62331 Y38.94656
G01 X-27.82151 Y39.01271
G01 X-27.98419 Y39.10725
G01 X-28.13837 Y39.24827
G01 X-28.25325 Y39.41014
G01 X-28.32930 Y39.58225
G01 X-28.37058 Y39.77651
G01 X-28.37114 Y39.96465
G01 X-28.32554 Y40.17915
G01 X-28.24282 Y40.35959
G01 X-28.12438 Y40.51888
G01 X-27.98419 Y40.64438
G01 X-27.80240 Y40.74742
G01 X-27.62331 Y40.80506
G01 X-27.42580 Y40.82581
G01 X-26.61534 Y40.82525
G01 X-26.42826 Y40.80506
G01 X-26.24917 Y40.74742
G01 X-26.06738 Y40.64438
G01 X-25.92720 Y40.51888
G01 X-25.80271 Y40.35019
G01 X-25.74874 Y40.22581
G01 X-5.94248 Y40.22581
G01 X-5.89704 Y40.36388
G01 X-5.77161 Y40.58116
G01 X-5.61114 Y40.76018
G01 X-5.40956 Y40.90935
G01 X-5.16151 Y41.01979
G01 X-4.93656 Y41.06759
G01 X-4.68581 Y41.06978
G01 X-4.42021 Y41.01334
G01 X-4.20078 Y40.91504
G01 X-3.99044 Y40.76018
G01 X-3.82996 Y40.58116
G01 X-3.70454 Y40.36388
G01 X-3.62971 Y40.13541
G01 X-3.60078 Y39.87580
G04 P0 ( dwell for no time -- G64 should not smooth over this point )
G00 Z5.00000 ( retract )

G00 X-3.60078 Y42.41580 ( rapid move to begin. )
G01 F300.00000
G01 Z-0.05000
G04 P0 ( dwell for no time -- G64 should not smooth over this point )
G01 F600.00000
G01 X-3.60078 Y42.41580
G01 X-3.62971 Y42.15621
G01 X-3.70454 Y41.92774
G01 X-3.82996 Y41.71047
G01 X-3.99044 Y41.53145
G01 X-4.20078 Y41.37658
G01 X-4.42996 Y41.27455
G01 X-4.66501 Y41.22403
G01 X-4.91576 Y41.22185
G01 X-5.18137 Y41.27828
G01 X-5.40080 Y41.37658
G01 X-5.59562 Y41.51745
G01 X-5.77730 Y41.71925
G01 X-5.89704 Y41.92774
G01 X-5.94248 Y42.06581
G01 X-25.74874 Y42.06581
G01 X-25.80271 Y41.94143
G01 X-25.92720 Y41.77275
G01 X-26.06738 Y41.64725
G01 X-26.24917 Y41.54420
G01 X-26.41816 Y41.48928
G01 X-26.61534 Y41.46637
G01 X-27.43624 Y41.46637
G01 X-27.63342 Y41.48928
G01 X-27.82151 Y41.55271
G01 X-27.98419 Y41.64725
G01 X-28.13837 Y41.78827
G01 X-28.25325 Y41.95014
G01 X-28.32930 Y42.12225
G01 X-28.37058 Y42.31651
G01 X-28.37114 Y42.50465
G01 X-28.32554 Y42.71915
G01 X-28.24282 Y42.89959
G01 X-28.12438 Y43.05888
G01 X-27.98419 Y43.18438
G01 X-27.80240 Y43.28742
G01 X-27.61297 Y43.34668
G01 X-27.42580 Y43.36581
G01 X-26.61534 Y43.36525
G01 X-26.41816 Y43.34234
G01 X-26.24917 Y43.28742
G01 X-26.07617 Y43.19007
G01 X-25.91981 Y43.05148
G01 X-25.80271 Y42.89019
G01 X-25.74874 Y42.76581
G01 X-5.94248 Y42.76581
G01 X-5.89704 Y42.90388
G01 X-5.77161 Y43.12116
G01 X-5.61114 Y43.30018
G01 X-5.40956 Y43.44935
G01 X-5.16151 Y43.55979
G01 X-4.93656 Y43.60759
G01 X-4.68581 Y43.60978
G01 X-4.42021 Y43.55334
G01 X-4.19201 Y43.44935
G01 X-3.99044 Y43.30018
G01 X-3.82996 Y43.12116
G01 X-3.70454 Y42.90388
G01 X-3.62971 Y42.67541
G01 X-3.60078 Y42.41580
G04 P0 ( dwell for no time -- G64 should not smooth over this point )
G00 Z5.00000 ( retract )

G00 X-3.60078 Y44.95580 ( rapid move to begin. )
G01 F300.00000
G01 Z-0.05000
G04 P0 ( dwell for no time -- G64 should not smooth over this point )
G01 F600.00000
G01 X-3.60078 Y44.95580
G01 X-3.62971 Y44.69621
G01 X-3.70454 Y44.46774
G01 X-3.82996 Y44.25047
G01 X-3.99044 Y44.07145
G01 X-4.19201 Y43.92227
G01 X-4.42996 Y43.81455
G01 X-4.66501 Y43.76403
G01 X-4.91576 Y43.76185
G01 X-5.18137 Y43.81828
G01 X-5.40956 Y43.92227
G01 X-5.59562 Y44.05745
G01 X-5.77730 Y44.25925
G01 X-5.89704 Y44.46774
G01 X-5.94248 Y44.60581
G01 X-25.74874 Y44.60581
G01 X-25.80271 Y44.48143
G01 X-25.92720 Y44.31275
G01 X-26.06738 Y44.18725
G01 X-26.24917 Y44.08420
G01 X-26.41816 Y44.02928
G01 X-26.61534 Y44.00637
G01 X-27.43624 Y44.00637
G01 X-27.63342 Y44.02928
G01 X-27.81218 Y44.08793
G01 X-27.98419 Y44.18725
G01 X-28.13837 Y44.32827
G01 X-28.25325 Y44.49014
G01 X-28.32930 Y44.66225
G01 X-28.37058 Y44.85651
G01 X-28.37114 Y45.04465
G01 X-28.32554 Y45.25915
G01 X-28.24282 Y45.43959
G01 X-28.12438 Y45.59888
G01 X-27.98419 Y45.72438
G01 X-27.80240 Y45.82742
G01 X-27.62331 Y45.88506
G01 X-27.42580 Y45.90581
G01 X-26.61534 Y45.90525
G01 X-26.42826 Y45.88506
G01 X-26.24917 Y45.82742
G01 X-26.07617 Y45.73007
G01 X-25.91981 Y45.59148
G01 X-25.80271 Y45.43019
G01 X-25.74874 Y45.30581
G01 X-5.94248 Y45.30581
G01 X-5.89229 Y45.45323
G01 X-5.77161 Y45.66116
G01 X-5.61114 Y45.84018
G01 X-5.40956 Y45.98935
G01 X-5.16151 Y46.09979
G01 X-4.93656 Y46.14759
G01 X-4.68581 Y46.14978
G01 X-4.42021 Y46.09334
G01 X-4.20078 Y45.99504
G01 X-3.99044 Y45.84018
G01 X-3.82996 Y45.66116
G01 X-3.70454 Y45.44388
G01 X-3.62971 Y45.21541
G01 X-3.60078 Y44.95580

G04 P0 ( dwell for no time -- G64 should not smooth over this point )
G00 Z10.000 ( retract )

M5 ( Spindle off. )
G04 P1.000000
M9 ( Coolant off. )
M2 ( Program end. )

