(Block-name: Header)
(Block-expand: 0)
(Block-enable: 1)
( pcb2gcode 1.3.2 )
( Software-independent Gcode )

G94 ( Millimeters per minute feed rate. )
G21 ( Units == Millimeters. )

G90 ( Absolute coordinates. )
(Block-name: block)
(Block-expand: 0)
(Block-enable: 1)
G00 S10000 ( RPM spindle speed. )
G64 P0.01000 ( set maximum deviation from commanded toolpath )
G01 F600.00000 ( Feedrate. )

G01 F600.00000 ( Feedrate. )
M3 ( Spindle on clockwise. )
G04 P1.00000
G04 P0 ( dwell for no time -- G64 should not smooth over this point )
G0 Z5
(Block-name: block)
(Block-expand: 0)
(Block-enable: 1)

G0 X53.3927 Y55.0285
G01 F300.00000
G1 Z-0.05
G04 P0 ( dwell for no time -- G64 should not smooth over this point )
G01 F600.00000
G1 X53.3927 Y55.0285
G1 X53.3874 Y62.8024
G1 X53.3619 Y62.8866
G1 X53.2902 Y62.9913
G1 X52.3 Y63.9815
G1 X52.1953 Y64.0532
G1 X52.0525 Y64.084
G1 X25.1122 Y64.0749
G1 X25.004 Y64.0301
G1 X24.9425 Y63.9815
G1 X19.3219 Y58.3602
G1 X19.2569 Y58.2628
G1 X19.2313 Y58.1786
G1 X19.226 Y57.3968
G1 X19.1016 Y57.3428
G1 X18.9485 Y57.2323
G1 X18.8075 Y57.0781
G1 X18.7044 Y56.8964
G1 X18.6468 Y56.7172
G1 X18.626 Y56.5197
G1 X18.626 Y55.7197
G1 X18.6468 Y55.5222
G1 X18.7129 Y55.324
G1 X18.8075 Y55.1613
G1 X18.9329 Y55.0212
G1 X19.1104 Y54.8923
G1 X19.2926 Y54.8135
G1 X19.4872 Y54.7744
G1 X19.6753 Y54.7749
G1 X19.8794 Y54.82
G1 X20.0598 Y54.9027
G1 X20.2191 Y55.0212
G1 X20.3446 Y55.1613
G1 X20.4391 Y55.324
G1 X20.5052 Y55.5222
G1 X20.526 Y55.7197
G1 X20.5255 Y56.5302
G1 X20.5052 Y56.7172
G1 X20.4476 Y56.8964
G1 X20.3446 Y57.0781
G1 X20.2035 Y57.2323
G1 X20.0504 Y57.3428
G1 X19.926 Y57.3968
G1 X19.926 Y57.975
G1 X25.335 Y63.384
G1 X51.9075 Y63.384
G1 X52.6927 Y62.5988
G1 X52.6927 Y55.1735
G1 X43.646 Y46.1138
G1 X43.6011 Y46.0056
G1 X43.592 Y45.9278
G1 X43.592 Y44.4751
G1 X43.4676 Y44.4211
G1 X43.3063 Y44.304
G1 X43.1678 Y44.1476
G1 X43.0704 Y43.9746
G1 X43.0155 Y43.8056
G1 X42.9926 Y43.6085
G1 X42.992 Y42.798
G1 X43.0111 Y42.6108
G1 X43.0704 Y42.4214
G1 X43.1735 Y42.2396
G1 X43.299 Y42.0994
G1 X43.4582 Y41.981
G1 X43.6387 Y41.8982
G1 X43.8532 Y41.8527
G1 X44.0413 Y41.8532
G1 X44.2356 Y41.8945
G1 X44.4077 Y41.9705
G1 X44.5696 Y42.0854
G1 X44.7163 Y42.2484
G1 X44.8099 Y42.4116
G1 X44.8729 Y42.6108
G1 X44.892 Y42.798
G1 X44.892 Y43.598
G1 X44.8685 Y43.8056
G1 X44.8099 Y43.9844
G1 X44.704 Y44.1645
G1 X44.5696 Y44.3106
G1 X44.4164 Y44.4211
G1 X44.292 Y44.4751
G1 X44.292 Y45.7828
G1 X53.2902 Y54.781
G1 X53.3694 Y54.9038
G1 X53.3927 Y55.0285
G04 P0 ( dwell for no time -- G64 should not smooth over this point )
G0 Z5
(Block-name: block)
(Block-expand: 0)
(Block-enable: 1)

G0 X52.3924 Y55.4429
G01 F300.00000
G1 Z-0.05
G04 P0 ( dwell for no time -- G64 should not smooth over this point )
G01 F600.00000
G1 X52.3924 Y55.4429
G1 X52.3871 Y62.388
G1 X52.3616 Y62.4722
G1 X52.2965 Y62.5696
G1 X51.8856 Y62.9812
G1 X51.7809 Y63.0529
G1 X51.6381 Y63.0837
G1 X29.1919 Y63.0746
G1 X29.0837 Y63.0298
G1 X29.0222 Y62.9812
G1 X24.4019 Y58.3602
G1 X24.3369 Y58.2628
G1 X24.3113 Y58.1786
G1 X24.306 Y57.3968
G1 X24.1816 Y57.3428
G1 X24.0285 Y57.2323
G1 X23.8817 Y57.0694
G1 X23.7881 Y56.9062
G1 X23.7295 Y56.7274
G1 X23.706 Y56.5197
G1 X23.706 Y55.7197
G1 X23.7268 Y55.5222
G1 X23.7929 Y55.324
G1 X23.8875 Y55.1613
G1 X24.0129 Y55.0212
G1 X24.1904 Y54.8923
G1 X24.3726 Y54.8135
G1 X24.5672 Y54.7744
G1 X24.7553 Y54.7749
G1 X24.9594 Y54.82
G1 X25.131 Y54.897
G1 X25.2991 Y55.0212
G1 X25.4246 Y55.1613
G1 X25.5191 Y55.324
G1 X25.5852 Y55.5222
G1 X25.606 Y55.7197
G1 X25.6055 Y56.5302
G1 X25.5852 Y56.7172
G1 X25.5276 Y56.8964
G1 X25.4246 Y57.0781
G1 X25.2835 Y57.2323
G1 X25.1304 Y57.3428
G1 X25.006 Y57.3968
G1 X25.006 Y57.975
G1 X29.4147 Y62.3837
G1 X51.4931 Y62.3837
G1 X51.6924 Y62.1844
G1 X51.6924 Y55.5879
G1 X41.6529 Y45.5483
G1 X41.3242 Y45.5392
G1 X41.1997 Y45.4835
G1 X41.1168 Y45.4006
G1 X41.0754 Y45.323
G1 X41.0525 Y45.2081
G1 X41.052 Y44.4751
G1 X40.9276 Y44.4211
G1 X40.7745 Y44.3106
G1 X40.64 Y44.1645
G1 X40.5341 Y43.9844
G1 X40.4755 Y43.8056
G1 X40.452 Y43.598
G1 X40.4526 Y42.7876
G1 X40.4755 Y42.5904
G1 X40.5304 Y42.4214
G1 X40.6335 Y42.2396
G1 X40.7589 Y42.0994
G1 X40.9182 Y41.981
G1 X41.0987 Y41.8982
G1 X41.3132 Y41.8527
G1 X41.5013 Y41.8532
G1 X41.6956 Y41.8945
G1 X41.8677 Y41.9705
G1 X42.0296 Y42.0854
G1 X42.1763 Y42.2484
G1 X42.2736 Y42.4214
G1 X42.3329 Y42.6108
G1 X42.352 Y42.798
G1 X42.352 Y43.598
G1 X42.3285 Y43.8056
G1 X42.2699 Y43.9844
G1 X42.164 Y44.1645
G1 X42.0296 Y44.3106
G1 X41.8764 Y44.4211
G1 X41.752 Y44.4751
G1 X41.752 Y44.8483
G1 X41.9225 Y44.8717
G1 X42.0453 Y44.9508
G1 X52.2899 Y55.1954
G1 X52.3691 Y55.3182
G1 X52.3924 Y55.4429
G04 P0 ( dwell for no time -- G64 should not smooth over this point )
G0 Z5
(Block-name: block)
(Block-expand: 0)
(Block-enable: 1)

G0 X51.392 Y59.978
G01 F300.00000
G1 Z-0.05
G04 P0 ( dwell for no time -- G64 should not smooth over this point )
G01 F600.00000
G1 X51.392 Y59.978
G1 X51.392 Y61.978
G1 X51.3627 Y62.0487
G1 X51.292 Y62.078
G1 X49.292 Y62.078
G1 X49.2213 Y62.0487
G1 X49.192 Y61.978
G1 X49.1939 Y59.9585
G1 X49.2213 Y59.9073
G1 X49.2725 Y59.8799
G1 X49.942 Y59.878
G1 X49.942 Y58.501
G1 X49.7708 Y58.3223
G1 X49.7151 Y58.1978
G1 X49.706 Y57.3968
G1 X49.5816 Y57.3428
G1 X49.4285 Y57.2323
G1 X49.294 Y57.0863
G1 X49.1881 Y56.9062
G1 X49.1295 Y56.7274
G1 X49.106 Y56.5197
G1 X49.1066 Y55.7093
G1 X49.1251 Y55.5326
G1 X49.1844 Y55.3431
G1 X49.2875 Y55.1613
G1 X49.4129 Y55.0212
G1 X49.5722 Y54.9027
G1 X49.7726 Y54.8135
G1 X49.9567 Y54.7749
G1 X50.1553 Y54.7749
G1 X50.3395 Y54.8135
G1 X50.5217 Y54.8923
G1 X50.6917 Y55.0138
G1 X50.818 Y55.1532
G1 X50.9239 Y55.3333
G1 X50.9826 Y55.5121
G1 X51.006 Y55.7197
G1 X51.006 Y56.5197
G1 X50.9826 Y56.7274
G1 X50.9191 Y56.9155
G1 X50.818 Y57.0863
G1 X50.6835 Y57.2323
G1 X50.5304 Y57.3428
G1 X50.406 Y57.3968
G1 X50.406 Y57.975
G1 X50.5772 Y58.1537
G1 X50.6367 Y58.2974
G1 X50.642 Y59.878
G1 X51.3115 Y59.8799
G1 X51.3752 Y59.9224
G1 X51.392 Y59.978
G04 P0 ( dwell for no time -- G64 should not smooth over this point )
G0 Z5
(Block-name: block)
(Block-expand: 0)
(Block-enable: 1)

G0 X48.8515 Y60.9676
G01 F300.00000
G1 Z-0.05
G04 P0 ( dwell for no time -- G64 should not smooth over this point )
G01 F600.00000
G1 X48.8515 Y60.9676
G1 X48.8253 Y61.2168
G1 X48.7569 Y61.4254
G1 X48.6353 Y61.6327
G1 X48.4799 Y61.802
G1 X48.2927 Y61.9354
G1 X48.0919 Y62.0242
G1 X47.867 Y62.072
G1 X47.637 Y62.072
G1 X47.4222 Y62.0269
G1 X47.1932 Y61.9249
G1 X47.016 Y61.7955
G1 X46.8564 Y61.6158
G1 X46.7471 Y61.4254
G1 X46.6788 Y61.2168
G1 X46.6526 Y60.9885
G1 X46.6744 Y60.7596
G1 X46.7519 Y60.5213
G1 X46.8687 Y60.3233
G1 X47.016 Y60.1605
G1 X47.1932 Y60.0311
G1 X47.402 Y59.9357
G1 X47.402 Y58.501
G1 X47.2308 Y58.3223
G1 X47.1751 Y58.1978
G1 X47.166 Y57.3968
G1 X47.0416 Y57.3428
G1 X46.8885 Y57.2323
G1 X46.7417 Y57.0694
G1 X46.6481 Y56.9062
G1 X46.5895 Y56.7274
G1 X46.566 Y56.5197
G1 X46.5666 Y55.7093
G1 X46.5868 Y55.5222
G1 X46.6444 Y55.3431
G1 X46.7475 Y55.1613
G1 X46.8729 Y55.0212
G1 X47.041 Y54.897
G1 X47.2326 Y54.8135
G1 X47.4167 Y54.7749
G1 X47.6153 Y54.7749
G1 X47.7995 Y54.8135
G1 X47.991 Y54.897
G1 X48.1591 Y55.0212
G1 X48.2846 Y55.1613
G1 X48.3876 Y55.3431
G1 X48.4452 Y55.5222
G1 X48.466 Y55.7197
G1 X48.466 Y56.5197
G1 X48.4452 Y56.7172
G1 X48.3791 Y56.9155
G1 X48.278 Y57.0863
G1 X48.1435 Y57.2323
G1 X47.9904 Y57.3428
G1 X47.866 Y57.3968
G1 X47.866 Y57.975
G1 X48.0372 Y58.1537
G1 X48.0967 Y58.2974
G1 X48.102 Y59.9357
G1 X48.2927 Y60.0206
G1 X48.4799 Y60.154
G1 X48.6419 Y60.3314
G1 X48.7607 Y60.5404
G1 X48.828 Y60.7493
G1 X48.8515 Y60.9676
G04 P0 ( dwell for no time -- G64 should not smooth over this point )
G0 Z5
(Block-name: block)
(Block-expand: 0)
(Block-enable: 1)

G0 X45.926 Y55.7197
G01 F300.00000
G1 Z-0.05
G04 P0 ( dwell for no time -- G64 should not smooth over this point )
G01 F600.00000
G1 X45.926 Y55.7197
G1 X45.926 Y56.5197
G1 X45.9052 Y56.7172
G1 X45.8476 Y56.8964
G1 X45.7503 Y57.0694
G1 X45.6035 Y57.2323
G1 X45.451 Y57.3425
G1 X45.2595 Y57.426
G1 X45.0753 Y57.4645
G1 X44.8767 Y57.4645
G1 X44.6824 Y57.4232
G1 X44.5104 Y57.3472
G1 X44.3404 Y57.2257
G1 X44.214 Y57.0863
G1 X44.1081 Y56.9062
G1 X44.0451 Y56.7069
G1 X44.026 Y56.5197
G1 X44.0266 Y55.7093
G1 X44.0451 Y55.5326
G1 X44.1044 Y55.3431
G1 X44.2075 Y55.1613
G1 X44.3485 Y55.0072
G1 X44.5016 Y54.8967
G1 X44.626 Y54.8427
G1 X44.626 Y52.0667
G1 X38.566 Y45.9937
G1 X38.5211 Y45.8855
G1 X38.512 Y45.8077
G1 X38.512 Y44.4751
G1 X38.3876 Y44.4211
G1 X38.2345 Y44.3106
G1 X38.0935 Y44.1564
G1 X37.9989 Y43.9937
G1 X37.9355 Y43.8056
G1 X37.912 Y43.598
G1 X37.912 Y42.798
G1 X37.9355 Y42.5904
G1 X37.9989 Y42.4023
G1 X38.0935 Y42.2396
G1 X38.2345 Y42.0854
G1 X38.3963 Y41.9705
G1 X38.5684 Y41.8945
G1 X38.7732 Y41.8527
G1 X38.9717 Y41.8548
G1 X39.1556 Y41.8945
G1 X39.3277 Y41.9705
G1 X39.4896 Y42.0854
G1 X39.6306 Y42.2396
G1 X39.7336 Y42.4214
G1 X39.7913 Y42.6005
G1 X39.812 Y42.798
G1 X39.812 Y43.598
G1 X39.7913 Y43.7955
G1 X39.7251 Y43.9937
G1 X39.624 Y44.1645
G1 X39.4896 Y44.3106
G1 X39.3364 Y44.4211
G1 X39.212 Y44.4751
G1 X39.212 Y45.6627
G1 X45.2721 Y51.7357
G1 X45.3169 Y51.8439
G1 X45.326 Y51.9217
G1 X45.326 Y54.8427
G1 X45.4504 Y54.8967
G1 X45.6035 Y55.0072
G1 X45.7446 Y55.1613
G1 X45.8476 Y55.3431
G1 X45.9052 Y55.5222
G1 X45.926 Y55.7197
G04 P0 ( dwell for no time -- G64 should not smooth over this point )
G0 Z5
(Block-name: block)
(Block-expand: 0)
(Block-enable: 1)

G0 X43.386 Y55.7197
G01 F300.00000
G1 Z-0.05
G04 P0 ( dwell for no time -- G64 should not smooth over this point )
G01 F600.00000
G1 X43.386 Y55.7197
G1 X43.386 Y56.5197
G1 X43.3625 Y56.7274
G1 X43.3076 Y56.8964
G1 X43.2103 Y57.0694
G1 X43.0635 Y57.2323
G1 X42.9017 Y57.3472
G1 X42.7296 Y57.4232
G1 X42.5353 Y57.4645
G1 X42.3367 Y57.4645
G1 X42.1526 Y57.426
G1 X41.961 Y57.3425
G1 X41.8004 Y57.2257
G1 X41.674 Y57.0863
G1 X41.5644 Y56.8964
G1 X41.5051 Y56.7069
G1 X41.486 Y56.5197
G1 X41.4866 Y55.7093
G1 X41.5068 Y55.5222
G1 X41.5644 Y55.3431
G1 X41.6675 Y55.1613
G1 X41.8085 Y55.0072
G1 X41.9616 Y54.8967
G1 X42.086 Y54.8427
G1 X42.086 Y52.4272
G1 X36.026 Y46.3542
G1 X35.9811 Y46.246
G1 X35.972 Y46.1682
G1 X35.972 Y44.4751
G1 X35.8476 Y44.4211
G1 X35.6945 Y44.3106
G1 X35.5478 Y44.1476
G1 X35.4541 Y43.9844
G1 X35.3955 Y43.8056
G1 X35.372 Y43.598
G1 X35.372 Y42.798
G1 X35.3955 Y42.5904
G1 X35.4589 Y42.4023
G1 X35.5534 Y42.2396
G1 X35.6945 Y42.0854
G1 X35.8563 Y41.9705
G1 X36.0284 Y41.8945
G1 X36.2332 Y41.8527
G1 X36.4317 Y41.8548
G1 X36.6156 Y41.8945
G1 X36.7877 Y41.9705
G1 X36.9496 Y42.0854
G1 X37.0906 Y42.2396
G1 X37.1936 Y42.4214
G1 X37.2529 Y42.6108
G1 X37.272 Y42.798
G1 X37.272 Y43.598
G1 X37.2485 Y43.8056
G1 X37.1899 Y43.9844
G1 X37.084 Y44.1645
G1 X36.9496 Y44.3106
G1 X36.7964 Y44.4211
G1 X36.672 Y44.4751
G1 X36.672 Y46.0232
G1 X42.7212 Y52.0799
G1 X42.7627 Y52.1575
G1 X42.786 Y52.2822
G1 X42.786 Y54.8427
G1 X42.9104 Y54.8967
G1 X43.0635 Y55.0072
G1 X43.2046 Y55.1613
G1 X43.3076 Y55.3431
G1 X43.3669 Y55.5326
G1 X43.386 Y55.7197
G04 P0 ( dwell for no time -- G64 should not smooth over this point )
G0 Z5
(Block-name: block)
(Block-expand: 0)
(Block-enable: 1)

G0 X40.846 Y55.7197
G01 F300.00000
G1 Z-0.05
G04 P0 ( dwell for no time -- G64 should not smooth over this point )
G01 F600.00000
G1 X40.846 Y55.7197
G1 X40.846 Y56.5197
G1 X40.8252 Y56.7172
G1 X40.7676 Y56.8964
G1 X40.6703 Y57.0694
G1 X40.5235 Y57.2323
G1 X40.3617 Y57.3472
G1 X40.1896 Y57.4232
G1 X39.9953 Y57.4645
G1 X39.7967 Y57.4645
G1 X39.6024 Y57.4232
G1 X39.4304 Y57.3472
G1 X39.2604 Y57.2257
G1 X39.134 Y57.0863
G1 X39.0281 Y56.9062
G1 X38.9651 Y56.7069
G1 X38.946 Y56.5197
G1 X38.9466 Y55.7093
G1 X38.9668 Y55.5222
G1 X39.0244 Y55.3431
G1 X39.1275 Y55.1613
G1 X39.2685 Y55.0072
G1 X39.4216 Y54.8967
G1 X39.546 Y54.8427
G1 X39.546 Y53.1482
G1 X33.486 Y47.0752
G1 X33.4411 Y46.967
G1 X33.432 Y46.8892
G1 X33.432 Y44.4751
G1 X33.3076 Y44.4211
G1 X33.1545 Y44.3106
G1 X33.0078 Y44.1476
G1 X32.9141 Y43.9844
G1 X32.8555 Y43.8056
G1 X32.832 Y43.598
G1 X32.832 Y42.798
G1 X32.8555 Y42.5904
G1 X32.9189 Y42.4023
G1 X33.0134 Y42.2396
G1 X33.1545 Y42.0854
G1 X33.3163 Y41.9705
G1 X33.4884 Y41.8945
G1 X33.6932 Y41.8527
G1 X33.8916 Y41.8548
G1 X34.0756 Y41.8945
G1 X34.2477 Y41.9705
G1 X34.4096 Y42.0854
G1 X34.5506 Y42.2396
G1 X34.6499 Y42.4116
G1 X34.7129 Y42.6108
G1 X34.732 Y42.798
G1 X34.732 Y43.598
G1 X34.7085 Y43.8056
G1 X34.6499 Y43.9844
G1 X34.544 Y44.1645
G1 X34.4096 Y44.3106
G1 X34.2564 Y44.4211
G1 X34.132 Y44.4751
G1 X34.132 Y46.7442
G1 X40.1812 Y52.8009
G1 X40.2227 Y52.8785
G1 X40.246 Y53.0032
G1 X40.246 Y54.8427
G1 X40.3704 Y54.8967
G1 X40.5235 Y55.0072
G1 X40.6703 Y55.1701
G1 X40.7639 Y55.3333
G1 X40.8225 Y55.5121
G1 X40.846 Y55.7197
G04 P0 ( dwell for no time -- G64 should not smooth over this point )
G0 Z5
(Block-name: block)
(Block-expand: 0)
(Block-enable: 1)

G0 X38.306 Y55.7197
G01 F300.00000
G1 Z-0.05
G04 P0 ( dwell for no time -- G64 should not smooth over this point )
G01 F600.00000
G1 X38.306 Y55.7197
G1 X38.306 Y56.5197
G1 X38.2869 Y56.7069
G1 X38.2276 Y56.8964
G1 X38.118 Y57.0863
G1 X37.9991 Y57.2183
G1 X37.8398 Y57.3368
G1 X37.6395 Y57.426
G1 X37.4553 Y57.4645
G1 X37.2567 Y57.4645
G1 X37.0624 Y57.4232
G1 X36.8903 Y57.3472
G1 X36.7129 Y57.2183
G1 X36.5817 Y57.0694
G1 X36.4929 Y56.9155
G1 X36.4251 Y56.7069
G1 X36.406 Y56.4697
G1 X35.6971 Y56.4644
G1 X35.6129 Y56.4389
G1 X35.5155 Y56.3738
G1 X30.946 Y51.792
G1 X30.9011 Y51.6838
G1 X30.892 Y51.606
G1 X30.892 Y44.4751
G1 X30.7676 Y44.4211
G1 X30.6145 Y44.3106
G1 X30.4678 Y44.1476
G1 X30.3741 Y43.9844
G1 X30.3155 Y43.8056
G1 X30.292 Y43.598
G1 X30.292 Y42.798
G1 X30.3155 Y42.5904
G1 X30.3789 Y42.4023
G1 X30.4734 Y42.2396
G1 X30.6145 Y42.0854
G1 X30.7763 Y41.9705
G1 X30.9485 Y41.8945
G1 X31.1324 Y41.8548
G1 X31.3308 Y41.8527
G1 X31.5356 Y41.8945
G1 X31.7258 Y41.981
G1 X31.8851 Y42.0994
G1 X32.0163 Y42.2484
G1 X32.1099 Y42.4116
G1 X32.1685 Y42.5904
G1 X32.1915 Y42.7876
G1 X32.1915 Y43.6085
G1 X32.1685 Y43.8056
G1 X32.1136 Y43.9746
G1 X32.0106 Y44.1564
G1 X31.8851 Y44.2966
G1 X31.7164 Y44.4211
G1 X31.592 Y44.4751
G1 X31.592 Y51.461
G1 X35.9007 Y55.7697
G1 X36.406 Y55.7697
G1 X36.4295 Y55.5121
G1 X36.4929 Y55.324
G1 X36.594 Y55.1532
G1 X36.7285 Y55.0072
G1 X36.881 Y54.897
G1 X37.0726 Y54.8135
G1 X37.2672 Y54.7744
G1 X37.4553 Y54.7749
G1 X37.6594 Y54.82
G1 X37.831 Y54.897
G1 X37.9991 Y55.0212
G1 X38.1246 Y55.1613
G1 X38.2276 Y55.3431
G1 X38.2852 Y55.5222
G1 X38.306 Y55.7197
G04 P0 ( dwell for no time -- G64 should not smooth over this point )
G0 Z5
(Block-name: block)
(Block-expand: 0)
(Block-enable: 1)

G0 X33.226 Y55.7197
G01 F300.00000
G1 Z-0.05
G04 P0 ( dwell for no time -- G64 should not smooth over this point )
G01 F600.00000
G1 X33.226 Y55.7197
G1 X33.226 Y56.5197
G1 X33.2052 Y56.7172
G1 X33.1476 Y56.8964
G1 X33.0503 Y57.0694
G1 X32.9035 Y57.2323
G1 X32.751 Y57.3425
G1 X32.5595 Y57.426
G1 X32.3753 Y57.4645
G1 X32.1767 Y57.4645
G1 X31.9824 Y57.4232
G1 X31.8103 Y57.3472
G1 X31.6403 Y57.2257
G1 X31.514 Y57.0863
G1 X31.4081 Y56.9062
G1 X31.3451 Y56.7069
G1 X31.326 Y56.5197
G1 X31.3266 Y55.7093
G1 X31.3495 Y55.5121
G1 X31.4129 Y55.324
G1 X31.5075 Y55.1613
G1 X31.6485 Y55.0072
G1 X31.801 Y54.897
G1 X31.9727 Y54.82
G1 X32.1767 Y54.7749
G1 X32.3857 Y54.7766
G1 X32.5595 Y54.8135
G1 X32.7417 Y54.8923
G1 X32.9191 Y55.0212
G1 X33.0503 Y55.1701
G1 X33.1476 Y55.3431
G1 X33.2026 Y55.5121
G1 X33.226 Y55.7197
G04 P0 ( dwell for no time -- G64 should not smooth over this point )
G0 Z5
(Block-name: block)
(Block-expand: 0)
(Block-enable: 1)

G0 X30.686 Y55.7197
G01 F300.00000
G1 Z-0.05
G04 P0 ( dwell for no time -- G64 should not smooth over this point )
G01 F600.00000
G1 X30.686 Y55.7197
G1 X30.686 Y56.5197
G1 X30.6626 Y56.7274
G1 X30.6076 Y56.8964
G1 X30.5103 Y57.0694
G1 X30.3635 Y57.2323
G1 X30.2017 Y57.3472
G1 X30.0296 Y57.4232
G1 X29.8353 Y57.4645
G1 X29.6367 Y57.4645
G1 X29.4526 Y57.426
G1 X29.261 Y57.3425
G1 X29.1003 Y57.2257
G1 X28.974 Y57.0863
G1 X28.8644 Y56.8964
G1 X28.8051 Y56.7069
G1 X28.786 Y56.5197
G1 X28.7866 Y55.7093
G1 X28.8068 Y55.5222
G1 X28.8729 Y55.324
G1 X28.9675 Y55.1613
G1 X29.1085 Y55.0072
G1 X29.261 Y54.897
G1 X29.4327 Y54.82
G1 X29.6367 Y54.7749
G1 X29.8457 Y54.7766
G1 X30.0195 Y54.8135
G1 X30.2017 Y54.8923
G1 X30.3791 Y55.0212
G1 X30.5103 Y55.1701
G1 X30.6076 Y55.3431
G1 X30.6626 Y55.5121
G1 X30.686 Y55.7197
G04 P0 ( dwell for no time -- G64 should not smooth over this point )
G0 Z5
(Block-name: block)
(Block-expand: 0)
(Block-enable: 1)

G0 X28.146 Y55.7197
G01 F300.00000
G1 Z-0.05
G04 P0 ( dwell for no time -- G64 should not smooth over this point )
G01 F600.00000
G1 X28.146 Y55.7197
G1 X28.146 Y56.5197
G1 X28.1252 Y56.7172
G1 X28.0676 Y56.8964
G1 X27.9703 Y57.0694
G1 X27.8235 Y57.2323
G1 X27.6617 Y57.3472
G1 X27.4896 Y57.4232
G1 X27.2953 Y57.4645
G1 X27.0967 Y57.4645
G1 X26.9024 Y57.4232
G1 X26.7304 Y57.3472
G1 X26.5603 Y57.2257
G1 X26.434 Y57.0863
G1 X26.3281 Y56.9062
G1 X26.2651 Y56.7069
G1 X26.246 Y56.5197
G1 X26.2466 Y55.7093
G1 X26.2668 Y55.5222
G1 X26.3329 Y55.324
G1 X26.4275 Y55.1613
G1 X26.5685 Y55.0072
G1 X26.721 Y54.897
G1 X26.8927 Y54.82
G1 X27.0967 Y54.7749
G1 X27.3057 Y54.7766
G1 X27.4795 Y54.8135
G1 X27.6617 Y54.8923
G1 X27.8317 Y55.0138
G1 X27.9703 Y55.1701
G1 X28.0639 Y55.3333
G1 X28.1226 Y55.5121
G1 X28.146 Y55.7197
G04 P0 ( dwell for no time -- G64 should not smooth over this point )
G0 Z5
(Block-name: block)
(Block-expand: 0)
(Block-enable: 1)

G0 X23.066 Y55.7197
G01 F300.00000
G1 Z-0.05
G04 P0 ( dwell for no time -- G64 should not smooth over this point )
G01 F600.00000
G1 X23.066 Y55.7197
G1 X23.066 Y56.5197
G1 X23.0452 Y56.7172
G1 X22.9876 Y56.8964
G1 X22.8903 Y57.0694
G1 X22.7435 Y57.2323
G1 X22.591 Y57.3425
G1 X22.3995 Y57.426
G1 X22.2257 Y57.4629
G1 X22.0272 Y57.4651
G1 X21.8224 Y57.4232
G1 X21.6504 Y57.3472
G1 X21.4885 Y57.2323
G1 X21.354 Y57.0863
G1 X21.2481 Y56.9062
G1 X21.1851 Y56.7069
G1 X21.166 Y56.5197
G1 X21.1666 Y55.7093
G1 X21.1895 Y55.5121
G1 X21.2481 Y55.3333
G1 X21.354 Y55.1532
G1 X21.4885 Y55.0072
G1 X21.6504 Y54.8923
G1 X21.8127 Y54.82
G1 X22.0167 Y54.7749
G1 X22.2257 Y54.7766
G1 X22.3995 Y54.8135
G1 X22.5817 Y54.8923
G1 X22.7517 Y55.0138
G1 X22.8903 Y55.1701
G1 X22.9876 Y55.3431
G1 X23.0425 Y55.5121
G1 X23.066 Y55.7197
G04 P0 ( dwell for no time -- G64 should not smooth over this point )
G0 Z5
(Block-name: block)
(Block-expand: 0)
(Block-enable: 1)

G0 X17.986 Y55.7197
G01 F300.00000
G1 Z-0.05
G04 P0 ( dwell for no time -- G64 should not smooth over this point )
G01 F600.00000
G1 X17.986 Y55.7197
G1 X17.986 Y56.5197
G1 X17.9652 Y56.7172
G1 X17.9076 Y56.8964
G1 X17.8103 Y57.0694
G1 X17.6635 Y57.2323
G1 X17.5017 Y57.3472
G1 X17.3296 Y57.4232
G1 X17.1249 Y57.4651
G1 X16.9264 Y57.4629
G1 X16.7424 Y57.4232
G1 X16.5522 Y57.3368
G1 X16.3929 Y57.2183
G1 X16.2675 Y57.0781
G1 X16.1644 Y56.8964
G1 X16.1051 Y56.7069
G1 X16.086 Y56.5197
G1 X16.0866 Y55.7093
G1 X16.1068 Y55.5222
G1 X16.1729 Y55.324
G1 X16.2675 Y55.1613
G1 X16.4085 Y55.0072
G1 X16.5704 Y54.8923
G1 X16.7327 Y54.82
G1 X16.9367 Y54.7749
G1 X17.1457 Y54.7766
G1 X17.3195 Y54.8135
G1 X17.5017 Y54.8923
G1 X17.6791 Y55.0212
G1 X17.8103 Y55.1701
G1 X17.9076 Y55.3431
G1 X17.9625 Y55.5121
G1 X17.986 Y55.7197
G04 P0 ( dwell for no time -- G64 should not smooth over this point )
G0 Z5
(Block-name: block)
(Block-expand: 0)
(Block-enable: 1)

G0 X15.446 Y55.7197
G01 F300.00000
G1 Z-0.05
G04 P0 ( dwell for no time -- G64 should not smooth over this point )
G01 F600.00000
G1 X15.446 Y55.7197
G1 X15.446 Y56.5197
G1 X15.4252 Y56.7172
G1 X15.3676 Y56.8964
G1 X15.2703 Y57.0694
G1 X15.1235 Y57.2323
G1 X14.9617 Y57.3472
G1 X14.7896 Y57.4232
G1 X14.5849 Y57.4651
G1 X14.3864 Y57.4629
G1 X14.2024 Y57.4232
G1 X14.0122 Y57.3368
G1 X13.8529 Y57.2183
G1 X13.7275 Y57.0781
G1 X13.6244 Y56.8964
G1 X13.5651 Y56.7069
G1 X13.546 Y56.5197
G1 X13.5466 Y55.7093
G1 X13.5668 Y55.5222
G1 X13.6329 Y55.324
G1 X13.7275 Y55.1613
G1 X13.8685 Y55.0072
G1 X14.0303 Y54.8923
G1 X14.1927 Y54.82
G1 X14.3967 Y54.7749
G1 X14.6057 Y54.7766
G1 X14.7795 Y54.8135
G1 X14.9617 Y54.8923
G1 X15.1391 Y55.0212
G1 X15.2703 Y55.1701
G1 X15.3676 Y55.3431
G1 X15.4226 Y55.5121
G1 X15.446 Y55.7197
G04 P0 ( dwell for no time -- G64 should not smooth over this point )
G0 Z5
(Block-name: block)
(Block-expand: 0)
(Block-enable: 1)

G0 X24.572 Y42.798
G01 F300.00000
G1 Z-0.05
G04 P0 ( dwell for no time -- G64 should not smooth over this point )
G01 F600.00000
G1 X24.572 Y42.798
G1 X24.5513 Y42.6005
G1 X24.4851 Y42.4023
G1 X24.384 Y42.2315
G1 X24.2496 Y42.0854
G1 X24.1058 Y41.981
G1 X23.9156 Y41.8945
G1 X23.7108 Y41.8527
G1 X23.5124 Y41.8548
G1 X23.3285 Y41.8945
G1 X23.1563 Y41.9705
G1 X22.9945 Y42.0854
G1 X22.8535 Y42.2396
G1 X22.7541 Y42.4116
G1 X22.6955 Y42.5904
G1 X22.672 Y42.798
G1 X22.672 Y43.598
G1 X22.6955 Y43.8056
G1 X22.7541 Y43.9844
G1 X22.8535 Y44.1564
G1 X22.9945 Y44.3106
G1 X23.1476 Y44.4211
G1 X23.272 Y44.4751
G1 X23.272 Y44.8483
G1 X20.5392 Y44.8483
G1 X13.5629 Y37.872
G1 X13.5629 Y17.3881
G1 X20.8921 Y10.0461
G1 X20.9369 Y9.9378
G1 X20.9455 Y9.8698
G1 X20.946 Y9.1368
G1 X21.0704 Y9.0828
G1 X21.2236 Y8.9723
G1 X21.358 Y8.8263
G1 X21.4639 Y8.6461
G1 X21.5225 Y8.4674
G1 X21.546 Y8.2597
G1 X21.546 Y7.4597
G1 X21.5269 Y7.2726
G1 X21.4591 Y7.064
G1 X21.358 Y6.8932
G1 X21.2236 Y6.7472
G1 X21.0617 Y6.6323
G1 X20.8896 Y6.5562
G1 X20.6849 Y6.5144
G1 X20.4864 Y6.5166
G1 X20.3024 Y6.5562
G1 X20.1303 Y6.6323
G1 X19.9529 Y6.7612
G1 X19.8218 Y6.9101
G1 X19.7281 Y7.0733
G1 X19.6695 Y7.2521
G1 X19.6466 Y7.4493
G1 X19.646 Y8.2597
G1 X19.6695 Y8.4674
G1 X19.7281 Y8.6461
G1 X19.8341 Y8.8263
G1 X19.9685 Y8.9723
G1 X20.1216 Y9.0828
G1 X20.246 Y9.1368
G1 X20.246 Y9.715
G1 X12.9654 Y16.9956
G1 X12.9169 Y17.0571
G1 X12.872 Y17.1653
G1 X12.8682 Y38.0756
G1 X12.8937 Y38.1598
G1 X12.9654 Y38.2645
G1 X20.1467 Y45.4458
G1 X20.2695 Y45.525
G1 X20.3942 Y45.5483
G1 X23.622 Y45.5483
G1 X23.6998 Y45.5392
G1 X23.8081 Y45.4944
G1 X23.9072 Y45.4006
G1 X23.9667 Y45.2569
G1 X23.972 Y44.4751
G1 X24.0964 Y44.4211
G1 X24.2496 Y44.3106
G1 X24.384 Y44.1645
G1 X24.4899 Y43.9844
G1 X24.5485 Y43.8056
G1 X24.572 Y43.598
G1 X24.572 Y42.798
G04 P0 ( dwell for no time -- G64 should not smooth over this point )
G0 Z5
(Block-name: block)
(Block-expand: 0)
(Block-enable: 1)

G0 X27.112 Y42.798
G01 F300.00000
G1 Z-0.05
G04 P0 ( dwell for no time -- G64 should not smooth over this point )
G01 F600.00000
G1 X27.112 Y42.798
G1 X27.112 Y43.598
G1 X27.0913 Y43.7955
G1 X27.0251 Y43.9937
G1 X26.924 Y44.1645
G1 X26.7896 Y44.3106
G1 X26.6364 Y44.4211
G1 X26.512 Y44.4751
G1 X26.512 Y45.1983
G1 X26.4812 Y45.3411
G1 X26.4095 Y45.4458
G1 X25.4052 Y46.4501
G1 X25.3005 Y46.5218
G1 X25.1577 Y46.5526
G1 X19.8813 Y46.5435
G1 X19.7731 Y46.4987
G1 X19.7116 Y46.4501
G1 X11.965 Y38.7035
G1 X11.9165 Y38.642
G1 X11.8716 Y38.5338
G1 X11.8678 Y15.6449
G1 X11.8933 Y15.5607
G1 X11.965 Y15.456
G1 X17.706 Y9.715
G1 X17.706 Y9.1368
G1 X17.5816 Y9.0828
G1 X17.4285 Y8.9723
G1 X17.294 Y8.8263
G1 X17.1881 Y8.6461
G1 X17.1295 Y8.4674
G1 X17.106 Y8.2597
G1 X17.106 Y7.4597
G1 X17.1251 Y7.2726
G1 X17.1844 Y7.0831
G1 X17.294 Y6.8932
G1 X17.4203 Y6.7537
G1 X17.5722 Y6.6427
G1 X17.7726 Y6.5535
G1 X17.9672 Y6.5144
G1 X18.1656 Y6.5166
G1 X18.3496 Y6.5562
G1 X18.5398 Y6.6427
G1 X18.6917 Y6.7537
G1 X18.8303 Y6.9101
G1 X18.9239 Y7.0733
G1 X18.9869 Y7.2726
G1 X19.006 Y7.4597
G1 X19.006 Y8.2597
G1 X18.9825 Y8.4674
G1 X18.9239 Y8.6461
G1 X18.818 Y8.8263
G1 X18.6836 Y8.9723
G1 X18.5304 Y9.0828
G1 X18.406 Y9.1368
G1 X18.4055 Y9.8698
G1 X18.3969 Y9.9378
G1 X18.3521 Y10.0461
G1 X12.5625 Y15.8485
G1 X12.5625 Y38.311
G1 X20.1041 Y45.8526
G1 X25.0128 Y45.8526
G1 X25.812 Y45.0533
G1 X25.812 Y44.4751
G1 X25.6876 Y44.4211
G1 X25.5345 Y44.3106
G1 X25.4 Y44.1645
G1 X25.2904 Y43.9746
G1 X25.2311 Y43.7852
G1 X25.212 Y43.598
G1 X25.2126 Y42.7876
G1 X25.2328 Y42.6005
G1 X25.2904 Y42.4214
G1 X25.3935 Y42.2396
G1 X25.5345 Y42.0854
G1 X25.6963 Y41.9705
G1 X25.8685 Y41.8945
G1 X26.0732 Y41.8527
G1 X26.2613 Y41.8532
G1 X26.4556 Y41.8945
G1 X26.6277 Y41.9705
G1 X26.7896 Y42.0854
G1 X26.9306 Y42.2396
G1 X27.0251 Y42.4023
G1 X27.0885 Y42.5904
G1 X27.112 Y42.798
G04 P0 ( dwell for no time -- G64 should not smooth over this point )
G0 Z5
(Block-name: block)
(Block-expand: 0)
(Block-enable: 1)

G0 X29.652 Y42.798
G01 F300.00000
G1 Z-0.05
G04 P0 ( dwell for no time -- G64 should not smooth over this point )
G01 F600.00000
G1 X29.652 Y42.798
G1 X29.6285 Y42.5904
G1 X29.5651 Y42.4023
G1 X29.4706 Y42.2396
G1 X29.3296 Y42.0854
G1 X29.1677 Y41.9705
G1 X28.9956 Y41.8945
G1 X28.7908 Y41.8527
G1 X28.6027 Y41.8532
G1 X28.4085 Y41.8945
G1 X28.2363 Y41.9705
G1 X28.0745 Y42.0854
G1 X27.9334 Y42.2396
G1 X27.8304 Y42.4214
G1 X27.7755 Y42.5904
G1 X27.7526 Y42.7876
G1 X27.752 Y43.598
G1 X27.7711 Y43.7852
G1 X27.8341 Y43.9844
G1 X27.94 Y44.1645
G1 X28.0745 Y44.3106
G1 X28.2276 Y44.4211
G1 X28.352 Y44.4751
G1 X28.352 Y45.0533
G1 X26.5509 Y46.8545
G1 X19.6535 Y46.8545
G1 X11.5564 Y38.7574
G1 X11.5564 Y14.3146
G1 X15.7635 Y10.1075
G1 X15.8352 Y10.0028
G1 X15.866 Y9.86
G1 X15.866 Y9.1368
G1 X15.9904 Y9.0828
G1 X16.1436 Y8.9723
G1 X16.278 Y8.8263
G1 X16.3791 Y8.6555
G1 X16.4453 Y8.4572
G1 X16.466 Y8.2597
G1 X16.466 Y7.4597
G1 X16.4453 Y7.2622
G1 X16.3791 Y7.064
G1 X16.2846 Y6.9013
G1 X16.1436 Y6.7472
G1 X15.9817 Y6.6323
G1 X15.8096 Y6.5562
G1 X15.6049 Y6.5144
G1 X15.4064 Y6.5166
G1 X15.2127 Y6.56
G1 X15.0503 Y6.6323
G1 X14.8885 Y6.7472
G1 X14.7474 Y6.9013
G1 X14.6444 Y7.0831
G1 X14.5868 Y7.2622
G1 X14.566 Y7.4597
G1 X14.566 Y8.2597
G1 X14.5868 Y8.4572
G1 X14.6529 Y8.6555
G1 X14.754 Y8.8263
G1 X14.8885 Y8.9723
G1 X15.0416 Y9.0828
G1 X15.166 Y9.1368
G1 X15.166 Y9.715
G1 X10.9589 Y13.9221
G1 X10.8872 Y14.0268
G1 X10.8617 Y14.111
G1 X10.8564 Y38.9024
G1 X10.8798 Y39.0271
G1 X10.9589 Y39.1499
G1 X19.261 Y47.452
G1 X19.3225 Y47.5006
G1 X19.4307 Y47.5454
G1 X26.6958 Y47.5545
G1 X26.8386 Y47.5237
G1 X26.9433 Y47.452
G1 X28.9981 Y45.3843
G1 X29.0287 Y45.323
G1 X29.0515 Y45.2081
G1 X29.052 Y44.4751
G1 X29.1764 Y44.4211
G1 X29.3296 Y44.3106
G1 X29.464 Y44.1645
G1 X29.5699 Y43.9844
G1 X29.6285 Y43.8056
G1 X29.652 Y43.598
G1 X29.652 Y42.798
G04 P0 ( dwell for no time -- G64 should not smooth over this point )
G0 Z5
(Block-name: block)
(Block-expand: 0)
(Block-enable: 1)

G0 X28.255 Y39.877
G01 F300.00000
G1 Z-0.05
G04 P0 ( dwell for no time -- G64 should not smooth over this point )
G01 F600.00000
G1 X28.255 Y39.877
G1 X28.255 Y40.677
G1 X28.2315 Y40.8846
G1 X28.1729 Y41.0634
G1 X28.0793 Y41.2266
G1 X27.9326 Y41.3896
G1 X27.7707 Y41.5045
G1 X27.5986 Y41.5805
G1 X27.3938 Y41.6224
G1 X27.1954 Y41.6202
G1 X27.0115 Y41.5805
G1 X26.83 Y41.4997
G1 X26.6775 Y41.3896
G1 X26.5365 Y41.2354
G1 X26.4371 Y41.0634
G1 X26.3741 Y40.8642
G1 X26.355 Y40.677
G1 X26.3556 Y39.8666
G1 X26.3785 Y39.6694
G1 X26.4371 Y39.4906
G1 X26.5365 Y39.3186
G1 X26.6775 Y39.1644
G1 X26.83 Y39.0543
G1 X27.0017 Y38.9772
G1 X27.1954 Y38.9338
G1 X27.4147 Y38.9338
G1 X27.5986 Y38.9735
G1 X27.7707 Y39.0495
G1 X27.9326 Y39.1644
G1 X28.0793 Y39.3274
G1 X28.1729 Y39.4906
G1 X28.2315 Y39.6694
G1 X28.255 Y39.877
G04 P0 ( dwell for no time -- G64 should not smooth over this point )
G0 Z5
(Block-name: block)
(Block-expand: 0)
(Block-enable: 1)

G0 X30.795 Y39.877
G01 F300.00000
G1 Z-0.05
G04 P0 ( dwell for no time -- G64 should not smooth over this point )
G01 F600.00000
G1 X30.795 Y39.877
G1 X30.795 Y40.677
G1 X30.7743 Y40.8745
G1 X30.7166 Y41.0536
G1 X30.6193 Y41.2266
G1 X30.4726 Y41.3896
G1 X30.3107 Y41.5045
G1 X30.1386 Y41.5805
G1 X29.9338 Y41.6224
G1 X29.7354 Y41.6202
G1 X29.5515 Y41.5805
G1 X29.3612 Y41.494
G1 X29.202 Y41.3756
G1 X29.0765 Y41.2354
G1 X28.9771 Y41.0634
G1 X28.9141 Y40.8642
G1 X28.895 Y40.677
G1 X28.8956 Y39.8666
G1 X28.9185 Y39.6694
G1 X28.9771 Y39.4906
G1 X29.0765 Y39.3186
G1 X29.2175 Y39.1644
G1 X29.37 Y39.0543
G1 X29.5417 Y38.9772
G1 X29.7354 Y38.9338
G1 X29.9547 Y38.9338
G1 X30.1386 Y38.9735
G1 X30.3107 Y39.0495
G1 X30.4726 Y39.1644
G1 X30.6193 Y39.3274
G1 X30.7166 Y39.5004
G1 X30.7715 Y39.6694
G1 X30.795 Y39.877
G04 P0 ( dwell for no time -- G64 should not smooth over this point )
G0 Z5
(Block-name: block)
(Block-expand: 0)
(Block-enable: 1)

G0 X6.306 Y7.4597
G01 F300.00000
G1 Z-0.05
G04 P0 ( dwell for no time -- G64 should not smooth over this point )
G01 F600.00000
G1 X6.306 Y7.4597
G1 X6.2825 Y7.2521
G1 X6.2239 Y7.0733
G1 X6.1303 Y6.9101
G1 X5.9917 Y6.7537
G1 X5.8217 Y6.6323
G1 X5.6496 Y6.5562
G1 X5.4656 Y6.5166
G1 X5.2464 Y6.5166
G1 X5.0624 Y6.5562
G1 X4.8903 Y6.6323
G1 X4.7285 Y6.7472
G1 X4.594 Y6.8932
G1 X4.4882 Y7.0733
G1 X4.4295 Y7.2521
G1 X4.4066 Y7.4493
G1 X4.406 Y8.2597
G1 X4.4251 Y8.4469
G1 X4.4882 Y8.6461
G1 X4.594 Y8.8263
G1 X4.7203 Y8.9657
G1 X4.8903 Y9.0872
G1 X5.0624 Y9.1632
G1 X5.2464 Y9.2029
G1 X5.4449 Y9.2051
G1 X5.6496 Y9.1632
G1 X5.8217 Y9.0872
G1 X5.9836 Y8.9723
G1 X6.1303 Y8.8094
G1 X6.2239 Y8.6461
G1 X6.2825 Y8.4674
G1 X6.306 Y8.2597
G1 X6.306 Y7.4597
G04 P0 ( dwell for no time -- G64 should not smooth over this point )
G0 Z5
(Block-name: block)
(Block-expand: 0)
(Block-enable: 1)

G0 X8.846 Y7.4597
G01 F300.00000
G1 Z-0.05
G04 P0 ( dwell for no time -- G64 should not smooth over this point )
G01 F600.00000
G1 X8.846 Y7.4597
G1 X8.8225 Y7.2521
G1 X8.7639 Y7.0733
G1 X8.6703 Y6.9101
G1 X8.5317 Y6.7537
G1 X8.3617 Y6.6323
G1 X8.1896 Y6.5562
G1 X8.0057 Y6.5166
G1 X7.7864 Y6.5166
G1 X7.6025 Y6.5562
G1 X7.4303 Y6.6323
G1 X7.2685 Y6.7472
G1 X7.1341 Y6.8932
G1 X7.0281 Y7.0733
G1 X6.9695 Y7.2521
G1 X6.9466 Y7.4493
G1 X6.946 Y8.2597
G1 X6.9651 Y8.4469
G1 X7.0281 Y8.6461
G1 X7.1341 Y8.8263
G1 X7.2603 Y8.9657
G1 X7.4303 Y9.0872
G1 X7.6025 Y9.1632
G1 X7.7864 Y9.2029
G1 X7.9849 Y9.2051
G1 X8.1896 Y9.1632
G1 X8.3617 Y9.0872
G1 X8.5235 Y8.9723
G1 X8.6703 Y8.8094
G1 X8.7639 Y8.6461
G1 X8.8225 Y8.4674
G1 X8.846 Y8.2597
G1 X8.846 Y7.4597
G04 P0 ( dwell for no time -- G64 should not smooth over this point )
G0 Z5
(Block-name: block)
(Block-expand: 0)
(Block-enable: 1)

G0 X11.386 Y7.4597
G01 F300.00000
G1 Z-0.05
G04 P0 ( dwell for no time -- G64 should not smooth over this point )
G01 F600.00000
G1 X11.386 Y7.4597
G1 X11.3625 Y7.2521
G1 X11.2991 Y7.064
G1 X11.2103 Y6.9101
G1 X11.0791 Y6.7612
G1 X10.9017 Y6.6323
G1 X10.7296 Y6.5562
G1 X10.5456 Y6.5166
G1 X10.3264 Y6.5166
G1 X10.1424 Y6.5562
G1 X9.9703 Y6.6323
G1 X9.8085 Y6.7472
G1 X9.6674 Y6.9013
G1 X9.5729 Y7.064
G1 X9.5068 Y7.2622
G1 X9.4866 Y7.4493
G1 X9.486 Y8.2597
G1 X9.5051 Y8.4469
G1 X9.5644 Y8.6364
G1 X9.6674 Y8.8181
G1 X9.7929 Y8.9583
G1 X9.9522 Y9.0768
G1 X10.1424 Y9.1632
G1 X10.3264 Y9.2029
G1 X10.5249 Y9.2051
G1 X10.7296 Y9.1632
G1 X10.9017 Y9.0872
G1 X11.0636 Y8.9723
G1 X11.2103 Y8.8094
G1 X11.3076 Y8.6364
G1 X11.3653 Y8.4572
G1 X11.386 Y8.2597
G1 X11.386 Y7.4597
G04 P0 ( dwell for no time -- G64 should not smooth over this point )
G0 Z5
(Block-name: block)
(Block-expand: 0)
(Block-enable: 1)

G0 X13.926 Y7.4597
G01 F300.00000
G1 Z-0.05
G04 P0 ( dwell for no time -- G64 should not smooth over this point )
G01 F600.00000
G1 X13.926 Y7.4597
G1 X13.9025 Y7.2521
G1 X13.8391 Y7.064
G1 X13.7503 Y6.9101
G1 X13.6117 Y6.7537
G1 X13.4417 Y6.6323
G1 X13.2696 Y6.5562
G1 X13.0857 Y6.5166
G1 X12.8664 Y6.5166
G1 X12.6825 Y6.5562
G1 X12.5103 Y6.6323
G1 X12.3485 Y6.7472
G1 X12.214 Y6.8932
G1 X12.1129 Y7.064
G1 X12.0468 Y7.2622
G1 X12.0266 Y7.4493
G1 X12.026 Y8.2597
G1 X12.0451 Y8.4469
G1 X12.1044 Y8.6364
G1 X12.2074 Y8.8181
G1 X12.3329 Y8.9583
G1 X12.4922 Y9.0768
G1 X12.6825 Y9.1632
G1 X12.8664 Y9.2029
G1 X13.0649 Y9.2051
G1 X13.2696 Y9.1632
G1 X13.4417 Y9.0872
G1 X13.6035 Y8.9723
G1 X13.7503 Y8.8094
G1 X13.8476 Y8.6364
G1 X13.9053 Y8.4572
G1 X13.926 Y8.2597
G1 X13.926 Y7.4597
G04 P0 ( dwell for no time -- G64 should not smooth over this point )
G0 Z5
(Block-name: block)
(Block-expand: 0)
(Block-enable: 1)

G0 X24.086 Y7.4597
G01 F300.00000
G1 Z-0.05
G04 P0 ( dwell for no time -- G64 should not smooth over this point )
G01 F600.00000
G1 X24.086 Y7.4597
G1 X24.0669 Y7.2726
G1 X24.0076 Y7.0831
G1 X23.9046 Y6.9013
G1 X23.7636 Y6.7472
G1 X23.6017 Y6.6323
G1 X23.4394 Y6.56
G1 X23.2249 Y6.5144
G1 X23.0264 Y6.5166
G1 X22.8526 Y6.5535
G1 X22.6703 Y6.6323
G1 X22.4929 Y6.7612
G1 X22.3674 Y6.9013
G1 X22.2729 Y7.064
G1 X22.2068 Y7.2622
G1 X22.186 Y7.4597
G1 X22.1866 Y8.2702
G1 X22.2068 Y8.4572
G1 X22.2644 Y8.6364
G1 X22.3674 Y8.8181
G1 X22.5085 Y8.9723
G1 X22.6616 Y9.0828
G1 X22.786 Y9.1368
G1 X22.786 Y9.715
G1 X14.0042 Y18.4968
G1 X13.9326 Y18.6015
G1 X13.9022 Y18.7345
G1 X13.9108 Y36.4455
G1 X13.9557 Y36.5537
G1 X14.0042 Y36.6152
G1 X20.1367 Y42.7477
G1 X20.1326 Y43.6085
G1 X20.1528 Y43.7955
G1 X20.2189 Y43.9937
G1 X20.32 Y44.1645
G1 X20.4545 Y44.3106
G1 X20.5982 Y44.415
G1 X20.7787 Y44.4978
G1 X20.9827 Y44.5428
G1 X21.1813 Y44.5428
G1 X21.3655 Y44.5042
G1 X21.5658 Y44.415
G1 X21.7096 Y44.3106
G1 X21.844 Y44.1645
G1 X21.9536 Y43.9746
G1 X22.0113 Y43.7955
G1 X22.0314 Y43.6085
G1 X22.0314 Y42.7876
G1 X22.0113 Y42.6005
G1 X21.9536 Y42.4214
G1 X21.8506 Y42.2396
G1 X21.7251 Y42.0994
G1 X21.5658 Y41.981
G1 X21.3756 Y41.8945
G1 X21.1917 Y41.8548
G1 X20.9932 Y41.8527
G1 X20.7885 Y41.8945
G1 X20.6163 Y41.9705
G1 X20.4602 Y42.0813
G1 X14.6017 Y36.2227
G1 X14.6017 Y18.8893
G1 X23.3901 Y10.1002
G1 X23.4552 Y10.0028
G1 X23.4807 Y9.9186
G1 X23.486 Y9.1368
G1 X23.6104 Y9.0828
G1 X23.7636 Y8.9723
G1 X23.898 Y8.8263
G1 X23.9991 Y8.6555
G1 X24.0653 Y8.4572
G1 X24.086 Y8.2597
G1 X24.086 Y7.4597
G04 P0 ( dwell for no time -- G64 should not smooth over this point )
G0 Z5
(Block-name: block)
(Block-expand: 0)
(Block-enable: 1)

G0 X26.626 Y7.4597
G01 F300.00000
G1 Z-0.05
G04 P0 ( dwell for no time -- G64 should not smooth over this point )
G01 F600.00000
G1 X26.626 Y7.4597
G1 X26.6053 Y7.2622
G1 X26.5476 Y7.0831
G1 X26.4446 Y6.9013
G1 X26.3036 Y6.7472
G1 X26.1417 Y6.6323
G1 X25.9696 Y6.5562
G1 X25.7649 Y6.5144
G1 X25.5664 Y6.5166
G1 X25.3824 Y6.5562
G1 X25.1922 Y6.6427
G1 X25.0403 Y6.7537
G1 X24.9141 Y6.8932
G1 X24.8082 Y7.0733
G1 X24.7451 Y7.2726
G1 X24.726 Y7.4597
G1 X24.726 Y8.2597
G1 X24.7451 Y8.4469
G1 X24.8044 Y8.6364
G1 X24.9141 Y8.8263
G1 X25.0485 Y8.9723
G1 X25.2016 Y9.0828
G1 X25.326 Y9.1368
G1 X25.326 Y9.715
G1 X20.8345 Y14.2065
G1 X20.786 Y14.268
G1 X20.7411 Y14.3762
G1 X20.732 Y26.681
G1 X20.6076 Y26.7349
G1 X20.4463 Y26.852
G1 X20.3135 Y26.9996
G1 X20.2104 Y27.1814
G1 X20.1528 Y27.3605
G1 X20.1326 Y27.5476
G1 X20.132 Y28.358
G1 X20.1555 Y28.5656
G1 X20.2189 Y28.7537
G1 X20.3135 Y28.9164
G1 X20.4389 Y29.0566
G1 X20.5982 Y29.175
G1 X20.7986 Y29.2642
G1 X20.9827 Y29.3028
G1 X21.1917 Y29.3012
G1 X21.3854 Y29.2578
G1 X21.5658 Y29.175
G1 X21.7096 Y29.0706
G1 X21.8506 Y28.9164
G1 X21.9451 Y28.7537
G1 X22.0113 Y28.5555
G1 X22.032 Y28.358
G1 X22.0314 Y27.5476
G1 X22.0113 Y27.3605
G1 X21.9536 Y27.1814
G1 X21.8506 Y26.9996
G1 X21.7177 Y26.852
G1 X21.5564 Y26.7349
G1 X21.432 Y26.681
G1 X21.432 Y14.599
G1 X25.9612 Y10.0623
G1 X26.0027 Y9.9847
G1 X26.0255 Y9.8698
G1 X26.026 Y9.1368
G1 X26.1504 Y9.0828
G1 X26.3036 Y8.9723
G1 X26.438 Y8.8263
G1 X26.5391 Y8.6555
G1 X26.6053 Y8.4572
G1 X26.626 Y8.2597
G1 X26.626 Y7.4597
G04 P0 ( dwell for no time -- G64 should not smooth over this point )
G0 Z5
(Block-name: block)
(Block-expand: 0)
(Block-enable: 1)

G0 X29.166 Y7.4597
G01 F300.00000
G1 Z-0.05
G04 P0 ( dwell for no time -- G64 should not smooth over this point )
G01 F600.00000
G1 X29.166 Y7.4597
G1 X29.1425 Y7.2521
G1 X29.0839 Y7.0733
G1 X28.9903 Y6.9101
G1 X28.8435 Y6.7472
G1 X28.6817 Y6.6323
G1 X28.5096 Y6.5562
G1 X28.3049 Y6.5144
G1 X28.1064 Y6.5166
G1 X27.9225 Y6.5562
G1 X27.7322 Y6.6427
G1 X27.5803 Y6.7537
G1 X27.4541 Y6.8932
G1 X27.3482 Y7.0733
G1 X27.2851 Y7.2726
G1 X27.266 Y7.4597
G1 X27.266 Y8.2597
G1 X27.2851 Y8.4469
G1 X27.3444 Y8.6364
G1 X27.4541 Y8.8263
G1 X27.5885 Y8.9723
G1 X27.7416 Y9.0828
G1 X27.866 Y9.1368
G1 X27.866 Y9.715
G1 X23.3745 Y14.2065
G1 X23.326 Y14.268
G1 X23.2811 Y14.3762
G1 X23.272 Y26.681
G1 X23.1476 Y26.7349
G1 X22.979 Y26.8594
G1 X22.8478 Y27.0084
G1 X22.7504 Y27.1814
G1 X22.6955 Y27.3504
G1 X22.6726 Y27.5476
G1 X22.672 Y28.358
G1 X22.6955 Y28.5656
G1 X22.7541 Y28.7444
G1 X22.8535 Y28.9164
G1 X22.979 Y29.0566
G1 X23.1382 Y29.175
G1 X23.3386 Y29.2642
G1 X23.5227 Y29.3028
G1 X23.7317 Y29.3012
G1 X23.9254 Y29.2578
G1 X24.097 Y29.1807
G1 X24.2496 Y29.0706
G1 X24.3906 Y28.9164
G1 X24.4899 Y28.7444
G1 X24.5513 Y28.5555
G1 X24.572 Y28.358
G1 X24.5714 Y27.5476
G1 X24.5513 Y27.3605
G1 X24.4936 Y27.1814
G1 X24.3906 Y26.9996
G1 X24.2651 Y26.8594
G1 X24.0964 Y26.7349
G1 X23.972 Y26.681
G1 X23.972 Y14.599
G1 X28.5012 Y10.0623
G1 X28.5427 Y9.9847
G1 X28.5655 Y9.8698
G1 X28.566 Y9.1368
G1 X28.6904 Y9.0828
G1 X28.8435 Y8.9723
G1 X28.978 Y8.8263
G1 X29.0791 Y8.6555
G1 X29.1453 Y8.4572
G1 X29.166 Y8.2597
G1 X29.166 Y7.4597
G04 P0 ( dwell for no time -- G64 should not smooth over this point )
G0 Z5
(Block-name: block)
(Block-expand: 0)
(Block-enable: 1)

G0 X33.226 Y7.4597
G01 F300.00000
G1 Z-0.05
G04 P0 ( dwell for no time -- G64 should not smooth over this point )
G01 F600.00000
G1 X33.226 Y7.4597
G1 X33.2026 Y7.2521
G1 X33.1439 Y7.0733
G1 X33.0503 Y6.9101
G1 X32.9035 Y6.7472
G1 X32.7417 Y6.6323
G1 X32.5696 Y6.5562
G1 X32.3649 Y6.5144
G1 X32.1664 Y6.5166
G1 X31.9824 Y6.5562
G1 X31.7922 Y6.6427
G1 X31.6403 Y6.7537
G1 X31.514 Y6.8932
G1 X31.4081 Y7.0733
G1 X31.3451 Y7.2726
G1 X31.326 Y7.4597
G1 X31.326 Y8.2597
G1 X31.3451 Y8.4469
G1 X31.4044 Y8.6364
G1 X31.514 Y8.8263
G1 X31.6485 Y8.9723
G1 X31.8016 Y9.0828
G1 X31.926 Y9.1368
G1 X31.926 Y9.715
G1 X25.9145 Y15.7265
G1 X25.8354 Y15.8493
G1 X25.812 Y15.974
G1 X25.812 Y26.681
G1 X25.6876 Y26.7349
G1 X25.5263 Y26.852
G1 X25.3935 Y26.9996
G1 X25.2904 Y27.1814
G1 X25.2328 Y27.3605
G1 X25.2126 Y27.5476
G1 X25.212 Y28.358
G1 X25.2355 Y28.5656
G1 X25.2989 Y28.7537
G1 X25.3935 Y28.9164
G1 X25.5345 Y29.0706
G1 X25.687 Y29.1807
G1 X25.8587 Y29.2578
G1 X26.0627 Y29.3028
G1 X26.2613 Y29.3028
G1 X26.4556 Y29.2615
G1 X26.6458 Y29.175
G1 X26.7896 Y29.0706
G1 X26.924 Y28.9245
G1 X27.0251 Y28.7537
G1 X27.0913 Y28.5555
G1 X27.112 Y28.358
G1 X27.1115 Y27.5476
G1 X27.0913 Y27.3605
G1 X27.0336 Y27.1814
G1 X26.9306 Y26.9996
G1 X26.7977 Y26.852
G1 X26.6364 Y26.7349
G1 X26.512 Y26.681
G1 X26.512 Y16.119
G1 X32.5612 Y10.0623
G1 X32.6027 Y9.9847
G1 X32.6255 Y9.8698
G1 X32.626 Y9.1368
G1 X32.7504 Y9.0828
G1 X32.9035 Y8.9723
G1 X33.038 Y8.8263
G1 X33.1391 Y8.6555
G1 X33.2052 Y8.4572
G1 X33.226 Y8.2597
G1 X33.226 Y7.4597
G04 P0 ( dwell for no time -- G64 should not smooth over this point )
G0 Z5
(Block-name: block)
(Block-expand: 0)
(Block-enable: 1)

G0 X35.766 Y7.4597
G01 F300.00000
G1 Z-0.05
G04 P0 ( dwell for no time -- G64 should not smooth over this point )
G01 F600.00000
G1 X35.766 Y7.4597
G1 X35.7426 Y7.2521
G1 X35.6839 Y7.0733
G1 X35.5903 Y6.9101
G1 X35.4435 Y6.7472
G1 X35.2817 Y6.6323
G1 X35.1096 Y6.5562
G1 X34.9049 Y6.5144
G1 X34.7064 Y6.5166
G1 X34.5224 Y6.5562
G1 X34.3322 Y6.6427
G1 X34.1804 Y6.7537
G1 X34.054 Y6.8932
G1 X33.9481 Y7.0733
G1 X33.8851 Y7.2726
G1 X33.866 Y7.4597
G1 X33.866 Y8.2597
G1 X33.8851 Y8.4469
G1 X33.9444 Y8.6364
G1 X34.054 Y8.8263
G1 X34.1885 Y8.9723
G1 X34.3416 Y9.0828
G1 X34.466 Y9.1368
G1 X34.466 Y9.715
G1 X28.4545 Y15.7265
G1 X28.3754 Y15.8493
G1 X28.352 Y15.974
G1 X28.352 Y26.681
G1 X28.2276 Y26.7349
G1 X28.0663 Y26.852
G1 X27.9334 Y26.9996
G1 X27.8304 Y27.1814
G1 X27.7755 Y27.3504
G1 X27.7526 Y27.5476
G1 X27.752 Y28.358
G1 X27.7755 Y28.5656
G1 X27.8341 Y28.7444
G1 X27.9334 Y28.9164
G1 X28.0745 Y29.0706
G1 X28.227 Y29.1807
G1 X28.3987 Y29.2578
G1 X28.6027 Y29.3028
G1 X28.8013 Y29.3028
G1 X28.9956 Y29.2615
G1 X29.1858 Y29.175
G1 X29.3296 Y29.0706
G1 X29.464 Y28.9245
G1 X29.5651 Y28.7537
G1 X29.6285 Y28.5656
G1 X29.652 Y28.358
G1 X29.6515 Y27.5476
G1 X29.6285 Y27.3504
G1 X29.5736 Y27.1814
G1 X29.4706 Y26.9996
G1 X29.3377 Y26.852
G1 X29.1764 Y26.7349
G1 X29.052 Y26.681
G1 X29.052 Y16.119
G1 X35.1012 Y10.0623
G1 X35.1427 Y9.9847
G1 X35.1655 Y9.8698
G1 X35.166 Y9.1368
G1 X35.2904 Y9.0828
G1 X35.4435 Y8.9723
G1 X35.578 Y8.8263
G1 X35.6791 Y8.6555
G1 X35.7452 Y8.4572
G1 X35.766 Y8.2597
G1 X35.766 Y7.4597
G04 P0 ( dwell for no time -- G64 should not smooth over this point )
G0 Z5
(Block-name: block)
(Block-expand: 0)
(Block-enable: 1)

G0 X38.306 Y7.4597
G01 F300.00000
G1 Z-0.05
G04 P0 ( dwell for no time -- G64 should not smooth over this point )
G01 F600.00000
G1 X38.306 Y7.4597
G1 X38.2852 Y7.2622
G1 X38.2276 Y7.0831
G1 X38.1303 Y6.9101
G1 X37.9991 Y6.7612
G1 X37.8217 Y6.6323
G1 X37.6496 Y6.5562
G1 X37.4449 Y6.5144
G1 X37.2464 Y6.5166
G1 X37.0624 Y6.5562
G1 X36.8903 Y6.6323
G1 X36.7285 Y6.7472
G1 X36.594 Y6.8932
G1 X36.4929 Y7.064
G1 X36.4251 Y7.2726
G1 X36.406 Y7.4597
G1 X36.406 Y8.2597
G1 X36.4295 Y8.4674
G1 X36.4929 Y8.6555
G1 X36.594 Y8.8263
G1 X36.7285 Y8.9723
G1 X36.8816 Y9.0828
G1 X37.006 Y9.1368
G1 X37.006 Y16.755
G1 X30.9945 Y22.7664
G1 X30.9154 Y22.8892
G1 X30.892 Y23.0139
G1 X30.892 Y26.681
G1 X30.7676 Y26.7349
G1 X30.6063 Y26.852
G1 X30.4734 Y26.9996
G1 X30.3704 Y27.1814
G1 X30.3155 Y27.3504
G1 X30.2926 Y27.5476
G1 X30.292 Y28.358
G1 X30.3155 Y28.5656
G1 X30.3741 Y28.7444
G1 X30.4734 Y28.9164
G1 X30.6145 Y29.0706
G1 X30.767 Y29.1807
G1 X30.9387 Y29.2578
G1 X31.1427 Y29.3028
G1 X31.3413 Y29.3028
G1 X31.5356 Y29.2615
G1 X31.7258 Y29.175
G1 X31.8851 Y29.0566
G1 X32.0106 Y28.9164
G1 X32.1136 Y28.7346
G1 X32.1729 Y28.5452
G1 X32.192 Y28.358
G1 X32.192 Y27.558
G1 X32.1685 Y27.3504
G1 X32.1099 Y27.1716
G1 X32.004 Y26.9915
G1 X31.8696 Y26.8454
G1 X31.7164 Y26.7349
G1 X31.592 Y26.681
G1 X31.592 Y23.1589
G1 X37.6035 Y17.1474
G1 X37.6827 Y17.0246
G1 X37.706 Y16.8999
G1 X37.706 Y9.1368
G1 X37.8304 Y9.0828
G1 X37.9991 Y8.9583
G1 X38.1246 Y8.8181
G1 X38.2276 Y8.6364
G1 X38.2852 Y8.4572
G1 X38.3055 Y8.2702
G1 X38.306 Y7.4597
G04 P0 ( dwell for no time -- G64 should not smooth over this point )
G0 Z5
(Block-name: block)
(Block-expand: 0)
(Block-enable: 1)

G0 X40.846 Y7.4597
G01 F300.00000
G1 Z-0.05
G04 P0 ( dwell for no time -- G64 should not smooth over this point )
G01 F600.00000
G1 X40.846 Y7.4597
G1 X40.8225 Y7.2521
G1 X40.7639 Y7.0733
G1 X40.6703 Y6.9101
G1 X40.5391 Y6.7612
G1 X40.3617 Y6.6323
G1 X40.1896 Y6.5562
G1 X39.9849 Y6.5144
G1 X39.7864 Y6.5166
G1 X39.6024 Y6.5562
G1 X39.4304 Y6.6323
G1 X39.2685 Y6.7472
G1 X39.134 Y6.8932
G1 X39.0329 Y7.064
G1 X38.9651 Y7.2726
G1 X38.946 Y7.4597
G1 X38.946 Y8.2597
G1 X38.9695 Y8.4674
G1 X39.0329 Y8.6555
G1 X39.134 Y8.8263
G1 X39.2685 Y8.9723
G1 X39.4216 Y9.0828
G1 X39.546 Y9.1368
G1 X39.546 Y15.8007
G1 X33.5345 Y21.8122
G1 X33.4554 Y21.935
G1 X33.432 Y22.0597
G1 X33.432 Y26.681
G1 X33.3076 Y26.7349
G1 X33.1463 Y26.852
G1 X33.0134 Y26.9996
G1 X32.9104 Y27.1814
G1 X32.8555 Y27.3504
G1 X32.8326 Y27.5476
G1 X32.832 Y28.358
G1 X32.8555 Y28.5656
G1 X32.9141 Y28.7444
G1 X33.0134 Y28.9164
G1 X33.1545 Y29.0706
G1 X33.307 Y29.1807
G1 X33.4787 Y29.2578
G1 X33.6827 Y29.3028
G1 X33.8813 Y29.3028
G1 X34.0853 Y29.2578
G1 X34.2658 Y29.175
G1 X34.4251 Y29.0566
G1 X34.5563 Y28.9076
G1 X34.6536 Y28.7346
G1 X34.7085 Y28.5656
G1 X34.7315 Y28.3685
G1 X34.7315 Y27.5476
G1 X34.7085 Y27.3504
G1 X34.6536 Y27.1814
G1 X34.5506 Y26.9996
G1 X34.4177 Y26.852
G1 X34.2564 Y26.7349
G1 X34.132 Y26.681
G1 X34.132 Y22.2047
G1 X40.1435 Y16.1932
G1 X40.2227 Y16.0704
G1 X40.246 Y15.9457
G1 X40.246 Y9.1368
G1 X40.3704 Y9.0828
G1 X40.5317 Y8.9657
G1 X40.6703 Y8.8094
G1 X40.7676 Y8.6364
G1 X40.8252 Y8.4572
G1 X40.8455 Y8.2702
G1 X40.846 Y7.4597
G04 P0 ( dwell for no time -- G64 should not smooth over this point )
G0 Z5
(Block-name: block)
(Block-expand: 0)
(Block-enable: 1)

G0 X43.386 Y7.4597
G01 F300.00000
G1 Z-0.05
G04 P0 ( dwell for no time -- G64 should not smooth over this point )
G01 F600.00000
G1 X43.386 Y7.4597
G1 X43.3625 Y7.2521
G1 X43.3039 Y7.0733
G1 X43.2103 Y6.9101
G1 X43.0791 Y6.7612
G1 X42.9017 Y6.6323
G1 X42.7296 Y6.5562
G1 X42.5249 Y6.5144
G1 X42.3264 Y6.5166
G1 X42.1424 Y6.5562
G1 X41.9704 Y6.6323
G1 X41.8085 Y6.7472
G1 X41.674 Y6.8932
G1 X41.5729 Y7.064
G1 X41.5051 Y7.2726
G1 X41.486 Y7.4597
G1 X41.486 Y8.2597
G1 X41.5095 Y8.4674
G1 X41.5729 Y8.6555
G1 X41.674 Y8.8263
G1 X41.8085 Y8.9723
G1 X41.9616 Y9.0828
G1 X42.086 Y9.1368
G1 X42.086 Y15.9718
G1 X36.0745 Y21.9833
G1 X35.9954 Y22.1061
G1 X35.972 Y22.2308
G1 X35.972 Y26.681
G1 X35.8476 Y26.7349
G1 X35.6863 Y26.852
G1 X35.5534 Y26.9996
G1 X35.4504 Y27.1814
G1 X35.3955 Y27.3504
G1 X35.3726 Y27.5476
G1 X35.372 Y28.358
G1 X35.3955 Y28.5656
G1 X35.4541 Y28.7444
G1 X35.5534 Y28.9164
G1 X35.6945 Y29.0706
G1 X35.847 Y29.1807
G1 X36.0187 Y29.2578
G1 X36.2227 Y29.3028
G1 X36.4213 Y29.3028
G1 X36.6156 Y29.2615
G1 X36.8058 Y29.175
G1 X36.9651 Y29.0566
G1 X37.0963 Y28.9076
G1 X37.1936 Y28.7346
G1 X37.2485 Y28.5656
G1 X37.2715 Y28.3685
G1 X37.2715 Y27.5476
G1 X37.2485 Y27.3504
G1 X37.1936 Y27.1814
G1 X37.0906 Y26.9996
G1 X36.9577 Y26.852
G1 X36.7964 Y26.7349
G1 X36.672 Y26.681
G1 X36.672 Y22.3758
G1 X42.6835 Y16.3643
G1 X42.7627 Y16.2415
G1 X42.786 Y16.1168
G1 X42.786 Y9.1368
G1 X42.9104 Y9.0828
G1 X43.0717 Y8.9657
G1 X43.2103 Y8.8094
G1 X43.3076 Y8.6364
G1 X43.3625 Y8.4674
G1 X43.3855 Y8.2702
G1 X43.386 Y7.4597
G04 P0 ( dwell for no time -- G64 should not smooth over this point )
G0 Z5
(Block-name: block)
(Block-expand: 0)
(Block-enable: 1)

G0 X45.926 Y7.4597
G01 F300.00000
G1 Z-0.05
G04 P0 ( dwell for no time -- G64 should not smooth over this point )
G01 F600.00000
G1 X45.926 Y7.4597
G1 X45.9025 Y7.2521
G1 X45.8439 Y7.0733
G1 X45.7503 Y6.9101
G1 X45.6191 Y6.7612
G1 X45.4417 Y6.6323
G1 X45.2696 Y6.5562
G1 X45.0649 Y6.5144
G1 X44.8664 Y6.5166
G1 X44.6824 Y6.5562
G1 X44.5104 Y6.6323
G1 X44.3485 Y6.7472
G1 X44.214 Y6.8932
G1 X44.1129 Y7.064
G1 X44.0451 Y7.2726
G1 X44.026 Y7.4597
G1 X44.026 Y8.2597
G1 X44.0495 Y8.4674
G1 X44.1129 Y8.6555
G1 X44.214 Y8.8263
G1 X44.3485 Y8.9723
G1 X44.5016 Y9.0828
G1 X44.626 Y9.1368
G1 X44.626 Y16.7689
G1 X38.6145 Y22.7804
G1 X38.5354 Y22.9032
G1 X38.512 Y23.0279
G1 X38.512 Y26.681
G1 X38.3876 Y26.7349
G1 X38.2263 Y26.852
G1 X38.0935 Y26.9996
G1 X37.9904 Y27.1814
G1 X37.9328 Y27.3605
G1 X37.9126 Y27.5476
G1 X37.912 Y28.358
G1 X37.9355 Y28.5656
G1 X37.9989 Y28.7537
G1 X38.0935 Y28.9164
G1 X38.2345 Y29.0706
G1 X38.387 Y29.1807
G1 X38.5587 Y29.2578
G1 X38.7627 Y29.3028
G1 X38.9613 Y29.3028
G1 X39.1556 Y29.2615
G1 X39.3458 Y29.175
G1 X39.5051 Y29.0566
G1 X39.6306 Y28.9164
G1 X39.7336 Y28.7346
G1 X39.7929 Y28.5452
G1 X39.812 Y28.358
G1 X39.812 Y27.558
G1 X39.7885 Y27.3504
G1 X39.7251 Y27.1623
G1 X39.624 Y26.9915
G1 X39.4896 Y26.8454
G1 X39.3364 Y26.7349
G1 X39.212 Y26.681
G1 X39.212 Y23.1729
G1 X45.2235 Y17.1614
G1 X45.3027 Y17.0386
G1 X45.326 Y16.9139
G1 X45.326 Y9.1368
G1 X45.4504 Y9.0828
G1 X45.6117 Y8.9657
G1 X45.7503 Y8.8094
G1 X45.8476 Y8.6364
G1 X45.9052 Y8.4572
G1 X45.9255 Y8.2702
G1 X45.926 Y7.4597
G04 P0 ( dwell for no time -- G64 should not smooth over this point )
G0 Z5
(Block-name: block)
(Block-expand: 0)
(Block-enable: 1)

G0 X51.006 Y7.4597
G01 F300.00000
G1 Z-0.05
G04 P0 ( dwell for no time -- G64 should not smooth over this point )
G01 F600.00000
G1 X51.006 Y7.4597
G1 X51.006 Y8.2597
G1 X50.9826 Y8.4674
G1 X50.9191 Y8.6555
G1 X50.818 Y8.8263
G1 X50.6835 Y8.9723
G1 X50.5304 Y9.0828
G1 X50.406 Y9.1368
G1 X50.4055 Y9.8698
G1 X50.3827 Y9.9847
G1 X50.3412 Y10.0623
G1 X46.832 Y13.579
G1 X46.832 Y26.681
G1 X46.9564 Y26.7349
G1 X47.1177 Y26.852
G1 X47.2506 Y26.9996
G1 X47.3536 Y27.1814
G1 X47.4085 Y27.3504
G1 X47.4314 Y27.5476
G1 X47.432 Y28.358
G1 X47.4085 Y28.5656
G1 X47.3451 Y28.7537
G1 X47.2506 Y28.9164
G1 X47.1096 Y29.0706
G1 X46.957 Y29.1807
G1 X46.7854 Y29.2578
G1 X46.5917 Y29.3012
G1 X46.3827 Y29.3028
G1 X46.1986 Y29.2642
G1 X45.9982 Y29.175
G1 X45.839 Y29.0566
G1 X45.7135 Y28.9164
G1 X45.6141 Y28.7444
G1 X45.5555 Y28.5656
G1 X45.532 Y28.358
G1 X45.5326 Y27.5476
G1 X45.5555 Y27.3504
G1 X45.6104 Y27.1814
G1 X45.7135 Y26.9996
G1 X45.8463 Y26.852
G1 X46.0076 Y26.7349
G1 X46.132 Y26.681
G1 X46.1411 Y13.3562
G1 X46.186 Y13.248
G1 X46.2345 Y13.1865
G1 X49.706 Y9.715
G1 X49.706 Y9.1368
G1 X49.5816 Y9.0828
G1 X49.4285 Y8.9723
G1 X49.294 Y8.8263
G1 X49.1844 Y8.6364
G1 X49.1251 Y8.4469
G1 X49.106 Y8.2597
G1 X49.106 Y7.4597
G1 X49.1251 Y7.2726
G1 X49.1881 Y7.0733
G1 X49.294 Y6.8932
G1 X49.4203 Y6.7537
G1 X49.5722 Y6.6427
G1 X49.7624 Y6.5562
G1 X49.9672 Y6.5144
G1 X50.1657 Y6.5166
G1 X50.3496 Y6.5562
G1 X50.5217 Y6.6323
G1 X50.6835 Y6.7472
G1 X50.8303 Y6.9101
G1 X50.9239 Y7.0733
G1 X50.9826 Y7.2521
G1 X51.006 Y7.4597
G04 P0 ( dwell for no time -- G64 should not smooth over this point )
G0 Z5
(Block-name: block)
(Block-expand: 0)
(Block-enable: 1)

G0 X52.0165 Y6.7803
G01 F300.00000
G1 Z-0.05
G04 P0 ( dwell for no time -- G64 should not smooth over this point )
G01 F600.00000
G1 X52.0165 Y6.7803
G1 X52.0074 Y13.4588
G1 X51.9626 Y13.567
G1 X51.914 Y13.6285
G1 X49.372 Y16.1705
G1 X49.372 Y26.681
G1 X49.4964 Y26.7349
G1 X49.6577 Y26.852
G1 X49.7906 Y26.9996
G1 X49.8936 Y27.1814
G1 X49.9485 Y27.3504
G1 X49.9715 Y27.5476
G1 X49.972 Y28.358
G1 X49.9485 Y28.5656
G1 X49.8851 Y28.7537
G1 X49.7906 Y28.9164
G1 X49.6496 Y29.0706
G1 X49.4877 Y29.1855
G1 X49.3156 Y29.2615
G1 X49.1213 Y29.3028
G1 X48.9227 Y29.3028
G1 X48.7187 Y29.2578
G1 X48.547 Y29.1807
G1 X48.3945 Y29.0706
G1 X48.26 Y28.9245
G1 X48.1504 Y28.7346
G1 X48.0911 Y28.5452
G1 X48.072 Y28.358
G1 X48.0726 Y27.5476
G1 X48.0955 Y27.3504
G1 X48.1504 Y27.1814
G1 X48.2535 Y26.9996
G1 X48.3863 Y26.852
G1 X48.5476 Y26.7349
G1 X48.672 Y26.681
G1 X48.6773 Y15.9669
G1 X48.7028 Y15.8827
G1 X48.7745 Y15.778
G1 X51.3165 Y13.236
G1 X51.3165 Y6.9253
G1 X50.6006 Y6.2094
G1 X47.866 Y6.2094
G1 X47.866 Y6.5827
G1 X47.9904 Y6.6367
G1 X48.1435 Y6.7472
G1 X48.278 Y6.8932
G1 X48.3839 Y7.0733
G1 X48.4425 Y7.2521
G1 X48.466 Y7.4597
G1 X48.4655 Y8.2702
G1 X48.4452 Y8.4572
G1 X48.3876 Y8.6364
G1 X48.2903 Y8.8094
G1 X48.1591 Y8.9583
G1 X47.9817 Y9.0872
G1 X47.8096 Y9.1632
G1 X47.6049 Y9.2051
G1 X47.4272 Y9.2051
G1 X47.2326 Y9.166
G1 X47.0504 Y9.0872
G1 X46.8729 Y8.9583
G1 X46.7417 Y8.8094
G1 X46.6529 Y8.6555
G1 X46.5868 Y8.4572
G1 X46.566 Y8.2597
G1 X46.566 Y7.4597
G1 X46.5851 Y7.2726
G1 X46.6481 Y7.0733
G1 X46.754 Y6.8932
G1 X46.8885 Y6.7472
G1 X47.0416 Y6.6367
G1 X47.166 Y6.5827
G1 X47.166 Y5.8594
G1 X47.1893 Y5.7347
G1 X47.2308 Y5.6571
G1 X47.3137 Y5.5743
G1 X47.3913 Y5.5327
G1 X47.5062 Y5.5099
G1 X50.8234 Y5.5185
G1 X50.9317 Y5.5634
G1 X50.9931 Y5.6119
G1 X51.914 Y6.5328
G1 X51.9857 Y6.6375
G1 X52.0165 Y6.7803
G04 P0 ( dwell for no time -- G64 should not smooth over this point )
G0 Z5
(Block-name: block)
(Block-expand: 0)
(Block-enable: 1)

G0 X42.352 Y27.558
G01 F300.00000
G1 Z-0.05
G04 P0 ( dwell for no time -- G64 should not smooth over this point )
G01 F600.00000
G1 X42.352 Y27.558
G1 X42.3285 Y27.3504
G1 X42.2699 Y27.1716
G1 X42.1763 Y27.0084
G1 X42.0377 Y26.852
G1 X41.8677 Y26.7305
G1 X41.6956 Y26.6545
G1 X41.5117 Y26.6148
G1 X41.3027 Y26.6132
G1 X41.0987 Y26.6583
G1 X40.9182 Y26.741
G1 X40.7745 Y26.8454
G1 X40.6335 Y26.9996
G1 X40.5341 Y27.1716
G1 X40.4755 Y27.3504
G1 X40.4526 Y27.5476
G1 X40.452 Y28.358
G1 X40.4711 Y28.5452
G1 X40.5341 Y28.7444
G1 X40.6335 Y28.9164
G1 X40.7745 Y29.0706
G1 X40.927 Y29.1807
G1 X41.0987 Y29.2578
G1 X41.3027 Y29.3028
G1 X41.5013 Y29.3028
G1 X41.6956 Y29.2615
G1 X41.8677 Y29.1855
G1 X42.0296 Y29.0706
G1 X42.1763 Y28.9076
G1 X42.2736 Y28.7346
G1 X42.3285 Y28.5656
G1 X42.352 Y28.358
G1 X42.352 Y27.558
G04 P0 ( dwell for no time -- G64 should not smooth over this point )
G0 Z5
(Block-name: block)
(Block-expand: 0)
(Block-enable: 1)

G0 X44.892 Y27.558
G01 F300.00000
G1 Z-0.05
G04 P0 ( dwell for no time -- G64 should not smooth over this point )
G01 F600.00000
G1 X44.892 Y27.558
G1 X44.8685 Y27.3504
G1 X44.8099 Y27.1716
G1 X44.7163 Y27.0084
G1 X44.5777 Y26.852
G1 X44.4077 Y26.7305
G1 X44.2356 Y26.6545
G1 X44.0517 Y26.6148
G1 X43.8427 Y26.6132
G1 X43.6387 Y26.6583
G1 X43.4582 Y26.741
G1 X43.3145 Y26.8454
G1 X43.1735 Y26.9996
G1 X43.0741 Y27.1716
G1 X43.0155 Y27.3504
G1 X42.9926 Y27.5476
G1 X42.992 Y28.358
G1 X43.0111 Y28.5452
G1 X43.0741 Y28.7444
G1 X43.1735 Y28.9164
G1 X43.3145 Y29.0706
G1 X43.467 Y29.1807
G1 X43.6387 Y29.2578
G1 X43.8427 Y29.3028
G1 X44.0413 Y29.3028
G1 X44.2356 Y29.2615
G1 X44.4077 Y29.1855
G1 X44.5696 Y29.0706
G1 X44.7163 Y28.9076
G1 X44.8136 Y28.7346
G1 X44.8685 Y28.5656
G1 X44.892 Y28.358
G1 X44.892 Y27.558
G04 P0 ( dwell for no time -- G64 should not smooth over this point )
G0 Z5
(Block-name: block)
(Block-expand: 0)
(Block-enable: 1)

G0 X38.669 Y39.877
G01 F300.00000
G1 Z-0.05
G04 P0 ( dwell for no time -- G64 should not smooth over this point )
G01 F600.00000
G1 X38.669 Y39.877
G1 X38.669 Y40.677
G1 X38.6499 Y40.8642
G1 X38.5869 Y41.0634
G1 X38.481 Y41.2435
G1 X38.3547 Y41.383
G1 X38.2028 Y41.494
G1 X38.0126 Y41.5805
G1 X37.8287 Y41.6202
G1 X37.6094 Y41.6202
G1 X37.4254 Y41.5805
G1 X37.2533 Y41.5045
G1 X37.0759 Y41.3756
G1 X36.9505 Y41.2354
G1 X36.8559 Y41.0727
G1 X36.7881 Y40.8642
G1 X36.769 Y40.627
G1 X36.0601 Y40.6217
G1 X35.9759 Y40.5962
G1 X35.8785 Y40.5311
G1 X30.6397 Y35.293
G1 X17.0391 Y35.293
G1 X17.0021 Y35.3997
G1 X16.8919 Y35.5896
G1 X16.7455 Y35.7531
G1 X16.5608 Y35.8899
G1 X16.3318 Y35.9919
G1 X16.1065 Y36.0375
G1 X15.8975 Y36.0375
G1 X15.6722 Y35.9919
G1 X15.4613 Y35.9004
G1 X15.2741 Y35.767
G1 X15.1121 Y35.5896
G1 X14.9971 Y35.3904
G1 X14.9244 Y35.1614
G1 X14.9026 Y34.9326
G1 X14.9288 Y34.7042
G1 X14.9971 Y34.4956
G1 X15.1064 Y34.3052
G1 X15.2741 Y34.119
G1 X15.4613 Y33.9856
G1 X15.6523 Y33.9006
G1 X15.8975 Y33.8485
G1 X16.1065 Y33.8485
G1 X16.3318 Y33.8941
G1 X16.5608 Y33.9961
G1 X16.7455 Y34.1329
G1 X16.8919 Y34.2964
G1 X17.0021 Y34.4863
G1 X17.0391 Y34.593
G1 X30.8625 Y34.6021
G1 X30.9708 Y34.647
G1 X31.0322 Y34.6955
G1 X36.2637 Y39.927
G1 X36.769 Y39.927
G1 X36.7925 Y39.6694
G1 X36.8511 Y39.4906
G1 X36.957 Y39.3105
G1 X37.0915 Y39.1644
G1 X37.244 Y39.0543
G1 X37.4254 Y38.9735
G1 X37.6302 Y38.9317
G1 X37.8287 Y38.9338
G1 X38.0126 Y38.9735
G1 X38.2028 Y39.06
G1 X38.3621 Y39.1784
G1 X38.4876 Y39.3186
G1 X38.5869 Y39.4906
G1 X38.6455 Y39.6694
G1 X38.669 Y39.877
G04 P0 ( dwell for no time -- G64 should not smooth over this point )
G0 Z5
(Block-name: block)
(Block-expand: 0)
(Block-enable: 1)

G0 X41.209 Y39.8745
G01 F300.00000
G1 Z-0.05
G04 P0 ( dwell for no time -- G64 should not smooth over this point )
G01 F600.00000
G1 X41.209 Y39.8745
G1 X41.209 Y40.6745
G1 X41.1899 Y40.8617
G1 X41.1221 Y41.0702
G1 X41.0276 Y41.2329
G1 X40.8947 Y41.3805
G1 X40.7428 Y41.4915
G1 X40.5526 Y41.578
G1 X40.3687 Y41.6176
G1 X40.1702 Y41.6198
G1 X39.9557 Y41.5742
G1 X39.784 Y41.4972
G1 X39.6159 Y41.3731
G1 X39.4905 Y41.2329
G1 X39.3959 Y41.0702
G1 X39.3281 Y40.8617
G1 X39.309 Y40.6745
G1 X39.3096 Y39.864
G1 X39.3325 Y39.6668
G1 X39.3874 Y39.4978
G1 X39.4905 Y39.3161
G1 X39.6315 Y39.1619
G1 X39.7846 Y39.0514
G1 X39.909 Y38.9974
G1 X39.909 Y38.4192
G1 X34.2428 Y32.753
G1 X17.102 Y32.753
G1 X17.102 Y33.403
G1 X17.0852 Y33.4586
G1 X17.0403 Y33.4954
G1 X15.002 Y33.503
G1 X14.9313 Y33.4737
G1 X14.902 Y33.403
G1 X14.9096 Y31.3647
G1 X14.9464 Y31.3199
G1 X15.002 Y31.303
G1 X17.0403 Y31.3106
G1 X17.0852 Y31.3475
G1 X17.102 Y31.403
G1 X17.102 Y32.053
G1 X34.3878 Y32.053
G1 X34.5125 Y32.0763
G1 X34.6353 Y32.1555
G1 X40.5131 Y38.034
G1 X40.5782 Y38.1314
G1 X40.6037 Y38.2156
G1 X40.609 Y38.9974
G1 X40.7334 Y39.0514
G1 X40.8866 Y39.1619
G1 X41.0276 Y39.3161
G1 X41.1269 Y39.4881
G1 X41.1855 Y39.6668
G1 X41.209 Y39.8745
G04 P0 ( dwell for no time -- G64 should not smooth over this point )
G0 Z5
(Block-name: block)
(Block-expand: 0)
(Block-enable: 1)

G0 X47.432 Y42.798
G01 F300.00000
G1 Z-0.05
G04 P0 ( dwell for no time -- G64 should not smooth over this point )
G01 F600.00000
G1 X47.432 Y42.798
G1 X47.432 Y43.598
G1 X47.4085 Y43.8056
G1 X47.3499 Y43.9844
G1 X47.2563 Y44.1476
G1 X47.1096 Y44.3106
G1 X46.957 Y44.4207
G1 X46.7655 Y44.5042
G1 X46.5813 Y44.5428
G1 X46.3827 Y44.5428
G1 X46.1787 Y44.4978
G1 X46.007 Y44.4207
G1 X45.8463 Y44.304
G1 X45.72 Y44.1645
G1 X45.6141 Y43.9844
G1 X45.5511 Y43.7852
G1 X45.532 Y43.598
G1 X45.5326 Y42.7876
G1 X45.5555 Y42.5904
G1 X45.6189 Y42.4023
G1 X45.7135 Y42.2396
G1 X45.8545 Y42.0854
G1 X45.9982 Y41.981
G1 X46.1787 Y41.8982
G1 X46.3827 Y41.8532
G1 X46.5917 Y41.8548
G1 X46.7756 Y41.8945
G1 X46.9477 Y41.9705
G1 X47.1096 Y42.0854
G1 X47.2563 Y42.2484
G1 X47.3499 Y42.4116
G1 X47.4085 Y42.5904
G1 X47.432 Y42.798
G04 P0 ( dwell for no time -- G64 should not smooth over this point )
G0 Z5
(Block-name: block)
(Block-expand: 0)
(Block-enable: 1)

G0 X49.972 Y42.798
G01 F300.00000
G1 Z-0.05
G04 P0 ( dwell for no time -- G64 should not smooth over this point )
G01 F600.00000
G1 X49.972 Y42.798
G1 X49.972 Y43.598
G1 X49.9485 Y43.8056
G1 X49.8899 Y43.9844
G1 X49.7963 Y44.1476
G1 X49.6496 Y44.3106
G1 X49.497 Y44.4207
G1 X49.3055 Y44.5042
G1 X49.1213 Y44.5428
G1 X48.9227 Y44.5428
G1 X48.7187 Y44.4978
G1 X48.547 Y44.4207
G1 X48.3863 Y44.304
G1 X48.26 Y44.1645
G1 X48.1541 Y43.9844
G1 X48.0911 Y43.7852
G1 X48.072 Y43.598
G1 X48.0726 Y42.7876
G1 X48.0955 Y42.5904
G1 X48.1589 Y42.4023
G1 X48.2535 Y42.2396
G1 X48.3945 Y42.0854
G1 X48.5382 Y41.981
G1 X48.7187 Y41.8982
G1 X48.9227 Y41.8532
G1 X49.1316 Y41.8548
G1 X49.3156 Y41.8945
G1 X49.4877 Y41.9705
G1 X49.6496 Y42.0854
G1 X49.7963 Y42.2484
G1 X49.8936 Y42.4214
G1 X49.9485 Y42.5904
G1 X49.972 Y42.798
G04 P0 ( dwell for no time -- G64 should not smooth over this point )
G0 Z5
(Block-name: block)
(Block-expand: 0)
(Block-enable: 1)

G0 X74.987 Y29.228
G01 F300.00000
G1 Z-0.05
G04 P0 ( dwell for no time -- G64 should not smooth over this point )
G01 F600.00000
G1 X74.987 Y29.228
G1 X74.9581 Y28.9684
G1 X74.8833 Y28.7399
G1 X74.7578 Y28.5227
G1 X74.5974 Y28.3436
G1 X74.3958 Y28.1945
G1 X74.1578 Y28.0868
G1 X73.9228 Y28.0362
G1 X73.672 Y28.034
G1 X73.4064 Y28.0905
G1 X73.1782 Y28.1945
G1 X72.9922 Y28.3297
G1 X72.8105 Y28.5314
G1 X72.6908 Y28.7399
G1 X72.6453 Y28.878
G1 X52.8391 Y28.878
G1 X52.7851 Y28.7536
G1 X52.6606 Y28.5849
G1 X52.5204 Y28.4594
G1 X52.3386 Y28.3564
G1 X52.1696 Y28.3015
G1 X51.9725 Y28.2786
G1 X51.1516 Y28.2786
G1 X50.9544 Y28.3015
G1 X50.7756 Y28.3601
G1 X50.6036 Y28.4594
G1 X50.4494 Y28.6005
G1 X50.3345 Y28.7623
G1 X50.2585 Y28.9345
G1 X50.2172 Y29.1287
G1 X50.2167 Y29.3169
G1 X50.2623 Y29.5314
G1 X50.345 Y29.7118
G1 X50.4634 Y29.8711
G1 X50.6036 Y29.9966
G1 X50.7756 Y30.0959
G1 X50.9544 Y30.1545
G1 X51.162 Y30.178
G1 X51.9725 Y30.1774
G1 X52.1696 Y30.1545
G1 X52.3386 Y30.0996
G1 X52.5116 Y30.0023
G1 X52.668 Y29.8637
G1 X52.7851 Y29.7024
G1 X52.8391 Y29.578
G1 X72.6453 Y29.578
G1 X72.6908 Y29.7161
G1 X72.8162 Y29.9334
G1 X72.9767 Y30.1124
G1 X73.1782 Y30.2615
G1 X73.4263 Y30.372
G1 X73.6512 Y30.4198
G1 X73.902 Y30.422
G1 X74.1676 Y30.3655
G1 X74.387 Y30.2672
G1 X74.5974 Y30.1124
G1 X74.7578 Y29.9334
G1 X74.8833 Y29.7161
G1 X74.9581 Y29.4876
G1 X74.987 Y29.228
G04 P0 ( dwell for no time -- G64 should not smooth over this point )
G0 Z5
(Block-name: block)
(Block-expand: 0)
(Block-enable: 1)

G0 X74.987 Y31.768
G01 F300.00000
G1 Z-0.05
G04 P0 ( dwell for no time -- G64 should not smooth over this point )
G01 F600.00000
G1 X74.987 Y31.768
G1 X74.9581 Y31.5084
G1 X74.8833 Y31.2799
G1 X74.7578 Y31.0627
G1 X74.5974 Y30.8837
G1 X74.387 Y30.7288
G1 X74.1578 Y30.6268
G1 X73.9228 Y30.5762
G1 X73.672 Y30.574
G1 X73.4064 Y30.6305
G1 X73.187 Y30.7288
G1 X72.9922 Y30.8696
G1 X72.8105 Y31.0714
G1 X72.6908 Y31.2799
G1 X72.6453 Y31.418
G1 X52.8391 Y31.418
G1 X52.7851 Y31.2936
G1 X52.6606 Y31.1249
G1 X52.5204 Y30.9995
G1 X52.3386 Y30.8964
G1 X52.1696 Y30.8415
G1 X51.9725 Y30.8186
G1 X51.1516 Y30.8186
G1 X50.9544 Y30.8415
G1 X50.7756 Y30.9001
G1 X50.6036 Y30.9995
G1 X50.4494 Y31.1405
G1 X50.3345 Y31.3023
G1 X50.2585 Y31.4744
G1 X50.2172 Y31.6687
G1 X50.2167 Y31.8569
G1 X50.2623 Y32.0714
G1 X50.345 Y32.2518
G1 X50.4634 Y32.4111
G1 X50.6036 Y32.5366
G1 X50.7756 Y32.6359
G1 X50.9544 Y32.6945
G1 X51.162 Y32.718
G1 X51.9725 Y32.7174
G1 X52.1696 Y32.6945
G1 X52.3386 Y32.6396
G1 X52.5116 Y32.5423
G1 X52.668 Y32.4037
G1 X52.7851 Y32.2424
G1 X52.8391 Y32.118
G1 X72.6453 Y32.118
G1 X72.6908 Y32.2561
G1 X72.8162 Y32.4734
G1 X72.9767 Y32.6524
G1 X73.1782 Y32.8015
G1 X73.4263 Y32.912
G1 X73.6512 Y32.9598
G1 X73.902 Y32.962
G1 X74.1676 Y32.9055
G1 X74.3958 Y32.8015
G1 X74.5974 Y32.6524
G1 X74.7578 Y32.4734
G1 X74.8833 Y32.2561
G1 X74.9581 Y32.0276
G1 X74.987 Y31.768
G04 P0 ( dwell for no time -- G64 should not smooth over this point )
G0 Z5
(Block-name: block)
(Block-expand: 0)
(Block-enable: 1)

G0 X74.987 Y34.308
G01 F300.00000
G1 Z-0.05
G04 P0 ( dwell for no time -- G64 should not smooth over this point )
G01 F600.00000
G1 X74.987 Y34.308
G1 X74.9581 Y34.0484
G1 X74.8833 Y33.8199
G1 X74.7578 Y33.6027
G1 X74.5974 Y33.4237
G1 X74.3958 Y33.2745
G1 X74.1578 Y33.1667
G1 X73.9228 Y33.1162
G1 X73.672 Y33.114
G1 X73.4064 Y33.1705
G1 X73.1782 Y33.2745
G1 X72.9922 Y33.4096
G1 X72.8105 Y33.6114
G1 X72.6908 Y33.8199
G1 X72.6453 Y33.958
G1 X52.8391 Y33.958
G1 X52.7851 Y33.8336
G1 X52.6606 Y33.6649
G1 X52.5204 Y33.5395
G1 X52.3386 Y33.4364
G1 X52.1696 Y33.3815
G1 X51.9725 Y33.3586
G1 X51.1516 Y33.3586
G1 X50.9544 Y33.3815
G1 X50.7663 Y33.4449
G1 X50.6036 Y33.5395
G1 X50.4494 Y33.6805
G1 X50.3345 Y33.8423
G1 X50.2585 Y34.0145
G1 X50.2172 Y34.2087
G1 X50.2167 Y34.3968
G1 X50.2623 Y34.6114
G1 X50.345 Y34.7918
G1 X50.4634 Y34.9511
G1 X50.6036 Y35.0766
G1 X50.7854 Y35.1796
G1 X50.9748 Y35.2389
G1 X51.162 Y35.258
G1 X51.9725 Y35.2574
G1 X52.1696 Y35.2345
G1 X52.3386 Y35.1796
G1 X52.5116 Y35.0823
G1 X52.668 Y34.9437
G1 X52.7851 Y34.7824
G1 X52.8391 Y34.658
G1 X72.6453 Y34.658
G1 X72.6908 Y34.7961
G1 X72.8162 Y35.0134
G1 X72.9767 Y35.1924
G1 X73.1782 Y35.3415
G1 X73.4263 Y35.452
G1 X73.6512 Y35.4998
G1 X73.902 Y35.502
G1 X74.1676 Y35.4455
G1 X74.387 Y35.3472
G1 X74.5974 Y35.1924
G1 X74.7578 Y35.0134
G1 X74.8833 Y34.7961
G1 X74.9581 Y34.5676
G1 X74.987 Y34.308
G04 P0 ( dwell for no time -- G64 should not smooth over this point )
G0 Z5
(Block-name: block)
(Block-expand: 0)
(Block-enable: 1)

G0 X74.987 Y36.848
G01 F300.00000
G1 Z-0.05
G04 P0 ( dwell for no time -- G64 should not smooth over this point )
G01 F600.00000
G1 X74.987 Y36.848
G1 X74.9581 Y36.5884
G1 X74.8833 Y36.3599
G1 X74.7578 Y36.1427
G1 X74.5974 Y35.9637
G1 X74.387 Y35.8088
G1 X74.1578 Y35.7067
G1 X73.9228 Y35.6562
G1 X73.672 Y35.654
G1 X73.4064 Y35.7105
G1 X73.187 Y35.8088
G1 X72.9922 Y35.9496
G1 X72.8105 Y36.1515
G1 X72.6908 Y36.3599
G1 X72.6453 Y36.498
G1 X52.8391 Y36.498
G1 X52.7851 Y36.3736
G1 X52.6606 Y36.205
G1 X52.5204 Y36.0795
G1 X52.3386 Y35.9764
G1 X52.1595 Y35.9188
G1 X51.9725 Y35.8986
G1 X51.1516 Y35.8986
G1 X50.9645 Y35.9188
G1 X50.7663 Y35.9849
G1 X50.6036 Y36.0795
G1 X50.4494 Y36.2205
G1 X50.3345 Y36.3823
G1 X50.2585 Y36.5545
G1 X50.2172 Y36.7487
G1 X50.2167 Y36.9368
G1 X50.2623 Y37.1513
G1 X50.345 Y37.3318
G1 X50.4634 Y37.4911
G1 X50.6036 Y37.6166
G1 X50.7854 Y37.7196
G1 X50.9645 Y37.7773
G1 X51.162 Y37.798
G1 X51.9725 Y37.7974
G1 X52.1595 Y37.7773
G1 X52.3386 Y37.7196
G1 X52.5204 Y37.6166
G1 X52.6606 Y37.4911
G1 X52.7851 Y37.3224
G1 X52.8391 Y37.198
G1 X72.6453 Y37.198
G1 X72.6908 Y37.3361
G1 X72.8162 Y37.5534
G1 X72.9767 Y37.7324
G1 X73.1782 Y37.8816
G1 X73.4263 Y37.992
G1 X73.6512 Y38.0398
G1 X73.902 Y38.042
G1 X74.1676 Y37.9855
G1 X74.387 Y37.8872
G1 X74.5974 Y37.7324
G1 X74.7578 Y37.5534
G1 X74.8833 Y37.3361
G1 X74.9581 Y37.1076
G1 X74.987 Y36.848
G04 P0 ( dwell for no time -- G64 should not smooth over this point )
G0 Z5
(Block-name: block)
(Block-expand: 0)
(Block-enable: 1)

G0 X74.987 Y39.388
G01 F300.00000
G1 Z-0.05
G04 P0 ( dwell for no time -- G64 should not smooth over this point )
G01 F600.00000
G1 X74.987 Y39.388
G1 X74.9581 Y39.1284
G1 X74.8833 Y38.8999
G1 X74.7578 Y38.6827
G1 X74.5974 Y38.5036
G1 X74.387 Y38.3488
G1 X74.1578 Y38.2467
G1 X73.9228 Y38.1962
G1 X73.672 Y38.1941
G1 X73.4064 Y38.2505
G1 X73.187 Y38.3488
G1 X72.9922 Y38.4896
G1 X72.8105 Y38.6915
G1 X72.6908 Y38.8999
G1 X72.6453 Y39.038
G1 X52.8391 Y39.038
G1 X52.7851 Y38.9136
G1 X52.6606 Y38.745
G1 X52.5204 Y38.6194
G1 X52.3386 Y38.5164
G1 X52.1696 Y38.4615
G1 X51.9725 Y38.4386
G1 X51.1516 Y38.4386
G1 X50.9544 Y38.4615
G1 X50.7663 Y38.5249
G1 X50.6036 Y38.6194
G1 X50.4494 Y38.7605
G1 X50.3345 Y38.9223
G1 X50.2585 Y39.0945
G1 X50.2172 Y39.2887
G1 X50.2167 Y39.4768
G1 X50.2623 Y39.6913
G1 X50.345 Y39.8718
G1 X50.4634 Y40.0311
G1 X50.6036 Y40.1566
G1 X50.7854 Y40.2596
G1 X50.9748 Y40.3189
G1 X51.162 Y40.338
G1 X51.9725 Y40.3375
G1 X52.1696 Y40.3145
G1 X52.3386 Y40.2596
G1 X52.5116 Y40.1623
G1 X52.668 Y40.0237
G1 X52.7851 Y39.8624
G1 X52.8391 Y39.738
G1 X72.6453 Y39.738
G1 X72.6908 Y39.8761
G1 X72.8162 Y40.0934
G1 X72.9767 Y40.2724
G1 X73.1782 Y40.4216
G1 X73.4263 Y40.532
G1 X73.6512 Y40.5798
G1 X73.902 Y40.582
G1 X74.1676 Y40.5255
G1 X74.3958 Y40.4216
G1 X74.5974 Y40.2724
G1 X74.7578 Y40.0934
G1 X74.8833 Y39.8761
G1 X74.9581 Y39.6476
G1 X74.987 Y39.388
G04 P0 ( dwell for no time -- G64 should not smooth over this point )
G0 Z5
(Block-name: block)
(Block-expand: 0)
(Block-enable: 1)

G0 X74.987 Y41.928
G01 F300.00000
G1 Z-0.05
G04 P0 ( dwell for no time -- G64 should not smooth over this point )
G01 F600.00000
G1 X74.987 Y41.928
G1 X74.9581 Y41.6684
G1 X74.8833 Y41.4399
G1 X74.7578 Y41.2227
G1 X74.5974 Y41.0436
G1 X74.3958 Y40.8945
G1 X74.1578 Y40.7867
G1 X73.9228 Y40.7362
G1 X73.672 Y40.7341
G1 X73.4064 Y40.7905
G1 X73.1782 Y40.8945
G1 X72.9922 Y41.0297
G1 X72.8105 Y41.2315
G1 X72.6908 Y41.4399
G1 X72.6453 Y41.578
G1 X52.8391 Y41.578
G1 X52.7851 Y41.4536
G1 X52.6606 Y41.285
G1 X52.5204 Y41.1594
G1 X52.3386 Y41.0564
G1 X52.1696 Y41.0015
G1 X51.9725 Y40.9786
G1 X51.1516 Y40.9786
G1 X50.9544 Y41.0015
G1 X50.7756 Y41.0601
G1 X50.6036 Y41.1594
G1 X50.4494 Y41.3005
G1 X50.3345 Y41.4623
G1 X50.2585 Y41.6345
G1 X50.2172 Y41.8287
G1 X50.2167 Y42.0168
G1 X50.2623 Y42.2313
G1 X50.345 Y42.4118
G1 X50.4634 Y42.5711
G1 X50.6036 Y42.6966
G1 X50.7854 Y42.7996
G1 X50.9645 Y42.8573
G1 X51.162 Y42.878
G1 X51.9725 Y42.8775
G1 X52.1595 Y42.8573
G1 X52.3386 Y42.7996
G1 X52.5116 Y42.7023
G1 X52.668 Y42.5637
G1 X52.7851 Y42.4024
G1 X52.8391 Y42.278
G1 X72.6453 Y42.278
G1 X72.6955 Y42.4254
G1 X72.8162 Y42.6334
G1 X72.9767 Y42.8124
G1 X73.1782 Y42.9616
G1 X73.4263 Y43.072
G1 X73.6512 Y43.1198
G1 X73.902 Y43.122
G1 X74.1676 Y43.0655
G1 X74.387 Y42.9672
G1 X74.5974 Y42.8124
G1 X74.7578 Y42.6334
G1 X74.8833 Y42.4161
G1 X74.9581 Y42.1876
G1 X74.987 Y41.928

G04 P0 ( dwell for no time -- G64 should not smooth over this point )
G0 Z10
(Block-name: block)
(Block-expand: 0)
(Block-enable: 1)

M5 ( Spindle off. )
G04 P1.000000
M9 ( Coolant off. )
M2 ( Program end. )

