(Block-name: Header)
(Block-expand: 0)
(Block-enable: 1)
( pcb2gcode 1.3.2 )
( Software-independent Gcode )

G94 ( Millimeters per minute feed rate. )
G21 ( Units == Millimeters. )

G90 ( Absolute coordinates. )
(Block-name: block)
(Block-expand: 0)
(Block-enable: 1)
G00 S10000 ( RPM spindle speed. )
G64 P0.01000 ( set maximum deviation from commanded toolpath )
G01 F600.00000 ( Feedrate. )

G01 F600.00000 ( Feedrate. )
M3 ( Spindle on clockwise. )
G04 P1.00000
G04 P0 ( dwell for no time -- G64 should not smooth over this point )
G0 Z5
(Block-name: block)
(Block-expand: 0)
(Block-enable: 1)

G0 X48.9931 Y49.5162
G01 F300.00000
G1 Z-0.05
G04 P0 ( dwell for no time -- G64 should not smooth over this point )
G01 F600.00000
G1 X48.9931 Y49.5162
G1 X48.9878 Y57.2901
G1 X48.9623 Y57.3743
G1 X48.8906 Y57.479
G1 X47.9004 Y58.4692
G1 X47.7957 Y58.5409
G1 X47.6529 Y58.5717
G1 X20.7126 Y58.5626
G1 X20.6044 Y58.5178
G1 X20.5429 Y58.4692
G1 X14.9223 Y52.8479
G1 X14.8573 Y52.7505
G1 X14.8317 Y52.6663
G1 X14.8264 Y51.8845
G1 X14.702 Y51.8305
G1 X14.5489 Y51.72
G1 X14.4079 Y51.5658
G1 X14.3048 Y51.3841
G1 X14.2472 Y51.205
G1 X14.2264 Y51.0074
G1 X14.2264 Y50.2075
G1 X14.2472 Y50.0099
G1 X14.3133 Y49.8117
G1 X14.4079 Y49.6491
G1 X14.5333 Y49.5089
G1 X14.7107 Y49.38
G1 X14.893 Y49.3012
G1 X15.0876 Y49.2621
G1 X15.2757 Y49.2627
G1 X15.4798 Y49.3077
G1 X15.6602 Y49.3904
G1 X15.8195 Y49.5089
G1 X15.945 Y49.6491
G1 X16.0395 Y49.8117
G1 X16.1056 Y50.0099
G1 X16.1264 Y50.2075
G1 X16.1259 Y51.0179
G1 X16.1056 Y51.205
G1 X16.048 Y51.3841
G1 X15.945 Y51.5658
G1 X15.8039 Y51.72
G1 X15.6508 Y51.8305
G1 X15.5264 Y51.8845
G1 X15.5264 Y52.4627
G1 X20.9354 Y57.8717
G1 X47.5079 Y57.8717
G1 X48.2931 Y57.0865
G1 X48.2931 Y49.6612
G1 X39.2464 Y40.6016
G1 X39.2015 Y40.4933
G1 X39.1924 Y40.4155
G1 X39.1924 Y38.9628
G1 X39.068 Y38.9088
G1 X38.9067 Y38.7917
G1 X38.7682 Y38.6353
G1 X38.6708 Y38.4623
G1 X38.6159 Y38.2934
G1 X38.593 Y38.0962
G1 X38.5924 Y37.2857
G1 X38.6115 Y37.0985
G1 X38.6708 Y36.9091
G1 X38.7738 Y36.7273
G1 X38.8993 Y36.5871
G1 X39.0586 Y36.4687
G1 X39.2391 Y36.386
G1 X39.4536 Y36.3404
G1 X39.6417 Y36.3409
G1 X39.836 Y36.3822
G1 X40.0081 Y36.4582
G1 X40.17 Y36.5731
G1 X40.3167 Y36.7361
G1 X40.4103 Y36.8993
G1 X40.4733 Y37.0985
G1 X40.4924 Y37.2857
G1 X40.4924 Y38.0857
G1 X40.4689 Y38.2934
G1 X40.4103 Y38.4721
G1 X40.3044 Y38.6523
G1 X40.17 Y38.7983
G1 X40.0168 Y38.9088
G1 X39.8924 Y38.9628
G1 X39.8924 Y40.2705
G1 X48.8906 Y49.2687
G1 X48.9698 Y49.3915
G1 X48.9931 Y49.5162
G04 P0 ( dwell for no time -- G64 should not smooth over this point )
G0 Z5
(Block-name: block)
(Block-expand: 0)
(Block-enable: 1)

G0 X47.9928 Y49.9306
G01 F300.00000
G1 Z-0.05
G04 P0 ( dwell for no time -- G64 should not smooth over this point )
G01 F600.00000
G1 X47.9928 Y49.9306
G1 X47.9875 Y56.8757
G1 X47.962 Y56.9599
G1 X47.8969 Y57.0574
G1 X47.486 Y57.4689
G1 X47.3813 Y57.5406
G1 X47.2385 Y57.5714
G1 X24.7923 Y57.5623
G1 X24.6841 Y57.5175
G1 X24.6226 Y57.4689
G1 X20.0023 Y52.8479
G1 X19.9373 Y52.7505
G1 X19.9117 Y52.6663
G1 X19.9064 Y51.8845
G1 X19.782 Y51.8305
G1 X19.6289 Y51.72
G1 X19.4821 Y51.5571
G1 X19.3885 Y51.3939
G1 X19.3299 Y51.2151
G1 X19.3064 Y51.0074
G1 X19.3064 Y50.2075
G1 X19.3272 Y50.0099
G1 X19.3933 Y49.8117
G1 X19.4879 Y49.6491
G1 X19.6133 Y49.5089
G1 X19.7907 Y49.38
G1 X19.973 Y49.3012
G1 X20.1676 Y49.2621
G1 X20.3557 Y49.2627
G1 X20.5598 Y49.3077
G1 X20.7314 Y49.3847
G1 X20.8995 Y49.5089
G1 X21.025 Y49.6491
G1 X21.1195 Y49.8117
G1 X21.1856 Y50.0099
G1 X21.2064 Y50.2075
G1 X21.2059 Y51.0179
G1 X21.1856 Y51.205
G1 X21.128 Y51.3841
G1 X21.025 Y51.5658
G1 X20.8839 Y51.72
G1 X20.7308 Y51.8305
G1 X20.6064 Y51.8845
G1 X20.6064 Y52.4627
G1 X25.0151 Y56.8714
G1 X47.0935 Y56.8714
G1 X47.2928 Y56.6722
G1 X47.2928 Y50.0756
G1 X37.2532 Y40.036
G1 X36.9246 Y40.0269
G1 X36.8001 Y39.9712
G1 X36.7172 Y39.8884
G1 X36.6758 Y39.8107
G1 X36.6529 Y39.6958
G1 X36.6524 Y38.9628
G1 X36.528 Y38.9088
G1 X36.3749 Y38.7983
G1 X36.2404 Y38.6523
G1 X36.1345 Y38.4721
G1 X36.0759 Y38.2934
G1 X36.0524 Y38.0857
G1 X36.053 Y37.2753
G1 X36.0759 Y37.0781
G1 X36.1308 Y36.9091
G1 X36.2338 Y36.7273
G1 X36.3593 Y36.5871
G1 X36.5186 Y36.4687
G1 X36.6991 Y36.386
G1 X36.9136 Y36.3404
G1 X37.1017 Y36.3409
G1 X37.296 Y36.3822
G1 X37.4681 Y36.4582
G1 X37.63 Y36.5731
G1 X37.7767 Y36.7361
G1 X37.874 Y36.9091
G1 X37.9333 Y37.0985
G1 X37.9524 Y37.2857
G1 X37.9524 Y38.0857
G1 X37.9289 Y38.2934
G1 X37.8703 Y38.4721
G1 X37.7644 Y38.6523
G1 X37.63 Y38.7983
G1 X37.4768 Y38.9088
G1 X37.3524 Y38.9628
G1 X37.3524 Y39.336
G1 X37.5229 Y39.3594
G1 X37.6457 Y39.4385
G1 X47.8903 Y49.6831
G1 X47.9695 Y49.8059
G1 X47.9928 Y49.9306
G04 P0 ( dwell for no time -- G64 should not smooth over this point )
G0 Z5
(Block-name: block)
(Block-expand: 0)
(Block-enable: 1)

G0 X46.9924 Y54.4657
G01 F300.00000
G1 Z-0.05
G04 P0 ( dwell for no time -- G64 should not smooth over this point )
G01 F600.00000
G1 X46.9924 Y54.4657
G1 X46.9924 Y56.4657
G1 X46.9631 Y56.5364
G1 X46.8924 Y56.5657
G1 X44.8924 Y56.5657
G1 X44.8217 Y56.5364
G1 X44.7924 Y56.4657
G1 X44.7943 Y54.4462
G1 X44.8217 Y54.395
G1 X44.8729 Y54.3676
G1 X45.5424 Y54.3657
G1 X45.5424 Y52.9887
G1 X45.3712 Y52.8101
G1 X45.3155 Y52.6855
G1 X45.3064 Y51.8845
G1 X45.182 Y51.8305
G1 X45.0289 Y51.72
G1 X44.8944 Y51.574
G1 X44.7885 Y51.3939
G1 X44.7299 Y51.2151
G1 X44.7064 Y51.0074
G1 X44.707 Y50.197
G1 X44.7255 Y50.0203
G1 X44.7848 Y49.8308
G1 X44.8879 Y49.6491
G1 X45.0133 Y49.5089
G1 X45.1726 Y49.3904
G1 X45.373 Y49.3012
G1 X45.5571 Y49.2627
G1 X45.7557 Y49.2627
G1 X45.9399 Y49.3012
G1 X46.1221 Y49.38
G1 X46.2921 Y49.5015
G1 X46.4184 Y49.6409
G1 X46.5243 Y49.821
G1 X46.5829 Y49.9998
G1 X46.6064 Y50.2075
G1 X46.6064 Y51.0074
G1 X46.5829 Y51.2151
G1 X46.5195 Y51.4032
G1 X46.4184 Y51.574
G1 X46.2839 Y51.72
G1 X46.1308 Y51.8305
G1 X46.0064 Y51.8845
G1 X46.0064 Y52.4627
G1 X46.1776 Y52.6414
G1 X46.2371 Y52.7851
G1 X46.2424 Y54.3657
G1 X46.9119 Y54.3676
G1 X46.9756 Y54.4102
G1 X46.9924 Y54.4657
G04 P0 ( dwell for no time -- G64 should not smooth over this point )
G0 Z5
(Block-name: block)
(Block-expand: 0)
(Block-enable: 1)

G0 X44.4519 Y55.4553
G01 F300.00000
G1 Z-0.05
G04 P0 ( dwell for no time -- G64 should not smooth over this point )
G01 F600.00000
G1 X44.4519 Y55.4553
G1 X44.4257 Y55.7045
G1 X44.3573 Y55.9131
G1 X44.2357 Y56.1204
G1 X44.0803 Y56.2898
G1 X43.8931 Y56.4231
G1 X43.6923 Y56.5119
G1 X43.4674 Y56.5597
G1 X43.2374 Y56.5597
G1 X43.0226 Y56.5146
G1 X42.7936 Y56.4127
G1 X42.6164 Y56.2832
G1 X42.4568 Y56.1035
G1 X42.3475 Y55.9131
G1 X42.2791 Y55.7045
G1 X42.253 Y55.4762
G1 X42.2748 Y55.2473
G1 X42.3523 Y55.009
G1 X42.4691 Y54.811
G1 X42.6164 Y54.6483
G1 X42.7936 Y54.5188
G1 X43.0024 Y54.4234
G1 X43.0024 Y52.9887
G1 X42.8312 Y52.8101
G1 X42.7755 Y52.6855
G1 X42.7664 Y51.8845
G1 X42.642 Y51.8305
G1 X42.4889 Y51.72
G1 X42.3421 Y51.5571
G1 X42.2485 Y51.3939
G1 X42.1899 Y51.2151
G1 X42.1664 Y51.0074
G1 X42.167 Y50.197
G1 X42.1872 Y50.0099
G1 X42.2448 Y49.8308
G1 X42.3479 Y49.6491
G1 X42.4733 Y49.5089
G1 X42.6414 Y49.3847
G1 X42.833 Y49.3012
G1 X43.0171 Y49.2627
G1 X43.2157 Y49.2627
G1 X43.3999 Y49.3012
G1 X43.5914 Y49.3847
G1 X43.7595 Y49.5089
G1 X43.885 Y49.6491
G1 X43.988 Y49.8308
G1 X44.0456 Y50.0099
G1 X44.0664 Y50.2075
G1 X44.0664 Y51.0074
G1 X44.0456 Y51.205
G1 X43.9795 Y51.4032
G1 X43.8784 Y51.574
G1 X43.7439 Y51.72
G1 X43.5908 Y51.8305
G1 X43.4664 Y51.8845
G1 X43.4664 Y52.4627
G1 X43.6376 Y52.6414
G1 X43.6971 Y52.7851
G1 X43.7024 Y54.4234
G1 X43.8931 Y54.5083
G1 X44.0803 Y54.6417
G1 X44.2423 Y54.8192
G1 X44.3611 Y55.0281
G1 X44.4284 Y55.237
G1 X44.4519 Y55.4553
G04 P0 ( dwell for no time -- G64 should not smooth over this point )
G0 Z5
(Block-name: block)
(Block-expand: 0)
(Block-enable: 1)

G0 X41.5264 Y50.2075
G01 F300.00000
G1 Z-0.05
G04 P0 ( dwell for no time -- G64 should not smooth over this point )
G01 F600.00000
G1 X41.5264 Y50.2075
G1 X41.5264 Y51.0074
G1 X41.5056 Y51.205
G1 X41.448 Y51.3841
G1 X41.3507 Y51.5571
G1 X41.2039 Y51.72
G1 X41.0514 Y51.8302
G1 X40.8599 Y51.9137
G1 X40.6757 Y51.9522
G1 X40.4771 Y51.9522
G1 X40.2828 Y51.9109
G1 X40.1107 Y51.8349
G1 X39.9407 Y51.7134
G1 X39.8144 Y51.574
G1 X39.7085 Y51.3939
G1 X39.6455 Y51.1946
G1 X39.6264 Y51.0074
G1 X39.627 Y50.197
G1 X39.6455 Y50.0203
G1 X39.7048 Y49.8308
G1 X39.8079 Y49.6491
G1 X39.9489 Y49.4949
G1 X40.102 Y49.3844
G1 X40.2264 Y49.3304
G1 X40.2264 Y46.5544
G1 X34.1664 Y40.4815
G1 X34.1215 Y40.3732
G1 X34.1124 Y40.2954
G1 X34.1124 Y38.9628
G1 X33.988 Y38.9088
G1 X33.8349 Y38.7983
G1 X33.6938 Y38.6441
G1 X33.5993 Y38.4814
G1 X33.5359 Y38.2934
G1 X33.5124 Y38.0857
G1 X33.5124 Y37.2857
G1 X33.5359 Y37.0781
G1 X33.5993 Y36.89
G1 X33.6938 Y36.7273
G1 X33.8349 Y36.5731
G1 X33.9967 Y36.4582
G1 X34.1688 Y36.3822
G1 X34.3736 Y36.3404
G1 X34.572 Y36.3426
G1 X34.756 Y36.3822
G1 X34.9281 Y36.4582
G1 X35.09 Y36.5731
G1 X35.231 Y36.7273
G1 X35.334 Y36.9091
G1 X35.3917 Y37.0882
G1 X35.4124 Y37.2857
G1 X35.4124 Y38.0857
G1 X35.3917 Y38.2832
G1 X35.3255 Y38.4814
G1 X35.2244 Y38.6523
G1 X35.09 Y38.7983
G1 X34.9368 Y38.9088
G1 X34.8124 Y38.9628
G1 X34.8124 Y40.1504
G1 X40.8725 Y46.2234
G1 X40.9173 Y46.3316
G1 X40.9264 Y46.4094
G1 X40.9264 Y49.3304
G1 X41.0508 Y49.3844
G1 X41.2039 Y49.4949
G1 X41.345 Y49.6491
G1 X41.448 Y49.8308
G1 X41.5056 Y50.0099
G1 X41.5264 Y50.2075
G04 P0 ( dwell for no time -- G64 should not smooth over this point )
G0 Z5
(Block-name: block)
(Block-expand: 0)
(Block-enable: 1)

G0 X38.9864 Y50.2075
G01 F300.00000
G1 Z-0.05
G04 P0 ( dwell for no time -- G64 should not smooth over this point )
G01 F600.00000
G1 X38.9864 Y50.2075
G1 X38.9864 Y51.0074
G1 X38.9629 Y51.2151
G1 X38.908 Y51.3841
G1 X38.8107 Y51.5571
G1 X38.6639 Y51.72
G1 X38.5021 Y51.8349
G1 X38.33 Y51.9109
G1 X38.1357 Y51.9522
G1 X37.9371 Y51.9522
G1 X37.753 Y51.9137
G1 X37.5614 Y51.8302
G1 X37.4007 Y51.7134
G1 X37.2744 Y51.574
G1 X37.1648 Y51.3841
G1 X37.1055 Y51.1946
G1 X37.0864 Y51.0074
G1 X37.087 Y50.197
G1 X37.1072 Y50.0099
G1 X37.1648 Y49.8308
G1 X37.2679 Y49.6491
G1 X37.4089 Y49.4949
G1 X37.562 Y49.3844
G1 X37.6864 Y49.3304
G1 X37.6864 Y46.9149
G1 X31.6264 Y40.842
G1 X31.5815 Y40.7337
G1 X31.5724 Y40.6559
G1 X31.5724 Y38.9628
G1 X31.448 Y38.9088
G1 X31.2949 Y38.7983
G1 X31.1482 Y38.6353
G1 X31.0545 Y38.4721
G1 X30.9959 Y38.2934
G1 X30.9724 Y38.0857
G1 X30.9724 Y37.2857
G1 X30.9959 Y37.0781
G1 X31.0593 Y36.89
G1 X31.1538 Y36.7273
G1 X31.2949 Y36.5731
G1 X31.4567 Y36.4582
G1 X31.6288 Y36.3822
G1 X31.8336 Y36.3404
G1 X32.032 Y36.3426
G1 X32.216 Y36.3822
G1 X32.3881 Y36.4582
G1 X32.55 Y36.5731
G1 X32.691 Y36.7273
G1 X32.794 Y36.9091
G1 X32.8533 Y37.0985
G1 X32.8724 Y37.2857
G1 X32.8724 Y38.0857
G1 X32.8489 Y38.2934
G1 X32.7903 Y38.4721
G1 X32.6844 Y38.6523
G1 X32.55 Y38.7983
G1 X32.3968 Y38.9088
G1 X32.2724 Y38.9628
G1 X32.2724 Y40.511
G1 X38.3216 Y46.5676
G1 X38.3631 Y46.6452
G1 X38.3864 Y46.7699
G1 X38.3864 Y49.3304
G1 X38.5108 Y49.3844
G1 X38.6639 Y49.4949
G1 X38.805 Y49.6491
G1 X38.908 Y49.8308
G1 X38.9673 Y50.0203
G1 X38.9864 Y50.2075
G04 P0 ( dwell for no time -- G64 should not smooth over this point )
G0 Z5
(Block-name: block)
(Block-expand: 0)
(Block-enable: 1)

G0 X36.4464 Y50.2075
G01 F300.00000
G1 Z-0.05
G04 P0 ( dwell for no time -- G64 should not smooth over this point )
G01 F600.00000
G1 X36.4464 Y50.2075
G1 X36.4464 Y51.0074
G1 X36.4256 Y51.205
G1 X36.368 Y51.3841
G1 X36.2707 Y51.5571
G1 X36.1239 Y51.72
G1 X35.9621 Y51.8349
G1 X35.79 Y51.9109
G1 X35.5957 Y51.9522
G1 X35.3971 Y51.9522
G1 X35.2028 Y51.9109
G1 X35.0307 Y51.8349
G1 X34.8607 Y51.7134
G1 X34.7344 Y51.574
G1 X34.6285 Y51.3939
G1 X34.5655 Y51.1946
G1 X34.5464 Y51.0074
G1 X34.547 Y50.197
G1 X34.5672 Y50.0099
G1 X34.6248 Y49.8308
G1 X34.7279 Y49.6491
G1 X34.8689 Y49.4949
G1 X35.022 Y49.3844
G1 X35.1464 Y49.3304
G1 X35.1464 Y47.6359
G1 X29.0864 Y41.5629
G1 X29.0415 Y41.4547
G1 X29.0324 Y41.3769
G1 X29.0324 Y38.9628
G1 X28.908 Y38.9088
G1 X28.7549 Y38.7983
G1 X28.6082 Y38.6353
G1 X28.5145 Y38.4721
G1 X28.4559 Y38.2934
G1 X28.4324 Y38.0857
G1 X28.4324 Y37.2857
G1 X28.4559 Y37.0781
G1 X28.5193 Y36.89
G1 X28.6138 Y36.7273
G1 X28.7549 Y36.5731
G1 X28.9167 Y36.4582
G1 X29.0888 Y36.3822
G1 X29.2936 Y36.3404
G1 X29.492 Y36.3426
G1 X29.676 Y36.3822
G1 X29.8481 Y36.4582
G1 X30.01 Y36.5731
G1 X30.151 Y36.7273
G1 X30.2503 Y36.8993
G1 X30.3133 Y37.0985
G1 X30.3324 Y37.2857
G1 X30.3324 Y38.0857
G1 X30.3089 Y38.2934
G1 X30.2503 Y38.4721
G1 X30.1444 Y38.6523
G1 X30.01 Y38.7983
G1 X29.8568 Y38.9088
G1 X29.7324 Y38.9628
G1 X29.7324 Y41.2319
G1 X35.7816 Y47.2886
G1 X35.8231 Y47.3662
G1 X35.8464 Y47.4909
G1 X35.8464 Y49.3304
G1 X35.9708 Y49.3844
G1 X36.1239 Y49.4949
G1 X36.2707 Y49.6579
G1 X36.3643 Y49.821
G1 X36.4229 Y49.9998
G1 X36.4464 Y50.2075
G04 P0 ( dwell for no time -- G64 should not smooth over this point )
G0 Z5
(Block-name: block)
(Block-expand: 0)
(Block-enable: 1)

G0 X33.9064 Y50.2075
G01 F300.00000
G1 Z-0.05
G04 P0 ( dwell for no time -- G64 should not smooth over this point )
G01 F600.00000
G1 X33.9064 Y50.2075
G1 X33.9064 Y51.0074
G1 X33.8873 Y51.1946
G1 X33.828 Y51.3841
G1 X33.7184 Y51.574
G1 X33.5995 Y51.706
G1 X33.4402 Y51.8245
G1 X33.2399 Y51.9137
G1 X33.0557 Y51.9522
G1 X32.8571 Y51.9522
G1 X32.6628 Y51.9109
G1 X32.4907 Y51.8349
G1 X32.3133 Y51.706
G1 X32.1821 Y51.5571
G1 X32.0933 Y51.4032
G1 X32.0255 Y51.1946
G1 X32.0064 Y50.9574
G1 X31.2975 Y50.9521
G1 X31.2133 Y50.9266
G1 X31.1159 Y50.8615
G1 X26.5464 Y46.2797
G1 X26.5015 Y46.1715
G1 X26.4924 Y46.0937
G1 X26.4924 Y38.9628
G1 X26.368 Y38.9088
G1 X26.2149 Y38.7983
G1 X26.0682 Y38.6353
G1 X25.9745 Y38.4721
G1 X25.9159 Y38.2934
G1 X25.8924 Y38.0857
G1 X25.8924 Y37.2857
G1 X25.9159 Y37.0781
G1 X25.9793 Y36.89
G1 X26.0738 Y36.7273
G1 X26.2149 Y36.5731
G1 X26.3767 Y36.4582
G1 X26.5488 Y36.3822
G1 X26.7328 Y36.3426
G1 X26.9312 Y36.3404
G1 X27.136 Y36.3822
G1 X27.3262 Y36.4687
G1 X27.4855 Y36.5871
G1 X27.6167 Y36.7361
G1 X27.7103 Y36.8993
G1 X27.7689 Y37.0781
G1 X27.7918 Y37.2753
G1 X27.7918 Y38.0962
G1 X27.7689 Y38.2934
G1 X27.714 Y38.4623
G1 X27.611 Y38.6441
G1 X27.4855 Y38.7843
G1 X27.3168 Y38.9088
G1 X27.1924 Y38.9628
G1 X27.1924 Y45.9487
G1 X31.5011 Y50.2574
G1 X32.0064 Y50.2574
G1 X32.0299 Y49.9998
G1 X32.0933 Y49.8117
G1 X32.1944 Y49.6409
G1 X32.3289 Y49.4949
G1 X32.4814 Y49.3847
G1 X32.673 Y49.3012
G1 X32.8676 Y49.2621
G1 X33.0557 Y49.2627
G1 X33.2598 Y49.3077
G1 X33.4314 Y49.3847
G1 X33.5995 Y49.5089
G1 X33.725 Y49.6491
G1 X33.828 Y49.8308
G1 X33.8856 Y50.0099
G1 X33.9064 Y50.2075
G04 P0 ( dwell for no time -- G64 should not smooth over this point )
G0 Z5
(Block-name: block)
(Block-expand: 0)
(Block-enable: 1)

G0 X28.8264 Y50.2075
G01 F300.00000
G1 Z-0.05
G04 P0 ( dwell for no time -- G64 should not smooth over this point )
G01 F600.00000
G1 X28.8264 Y50.2075
G1 X28.8264 Y51.0074
G1 X28.8056 Y51.205
G1 X28.748 Y51.3841
G1 X28.6507 Y51.5571
G1 X28.5039 Y51.72
G1 X28.3514 Y51.8302
G1 X28.1599 Y51.9137
G1 X27.9757 Y51.9522
G1 X27.7771 Y51.9522
G1 X27.5828 Y51.9109
G1 X27.4107 Y51.8349
G1 X27.2407 Y51.7134
G1 X27.1144 Y51.574
G1 X27.0085 Y51.3939
G1 X26.9455 Y51.1946
G1 X26.9264 Y51.0074
G1 X26.927 Y50.197
G1 X26.9499 Y49.9998
G1 X27.0133 Y49.8117
G1 X27.1079 Y49.6491
G1 X27.2489 Y49.4949
G1 X27.4014 Y49.3847
G1 X27.5731 Y49.3077
G1 X27.7771 Y49.2627
G1 X27.9861 Y49.2643
G1 X28.1599 Y49.3012
G1 X28.3421 Y49.38
G1 X28.5195 Y49.5089
G1 X28.6507 Y49.6579
G1 X28.748 Y49.8308
G1 X28.8029 Y49.9998
G1 X28.8264 Y50.2075
G04 P0 ( dwell for no time -- G64 should not smooth over this point )
G0 Z5
(Block-name: block)
(Block-expand: 0)
(Block-enable: 1)

G0 X26.2864 Y50.2075
G01 F300.00000
G1 Z-0.05
G04 P0 ( dwell for no time -- G64 should not smooth over this point )
G01 F600.00000
G1 X26.2864 Y50.2075
G1 X26.2864 Y51.0074
G1 X26.2629 Y51.2151
G1 X26.208 Y51.3841
G1 X26.1107 Y51.5571
G1 X25.9639 Y51.72
G1 X25.8021 Y51.8349
G1 X25.63 Y51.9109
G1 X25.4357 Y51.9522
G1 X25.2371 Y51.9522
G1 X25.053 Y51.9137
G1 X24.8614 Y51.8302
G1 X24.7007 Y51.7134
G1 X24.5744 Y51.574
G1 X24.4648 Y51.3841
G1 X24.4055 Y51.1946
G1 X24.3864 Y51.0074
G1 X24.387 Y50.197
G1 X24.4072 Y50.0099
G1 X24.4733 Y49.8117
G1 X24.5679 Y49.6491
G1 X24.7089 Y49.4949
G1 X24.8614 Y49.3847
G1 X25.0331 Y49.3077
G1 X25.2371 Y49.2627
G1 X25.4461 Y49.2643
G1 X25.6199 Y49.3012
G1 X25.8021 Y49.38
G1 X25.9795 Y49.5089
G1 X26.1107 Y49.6579
G1 X26.208 Y49.8308
G1 X26.2629 Y49.9998
G1 X26.2864 Y50.2075
G04 P0 ( dwell for no time -- G64 should not smooth over this point )
G0 Z5
(Block-name: block)
(Block-expand: 0)
(Block-enable: 1)

G0 X23.7464 Y50.2075
G01 F300.00000
G1 Z-0.05
G04 P0 ( dwell for no time -- G64 should not smooth over this point )
G01 F600.00000
G1 X23.7464 Y50.2075
G1 X23.7464 Y51.0074
G1 X23.7256 Y51.205
G1 X23.668 Y51.3841
G1 X23.5707 Y51.5571
G1 X23.4239 Y51.72
G1 X23.2621 Y51.8349
G1 X23.09 Y51.9109
G1 X22.8957 Y51.9522
G1 X22.6971 Y51.9522
G1 X22.5028 Y51.9109
G1 X22.3307 Y51.8349
G1 X22.1607 Y51.7134
G1 X22.0344 Y51.574
G1 X21.9285 Y51.3939
G1 X21.8655 Y51.1946
G1 X21.8464 Y51.0074
G1 X21.847 Y50.197
G1 X21.8672 Y50.0099
G1 X21.9333 Y49.8117
G1 X22.0279 Y49.6491
G1 X22.1689 Y49.4949
G1 X22.3214 Y49.3847
G1 X22.4931 Y49.3077
G1 X22.6971 Y49.2627
G1 X22.9061 Y49.2643
G1 X23.0799 Y49.3012
G1 X23.2621 Y49.38
G1 X23.4321 Y49.5015
G1 X23.5707 Y49.6579
G1 X23.6643 Y49.821
G1 X23.7229 Y49.9998
G1 X23.7464 Y50.2075
G04 P0 ( dwell for no time -- G64 should not smooth over this point )
G0 Z5
(Block-name: block)
(Block-expand: 0)
(Block-enable: 1)

G0 X18.6664 Y50.2075
G01 F300.00000
G1 Z-0.05
G04 P0 ( dwell for no time -- G64 should not smooth over this point )
G01 F600.00000
G1 X18.6664 Y50.2075
G1 X18.6664 Y51.0074
G1 X18.6456 Y51.205
G1 X18.588 Y51.3841
G1 X18.4907 Y51.5571
G1 X18.3439 Y51.72
G1 X18.1914 Y51.8302
G1 X17.9999 Y51.9137
G1 X17.8261 Y51.9506
G1 X17.6276 Y51.9528
G1 X17.4228 Y51.9109
G1 X17.2507 Y51.8349
G1 X17.0889 Y51.72
G1 X16.9544 Y51.574
G1 X16.8485 Y51.3939
G1 X16.7855 Y51.1946
G1 X16.7664 Y51.0074
G1 X16.767 Y50.197
G1 X16.7899 Y49.9998
G1 X16.8485 Y49.821
G1 X16.9544 Y49.6409
G1 X17.0889 Y49.4949
G1 X17.2507 Y49.38
G1 X17.4131 Y49.3077
G1 X17.6171 Y49.2627
G1 X17.8261 Y49.2643
G1 X17.9999 Y49.3012
G1 X18.1821 Y49.38
G1 X18.3521 Y49.5015
G1 X18.4907 Y49.6579
G1 X18.588 Y49.8308
G1 X18.6429 Y49.9998
G1 X18.6664 Y50.2075
G04 P0 ( dwell for no time -- G64 should not smooth over this point )
G0 Z5
(Block-name: block)
(Block-expand: 0)
(Block-enable: 1)

G0 X13.5864 Y50.2075
G01 F300.00000
G1 Z-0.05
G04 P0 ( dwell for no time -- G64 should not smooth over this point )
G01 F600.00000
G1 X13.5864 Y50.2075
G1 X13.5864 Y51.0074
G1 X13.5656 Y51.205
G1 X13.508 Y51.3841
G1 X13.4107 Y51.5571
G1 X13.2639 Y51.72
G1 X13.1021 Y51.8349
G1 X12.93 Y51.9109
G1 X12.7253 Y51.9528
G1 X12.5268 Y51.9506
G1 X12.3428 Y51.9109
G1 X12.1526 Y51.8245
G1 X11.9933 Y51.706
G1 X11.8679 Y51.5658
G1 X11.7648 Y51.3841
G1 X11.7055 Y51.1946
G1 X11.6864 Y51.0074
G1 X11.687 Y50.197
G1 X11.7072 Y50.0099
G1 X11.7733 Y49.8117
G1 X11.8679 Y49.6491
G1 X12.0089 Y49.4949
G1 X12.1707 Y49.38
G1 X12.3331 Y49.3077
G1 X12.5371 Y49.2627
G1 X12.7461 Y49.2643
G1 X12.9199 Y49.3012
G1 X13.1021 Y49.38
G1 X13.2795 Y49.5089
G1 X13.4107 Y49.6579
G1 X13.508 Y49.8308
G1 X13.5629 Y49.9998
G1 X13.5864 Y50.2075
G04 P0 ( dwell for no time -- G64 should not smooth over this point )
G0 Z5
(Block-name: block)
(Block-expand: 0)
(Block-enable: 1)

G0 X11.0464 Y50.2075
G01 F300.00000
G1 Z-0.05
G04 P0 ( dwell for no time -- G64 should not smooth over this point )
G01 F600.00000
G1 X11.0464 Y50.2075
G1 X11.0464 Y51.0074
G1 X11.0256 Y51.205
G1 X10.968 Y51.3841
G1 X10.8707 Y51.5571
G1 X10.7239 Y51.72
G1 X10.5621 Y51.8349
G1 X10.39 Y51.9109
G1 X10.1853 Y51.9528
G1 X9.9868 Y51.9506
G1 X9.8028 Y51.9109
G1 X9.6126 Y51.8245
G1 X9.4533 Y51.706
G1 X9.3279 Y51.5658
G1 X9.2248 Y51.3841
G1 X9.1655 Y51.1946
G1 X9.1464 Y51.0074
G1 X9.147 Y50.197
G1 X9.1672 Y50.0099
G1 X9.2333 Y49.8117
G1 X9.3279 Y49.6491
G1 X9.4689 Y49.4949
G1 X9.6307 Y49.38
G1 X9.7931 Y49.3077
G1 X9.9971 Y49.2627
G1 X10.2061 Y49.2643
G1 X10.3799 Y49.3012
G1 X10.5621 Y49.38
G1 X10.7395 Y49.5089
G1 X10.8707 Y49.6579
G1 X10.968 Y49.8308
G1 X11.0229 Y49.9998
G1 X11.0464 Y50.2075
G04 P0 ( dwell for no time -- G64 should not smooth over this point )
G0 Z5
(Block-name: block)
(Block-expand: 0)
(Block-enable: 1)

G0 X20.1724 Y37.2857
G01 F300.00000
G1 Z-0.05
G04 P0 ( dwell for no time -- G64 should not smooth over this point )
G01 F600.00000
G1 X20.1724 Y37.2857
G1 X20.1517 Y37.0882
G1 X20.0855 Y36.89
G1 X19.9844 Y36.7192
G1 X19.85 Y36.5731
G1 X19.7062 Y36.4687
G1 X19.516 Y36.3822
G1 X19.3112 Y36.3404
G1 X19.1128 Y36.3426
G1 X18.9288 Y36.3822
G1 X18.7567 Y36.4582
G1 X18.5949 Y36.5731
G1 X18.4538 Y36.7273
G1 X18.3545 Y36.8993
G1 X18.2959 Y37.0781
G1 X18.2724 Y37.2857
G1 X18.2724 Y38.0857
G1 X18.2959 Y38.2934
G1 X18.3545 Y38.4721
G1 X18.4538 Y38.6441
G1 X18.5949 Y38.7983
G1 X18.748 Y38.9088
G1 X18.8724 Y38.9628
G1 X18.8724 Y39.336
G1 X16.1396 Y39.336
G1 X9.1633 Y32.3597
G1 X9.1633 Y11.8758
G1 X16.4925 Y4.5338
G1 X16.5373 Y4.4255
G1 X16.5459 Y4.3575
G1 X16.5464 Y3.6245
G1 X16.6708 Y3.5705
G1 X16.8239 Y3.46
G1 X16.9584 Y3.314
G1 X17.0643 Y3.1339
G1 X17.1229 Y2.9551
G1 X17.1464 Y2.7475
G1 X17.1464 Y1.9474
G1 X17.1273 Y1.7603
G1 X17.0595 Y1.5517
G1 X16.9584 Y1.3809
G1 X16.8239 Y1.2349
G1 X16.6621 Y1.12
G1 X16.49 Y1.044
G1 X16.2853 Y1.0021
G1 X16.0868 Y1.0043
G1 X15.9028 Y1.044
G1 X15.7307 Y1.12
G1 X15.5533 Y1.2489
G1 X15.4221 Y1.3979
G1 X15.3285 Y1.561
G1 X15.2699 Y1.7398
G1 X15.247 Y1.937
G1 X15.2464 Y2.7475
G1 X15.2699 Y2.9551
G1 X15.3285 Y3.1339
G1 X15.4344 Y3.314
G1 X15.5689 Y3.46
G1 X15.722 Y3.5705
G1 X15.8464 Y3.6245
G1 X15.8464 Y4.2027
G1 X8.5658 Y11.4833
G1 X8.5173 Y11.5448
G1 X8.4724 Y11.653
G1 X8.4686 Y32.5633
G1 X8.4941 Y32.6475
G1 X8.5658 Y32.7522
G1 X15.7471 Y39.9335
G1 X15.8699 Y40.0127
G1 X15.9946 Y40.036
G1 X19.2224 Y40.036
G1 X19.3002 Y40.0269
G1 X19.4085 Y39.9821
G1 X19.5076 Y39.8884
G1 X19.5671 Y39.7446
G1 X19.5724 Y38.9628
G1 X19.6968 Y38.9088
G1 X19.85 Y38.7983
G1 X19.9844 Y38.6523
G1 X20.0903 Y38.4721
G1 X20.1489 Y38.2934
G1 X20.1724 Y38.0857
G1 X20.1724 Y37.2857
G04 P0 ( dwell for no time -- G64 should not smooth over this point )
G0 Z5
(Block-name: block)
(Block-expand: 0)
(Block-enable: 1)

G0 X22.7124 Y37.2857
G01 F300.00000
G1 Z-0.05
G04 P0 ( dwell for no time -- G64 should not smooth over this point )
G01 F600.00000
G1 X22.7124 Y37.2857
G1 X22.7124 Y38.0857
G1 X22.6917 Y38.2832
G1 X22.6255 Y38.4814
G1 X22.5244 Y38.6523
G1 X22.39 Y38.7983
G1 X22.2368 Y38.9088
G1 X22.1124 Y38.9628
G1 X22.1124 Y39.686
G1 X22.0816 Y39.8288
G1 X22.0099 Y39.9335
G1 X21.0056 Y40.9378
G1 X20.9009 Y41.0095
G1 X20.7581 Y41.0403
G1 X15.4817 Y41.0312
G1 X15.3735 Y40.9864
G1 X15.312 Y40.9378
G1 X7.5654 Y33.1912
G1 X7.5169 Y33.1298
G1 X7.472 Y33.0215
G1 X7.4682 Y10.1327
G1 X7.4937 Y10.0484
G1 X7.5654 Y9.9437
G1 X13.3064 Y4.2027
G1 X13.3064 Y3.6245
G1 X13.182 Y3.5705
G1 X13.0289 Y3.46
G1 X12.8944 Y3.314
G1 X12.7885 Y3.1339
G1 X12.7299 Y2.9551
G1 X12.7064 Y2.7475
G1 X12.7064 Y1.9474
G1 X12.7255 Y1.7603
G1 X12.7848 Y1.5708
G1 X12.8944 Y1.3809
G1 X13.0207 Y1.2415
G1 X13.1726 Y1.1304
G1 X13.373 Y1.0412
G1 X13.5676 Y1.0021
G1 X13.766 Y1.0043
G1 X13.95 Y1.044
G1 X14.1402 Y1.1304
G1 X14.2921 Y1.2415
G1 X14.4307 Y1.3979
G1 X14.5243 Y1.561
G1 X14.5873 Y1.7603
G1 X14.6064 Y1.9474
G1 X14.6064 Y2.7475
G1 X14.5829 Y2.9551
G1 X14.5243 Y3.1339
G1 X14.4184 Y3.314
G1 X14.2839 Y3.46
G1 X14.1308 Y3.5705
G1 X14.0064 Y3.6245
G1 X14.0059 Y4.3575
G1 X13.9973 Y4.4255
G1 X13.9525 Y4.5338
G1 X8.1629 Y10.3362
G1 X8.1629 Y32.7987
G1 X15.7045 Y40.3403
G1 X20.6131 Y40.3403
G1 X21.4124 Y39.541
G1 X21.4124 Y38.9628
G1 X21.288 Y38.9088
G1 X21.1349 Y38.7983
G1 X21.0004 Y38.6523
G1 X20.8908 Y38.4623
G1 X20.8315 Y38.2729
G1 X20.8124 Y38.0857
G1 X20.813 Y37.2753
G1 X20.8332 Y37.0882
G1 X20.8908 Y36.9091
G1 X20.9938 Y36.7273
G1 X21.1349 Y36.5731
G1 X21.2967 Y36.4582
G1 X21.4688 Y36.3822
G1 X21.6736 Y36.3404
G1 X21.8617 Y36.3409
G1 X22.056 Y36.3822
G1 X22.2281 Y36.4582
G1 X22.39 Y36.5731
G1 X22.531 Y36.7273
G1 X22.6255 Y36.89
G1 X22.6889 Y37.0781
G1 X22.7124 Y37.2857
G04 P0 ( dwell for no time -- G64 should not smooth over this point )
G0 Z5
(Block-name: block)
(Block-expand: 0)
(Block-enable: 1)

G0 X25.2524 Y37.2857
G01 F300.00000
G1 Z-0.05
G04 P0 ( dwell for no time -- G64 should not smooth over this point )
G01 F600.00000
G1 X25.2524 Y37.2857
G1 X25.2289 Y37.0781
G1 X25.1655 Y36.89
G1 X25.071 Y36.7273
G1 X24.93 Y36.5731
G1 X24.7681 Y36.4582
G1 X24.596 Y36.3822
G1 X24.3912 Y36.3404
G1 X24.2031 Y36.3409
G1 X24.0088 Y36.3822
G1 X23.8367 Y36.4582
G1 X23.6749 Y36.5731
G1 X23.5338 Y36.7273
G1 X23.4308 Y36.9091
G1 X23.3759 Y37.0781
G1 X23.353 Y37.2753
G1 X23.3524 Y38.0857
G1 X23.3715 Y38.2729
G1 X23.4345 Y38.4721
G1 X23.5404 Y38.6523
G1 X23.6749 Y38.7983
G1 X23.828 Y38.9088
G1 X23.9524 Y38.9628
G1 X23.9524 Y39.541
G1 X22.1512 Y41.3422
G1 X15.2539 Y41.3422
G1 X7.1568 Y33.2452
G1 X7.1568 Y8.8023
G1 X11.3639 Y4.5952
G1 X11.4356 Y4.4905
G1 X11.4664 Y4.3477
G1 X11.4664 Y3.6245
G1 X11.5908 Y3.5705
G1 X11.7439 Y3.46
G1 X11.8784 Y3.314
G1 X11.9795 Y3.1432
G1 X12.0457 Y2.945
G1 X12.0664 Y2.7475
G1 X12.0664 Y1.9474
G1 X12.0457 Y1.7499
G1 X11.9795 Y1.5517
G1 X11.885 Y1.3891
G1 X11.7439 Y1.2349
G1 X11.5821 Y1.12
G1 X11.41 Y1.044
G1 X11.2053 Y1.0021
G1 X11.0068 Y1.0043
G1 X10.8131 Y1.0477
G1 X10.6507 Y1.12
G1 X10.4889 Y1.2349
G1 X10.3478 Y1.3891
G1 X10.2448 Y1.5708
G1 X10.1872 Y1.7499
G1 X10.1664 Y1.9474
G1 X10.1664 Y2.7475
G1 X10.1872 Y2.945
G1 X10.2533 Y3.1432
G1 X10.3544 Y3.314
G1 X10.4889 Y3.46
G1 X10.642 Y3.5705
G1 X10.7664 Y3.6245
G1 X10.7664 Y4.2027
G1 X6.5593 Y8.4099
G1 X6.4876 Y8.5145
G1 X6.4621 Y8.5987
G1 X6.4568 Y33.3901
G1 X6.4802 Y33.5148
G1 X6.5593 Y33.6376
G1 X14.8614 Y41.9397
G1 X14.9229 Y41.9883
G1 X15.0311 Y42.0331
G1 X22.2962 Y42.0422
G1 X22.439 Y42.0114
G1 X22.5437 Y41.9397
G1 X24.5985 Y39.8721
G1 X24.6291 Y39.8107
G1 X24.6519 Y39.6958
G1 X24.6524 Y38.9628
G1 X24.7768 Y38.9088
G1 X24.93 Y38.7983
G1 X25.0644 Y38.6523
G1 X25.1703 Y38.4721
G1 X25.2289 Y38.2934
G1 X25.2524 Y38.0857
G1 X25.2524 Y37.2857
G04 P0 ( dwell for no time -- G64 should not smooth over this point )
G0 Z5
(Block-name: block)
(Block-expand: 0)
(Block-enable: 1)

G0 X23.8554 Y34.3647
G01 F300.00000
G1 Z-0.05
G04 P0 ( dwell for no time -- G64 should not smooth over this point )
G01 F600.00000
G1 X23.8554 Y34.3647
G1 X23.8554 Y35.1647
G1 X23.8319 Y35.3723
G1 X23.7733 Y35.5511
G1 X23.6797 Y35.7143
G1 X23.533 Y35.8773
G1 X23.3711 Y35.9922
G1 X23.199 Y36.0682
G1 X22.9942 Y36.1101
G1 X22.7958 Y36.1079
G1 X22.6118 Y36.0682
G1 X22.4304 Y35.9874
G1 X22.2779 Y35.8773
G1 X22.1368 Y35.7231
G1 X22.0375 Y35.5511
G1 X21.9745 Y35.3519
G1 X21.9554 Y35.1647
G1 X21.956 Y34.3543
G1 X21.9789 Y34.1571
G1 X22.0375 Y33.9783
G1 X22.1368 Y33.8063
G1 X22.2779 Y33.6521
G1 X22.4304 Y33.542
G1 X22.6021 Y33.465
G1 X22.7958 Y33.4216
G1 X23.015 Y33.4216
G1 X23.199 Y33.4612
G1 X23.3711 Y33.5373
G1 X23.533 Y33.6521
G1 X23.6797 Y33.8151
G1 X23.7733 Y33.9783
G1 X23.8319 Y34.1571
G1 X23.8554 Y34.3647
G04 P0 ( dwell for no time -- G64 should not smooth over this point )
G0 Z5
(Block-name: block)
(Block-expand: 0)
(Block-enable: 1)

G0 X26.3954 Y34.3647
G01 F300.00000
G1 Z-0.05
G04 P0 ( dwell for no time -- G64 should not smooth over this point )
G01 F600.00000
G1 X26.3954 Y34.3647
G1 X26.3954 Y35.1647
G1 X26.3747 Y35.3622
G1 X26.317 Y35.5413
G1 X26.2197 Y35.7143
G1 X26.073 Y35.8773
G1 X25.9111 Y35.9922
G1 X25.739 Y36.0682
G1 X25.5342 Y36.1101
G1 X25.3358 Y36.1079
G1 X25.1518 Y36.0682
G1 X24.9616 Y35.9817
G1 X24.8023 Y35.8633
G1 X24.6768 Y35.7231
G1 X24.5775 Y35.5511
G1 X24.5145 Y35.3519
G1 X24.4954 Y35.1647
G1 X24.496 Y34.3543
G1 X24.5189 Y34.1571
G1 X24.5775 Y33.9783
G1 X24.6768 Y33.8063
G1 X24.8179 Y33.6521
G1 X24.9704 Y33.542
G1 X25.1421 Y33.465
G1 X25.3358 Y33.4216
G1 X25.555 Y33.4216
G1 X25.739 Y33.4612
G1 X25.9111 Y33.5373
G1 X26.073 Y33.6521
G1 X26.2197 Y33.8151
G1 X26.317 Y33.9881
G1 X26.3719 Y34.1571
G1 X26.3954 Y34.3647
G04 P0 ( dwell for no time -- G64 should not smooth over this point )
G0 Z5
(Block-name: block)
(Block-expand: 0)
(Block-enable: 1)

G0 X1.9064 Y1.9474
G01 F300.00000
G1 Z-0.05
G04 P0 ( dwell for no time -- G64 should not smooth over this point )
G01 F600.00000
G1 X1.9064 Y1.9474
G1 X1.8829 Y1.7398
G1 X1.8243 Y1.561
G1 X1.7307 Y1.3979
G1 X1.5921 Y1.2415
G1 X1.4221 Y1.12
G1 X1.25 Y1.044
G1 X1.066 Y1.0043
G1 X0.8468 Y1.0043
G1 X0.6628 Y1.044
G1 X0.4907 Y1.12
G1 X0.3289 Y1.2349
G1 X0.1944 Y1.3809
G1 X0.0885 Y1.561
G1 X0.0299 Y1.7398
G1 X0.007 Y1.937
G1 X0.0064 Y2.7475
G1 X0.0255 Y2.9346
G1 X0.0885 Y3.1339
G1 X0.1944 Y3.314
G1 X0.3207 Y3.4534
G1 X0.4907 Y3.5749
G1 X0.6628 Y3.6509
G1 X0.8468 Y3.6906
G1 X1.0453 Y3.6928
G1 X1.25 Y3.6509
G1 X1.4221 Y3.5749
G1 X1.584 Y3.46
G1 X1.7307 Y3.2971
G1 X1.8243 Y3.1339
G1 X1.8829 Y2.9551
G1 X1.9064 Y2.7475
G1 X1.9064 Y1.9474
G04 P0 ( dwell for no time -- G64 should not smooth over this point )
G0 Z5
(Block-name: block)
(Block-expand: 0)
(Block-enable: 1)

G0 X4.4464 Y1.9474
G01 F300.00000
G1 Z-0.05
G04 P0 ( dwell for no time -- G64 should not smooth over this point )
G01 F600.00000
G1 X4.4464 Y1.9474
G1 X4.4229 Y1.7398
G1 X4.3643 Y1.561
G1 X4.2707 Y1.3979
G1 X4.1321 Y1.2415
G1 X3.9621 Y1.12
G1 X3.79 Y1.044
G1 X3.606 Y1.0043
G1 X3.3868 Y1.0043
G1 X3.2028 Y1.044
G1 X3.0307 Y1.12
G1 X2.8689 Y1.2349
G1 X2.7344 Y1.3809
G1 X2.6285 Y1.561
G1 X2.5699 Y1.7398
G1 X2.547 Y1.937
G1 X2.5464 Y2.7475
G1 X2.5655 Y2.9346
G1 X2.6285 Y3.1339
G1 X2.7344 Y3.314
G1 X2.8607 Y3.4534
G1 X3.0307 Y3.5749
G1 X3.2028 Y3.6509
G1 X3.3868 Y3.6906
G1 X3.5853 Y3.6928
G1 X3.79 Y3.6509
G1 X3.9621 Y3.5749
G1 X4.1239 Y3.46
G1 X4.2707 Y3.2971
G1 X4.3643 Y3.1339
G1 X4.4229 Y2.9551
G1 X4.4464 Y2.7475
G1 X4.4464 Y1.9474
G04 P0 ( dwell for no time -- G64 should not smooth over this point )
G0 Z5
(Block-name: block)
(Block-expand: 0)
(Block-enable: 1)

G0 X6.9864 Y1.9474
G01 F300.00000
G1 Z-0.05
G04 P0 ( dwell for no time -- G64 should not smooth over this point )
G01 F600.00000
G1 X6.9864 Y1.9474
G1 X6.9629 Y1.7398
G1 X6.8995 Y1.5517
G1 X6.8107 Y1.3979
G1 X6.6795 Y1.2489
G1 X6.5021 Y1.12
G1 X6.33 Y1.044
G1 X6.146 Y1.0043
G1 X5.9268 Y1.0043
G1 X5.7428 Y1.044
G1 X5.5707 Y1.12
G1 X5.4089 Y1.2349
G1 X5.2678 Y1.3891
G1 X5.1733 Y1.5517
G1 X5.1072 Y1.7499
G1 X5.087 Y1.937
G1 X5.0864 Y2.7475
G1 X5.1055 Y2.9346
G1 X5.1648 Y3.1241
G1 X5.2678 Y3.3058
G1 X5.3933 Y3.446
G1 X5.5526 Y3.5645
G1 X5.7428 Y3.6509
G1 X5.9268 Y3.6906
G1 X6.1253 Y3.6928
G1 X6.33 Y3.6509
G1 X6.5021 Y3.5749
G1 X6.6639 Y3.46
G1 X6.8107 Y3.2971
G1 X6.908 Y3.1241
G1 X6.9657 Y2.945
G1 X6.9864 Y2.7475
G1 X6.9864 Y1.9474
G04 P0 ( dwell for no time -- G64 should not smooth over this point )
G0 Z5
(Block-name: block)
(Block-expand: 0)
(Block-enable: 1)

G0 X9.5264 Y1.9474
G01 F300.00000
G1 Z-0.05
G04 P0 ( dwell for no time -- G64 should not smooth over this point )
G01 F600.00000
G1 X9.5264 Y1.9474
G1 X9.5029 Y1.7398
G1 X9.4395 Y1.5517
G1 X9.3507 Y1.3979
G1 X9.2121 Y1.2415
G1 X9.0421 Y1.12
G1 X8.87 Y1.044
G1 X8.686 Y1.0043
G1 X8.4668 Y1.0043
G1 X8.2828 Y1.044
G1 X8.1107 Y1.12
G1 X7.9489 Y1.2349
G1 X7.8144 Y1.3809
G1 X7.7133 Y1.5517
G1 X7.6472 Y1.7499
G1 X7.627 Y1.937
G1 X7.6264 Y2.7475
G1 X7.6455 Y2.9346
G1 X7.7048 Y3.1241
G1 X7.8078 Y3.3058
G1 X7.9333 Y3.446
G1 X8.0926 Y3.5645
G1 X8.2828 Y3.6509
G1 X8.4668 Y3.6906
G1 X8.6653 Y3.6928
G1 X8.87 Y3.6509
G1 X9.0421 Y3.5749
G1 X9.2039 Y3.46
G1 X9.3507 Y3.2971
G1 X9.448 Y3.1241
G1 X9.5057 Y2.945
G1 X9.5264 Y2.7475
G1 X9.5264 Y1.9474
G04 P0 ( dwell for no time -- G64 should not smooth over this point )
G0 Z5
(Block-name: block)
(Block-expand: 0)
(Block-enable: 1)

G0 X19.6864 Y1.9474
G01 F300.00000
G1 Z-0.05
G04 P0 ( dwell for no time -- G64 should not smooth over this point )
G01 F600.00000
G1 X19.6864 Y1.9474
G1 X19.6673 Y1.7603
G1 X19.608 Y1.5708
G1 X19.505 Y1.3891
G1 X19.3639 Y1.2349
G1 X19.2021 Y1.12
G1 X19.0397 Y1.0477
G1 X18.8253 Y1.0021
G1 X18.6268 Y1.0043
G1 X18.453 Y1.0412
G1 X18.2707 Y1.12
G1 X18.0933 Y1.2489
G1 X17.9678 Y1.3891
G1 X17.8733 Y1.5517
G1 X17.8072 Y1.7499
G1 X17.7864 Y1.9474
G1 X17.787 Y2.7579
G1 X17.8072 Y2.945
G1 X17.8648 Y3.1241
G1 X17.9678 Y3.3058
G1 X18.1089 Y3.46
G1 X18.262 Y3.5705
G1 X18.3864 Y3.6245
G1 X18.3864 Y4.2027
G1 X9.6046 Y12.9845
G1 X9.533 Y13.0892
G1 X9.5026 Y13.2222
G1 X9.5112 Y30.9332
G1 X9.556 Y31.0414
G1 X9.6046 Y31.1029
G1 X15.7371 Y37.2354
G1 X15.733 Y38.0962
G1 X15.7532 Y38.2832
G1 X15.8193 Y38.4814
G1 X15.9204 Y38.6523
G1 X16.0549 Y38.7983
G1 X16.1986 Y38.9027
G1 X16.3791 Y38.9855
G1 X16.5831 Y39.0305
G1 X16.7817 Y39.0305
G1 X16.9659 Y38.9919
G1 X17.1662 Y38.9027
G1 X17.31 Y38.7983
G1 X17.4444 Y38.6523
G1 X17.554 Y38.4623
G1 X17.6117 Y38.2832
G1 X17.6318 Y38.0962
G1 X17.6318 Y37.2753
G1 X17.6117 Y37.0882
G1 X17.554 Y36.9091
G1 X17.451 Y36.7273
G1 X17.3255 Y36.5871
G1 X17.1662 Y36.4687
G1 X16.976 Y36.3822
G1 X16.792 Y36.3426
G1 X16.5936 Y36.3404
G1 X16.3888 Y36.3822
G1 X16.2167 Y36.4582
G1 X16.0606 Y36.569
G1 X10.2021 Y30.7104
G1 X10.2021 Y13.377
G1 X18.9905 Y4.5879
G1 X19.0556 Y4.4905
G1 X19.0811 Y4.4063
G1 X19.0864 Y3.6245
G1 X19.2108 Y3.5705
G1 X19.3639 Y3.46
G1 X19.4984 Y3.314
G1 X19.5995 Y3.1432
G1 X19.6657 Y2.945
G1 X19.6864 Y2.7475
G1 X19.6864 Y1.9474
G04 P0 ( dwell for no time -- G64 should not smooth over this point )
G0 Z5
(Block-name: block)
(Block-expand: 0)
(Block-enable: 1)

G0 X22.2264 Y1.9474
G01 F300.00000
G1 Z-0.05
G04 P0 ( dwell for no time -- G64 should not smooth over this point )
G01 F600.00000
G1 X22.2264 Y1.9474
G1 X22.2057 Y1.7499
G1 X22.148 Y1.5708
G1 X22.045 Y1.3891
G1 X21.9039 Y1.2349
G1 X21.7421 Y1.12
G1 X21.57 Y1.044
G1 X21.3653 Y1.0021
G1 X21.1668 Y1.0043
G1 X20.9828 Y1.044
G1 X20.7926 Y1.1304
G1 X20.6407 Y1.2415
G1 X20.5144 Y1.3809
G1 X20.4085 Y1.561
G1 X20.3455 Y1.7603
G1 X20.3264 Y1.9474
G1 X20.3264 Y2.7475
G1 X20.3455 Y2.9346
G1 X20.4048 Y3.1241
G1 X20.5144 Y3.314
G1 X20.6489 Y3.46
G1 X20.802 Y3.5705
G1 X20.9264 Y3.6245
G1 X20.9264 Y4.2027
G1 X16.4349 Y8.6942
G1 X16.3864 Y8.7557
G1 X16.3415 Y8.8639
G1 X16.3324 Y21.1687
G1 X16.208 Y21.2227
G1 X16.0467 Y21.3397
G1 X15.9138 Y21.4873
G1 X15.8108 Y21.6691
G1 X15.7532 Y21.8482
G1 X15.733 Y22.0353
G1 X15.7324 Y22.8457
G1 X15.7559 Y23.0534
G1 X15.8193 Y23.2414
G1 X15.9138 Y23.4041
G1 X16.0393 Y23.5443
G1 X16.1986 Y23.6628
G1 X16.399 Y23.7519
G1 X16.5831 Y23.7905
G1 X16.792 Y23.7889
G1 X16.9857 Y23.7455
G1 X17.1662 Y23.6628
G1 X17.31 Y23.5583
G1 X17.451 Y23.4041
G1 X17.5455 Y23.2414
G1 X17.6117 Y23.0432
G1 X17.6324 Y22.8457
G1 X17.6318 Y22.0353
G1 X17.6117 Y21.8482
G1 X17.554 Y21.6691
G1 X17.451 Y21.4873
G1 X17.3181 Y21.3397
G1 X17.1568 Y21.2227
G1 X17.0324 Y21.1687
G1 X17.0324 Y9.0867
G1 X21.5616 Y4.5501
G1 X21.6031 Y4.4724
G1 X21.6259 Y4.3575
G1 X21.6264 Y3.6245
G1 X21.7508 Y3.5705
G1 X21.9039 Y3.46
G1 X22.0384 Y3.314
G1 X22.1395 Y3.1432
G1 X22.2057 Y2.945
G1 X22.2264 Y2.7475
G1 X22.2264 Y1.9474
G04 P0 ( dwell for no time -- G64 should not smooth over this point )
G0 Z5
(Block-name: block)
(Block-expand: 0)
(Block-enable: 1)

G0 X24.7664 Y1.9474
G01 F300.00000
G1 Z-0.05
G04 P0 ( dwell for no time -- G64 should not smooth over this point )
G01 F600.00000
G1 X24.7664 Y1.9474
G1 X24.7429 Y1.7398
G1 X24.6843 Y1.561
G1 X24.5907 Y1.3979
G1 X24.4439 Y1.2349
G1 X24.2821 Y1.12
G1 X24.11 Y1.044
G1 X23.9053 Y1.0021
G1 X23.7068 Y1.0043
G1 X23.5228 Y1.044
G1 X23.3326 Y1.1304
G1 X23.1807 Y1.2415
G1 X23.0544 Y1.3809
G1 X22.9485 Y1.561
G1 X22.8855 Y1.7603
G1 X22.8664 Y1.9474
G1 X22.8664 Y2.7475
G1 X22.8855 Y2.9346
G1 X22.9448 Y3.1241
G1 X23.0544 Y3.314
G1 X23.1889 Y3.46
G1 X23.342 Y3.5705
G1 X23.4664 Y3.6245
G1 X23.4664 Y4.2027
G1 X18.9749 Y8.6942
G1 X18.9264 Y8.7557
G1 X18.8815 Y8.8639
G1 X18.8724 Y21.1687
G1 X18.748 Y21.2227
G1 X18.5793 Y21.3471
G1 X18.4482 Y21.4961
G1 X18.3508 Y21.6691
G1 X18.2959 Y21.8381
G1 X18.273 Y22.0353
G1 X18.2724 Y22.8457
G1 X18.2959 Y23.0534
G1 X18.3545 Y23.2321
G1 X18.4538 Y23.4041
G1 X18.5793 Y23.5443
G1 X18.7386 Y23.6628
G1 X18.939 Y23.7519
G1 X19.1231 Y23.7905
G1 X19.332 Y23.7889
G1 X19.5257 Y23.7455
G1 X19.6974 Y23.6684
G1 X19.85 Y23.5583
G1 X19.991 Y23.4041
G1 X20.0903 Y23.2321
G1 X20.1517 Y23.0432
G1 X20.1724 Y22.8457
G1 X20.1718 Y22.0353
G1 X20.1517 Y21.8482
G1 X20.094 Y21.6691
G1 X19.991 Y21.4873
G1 X19.8655 Y21.3471
G1 X19.6968 Y21.2227
G1 X19.5724 Y21.1687
G1 X19.5724 Y9.0867
G1 X24.1016 Y4.5501
G1 X24.1431 Y4.4724
G1 X24.1659 Y4.3575
G1 X24.1664 Y3.6245
G1 X24.2908 Y3.5705
G1 X24.4439 Y3.46
G1 X24.5784 Y3.314
G1 X24.6795 Y3.1432
G1 X24.7457 Y2.945
G1 X24.7664 Y2.7475
G1 X24.7664 Y1.9474
G04 P0 ( dwell for no time -- G64 should not smooth over this point )
G0 Z5
(Block-name: block)
(Block-expand: 0)
(Block-enable: 1)

G0 X28.8264 Y1.9474
G01 F300.00000
G1 Z-0.05
G04 P0 ( dwell for no time -- G64 should not smooth over this point )
G01 F600.00000
G1 X28.8264 Y1.9474
G1 X28.8029 Y1.7398
G1 X28.7443 Y1.561
G1 X28.6507 Y1.3979
G1 X28.5039 Y1.2349
G1 X28.3421 Y1.12
G1 X28.17 Y1.044
G1 X27.9653 Y1.0021
G1 X27.7668 Y1.0043
G1 X27.5828 Y1.044
G1 X27.3926 Y1.1304
G1 X27.2407 Y1.2415
G1 X27.1144 Y1.3809
G1 X27.0085 Y1.561
G1 X26.9455 Y1.7603
G1 X26.9264 Y1.9474
G1 X26.9264 Y2.7475
G1 X26.9455 Y2.9346
G1 X27.0048 Y3.1241
G1 X27.1144 Y3.314
G1 X27.2489 Y3.46
G1 X27.402 Y3.5705
G1 X27.5264 Y3.6245
G1 X27.5264 Y4.2027
G1 X21.5149 Y10.2142
G1 X21.4358 Y10.337
G1 X21.4124 Y10.4617
G1 X21.4124 Y21.1687
G1 X21.288 Y21.2227
G1 X21.1267 Y21.3397
G1 X20.9938 Y21.4873
G1 X20.8908 Y21.6691
G1 X20.8332 Y21.8482
G1 X20.813 Y22.0353
G1 X20.8124 Y22.8457
G1 X20.8359 Y23.0534
G1 X20.8993 Y23.2414
G1 X20.9938 Y23.4041
G1 X21.1349 Y23.5583
G1 X21.2874 Y23.6684
G1 X21.4591 Y23.7455
G1 X21.6631 Y23.7905
G1 X21.8617 Y23.7905
G1 X22.056 Y23.7492
G1 X22.2462 Y23.6628
G1 X22.39 Y23.5583
G1 X22.5244 Y23.4123
G1 X22.6255 Y23.2414
G1 X22.6917 Y23.0432
G1 X22.7124 Y22.8457
G1 X22.7118 Y22.0353
G1 X22.6917 Y21.8482
G1 X22.634 Y21.6691
G1 X22.531 Y21.4873
G1 X22.3981 Y21.3397
G1 X22.2368 Y21.2227
G1 X22.1124 Y21.1687
G1 X22.1124 Y10.6067
G1 X28.1616 Y4.5501
G1 X28.2031 Y4.4724
G1 X28.2259 Y4.3575
G1 X28.2264 Y3.6245
G1 X28.3508 Y3.5705
G1 X28.5039 Y3.46
G1 X28.6384 Y3.314
G1 X28.7395 Y3.1432
G1 X28.8056 Y2.945
G1 X28.8264 Y2.7475
G1 X28.8264 Y1.9474
G04 P0 ( dwell for no time -- G64 should not smooth over this point )
G0 Z5
(Block-name: block)
(Block-expand: 0)
(Block-enable: 1)

G0 X31.3664 Y1.9474
G01 F300.00000
G1 Z-0.05
G04 P0 ( dwell for no time -- G64 should not smooth over this point )
G01 F600.00000
G1 X31.3664 Y1.9474
G1 X31.3429 Y1.7398
G1 X31.2843 Y1.561
G1 X31.1907 Y1.3979
G1 X31.0439 Y1.2349
G1 X30.8821 Y1.12
G1 X30.71 Y1.044
G1 X30.5053 Y1.0021
G1 X30.3068 Y1.0043
G1 X30.1228 Y1.044
G1 X29.9326 Y1.1304
G1 X29.7807 Y1.2415
G1 X29.6544 Y1.3809
G1 X29.5485 Y1.561
G1 X29.4855 Y1.7603
G1 X29.4664 Y1.9474
G1 X29.4664 Y2.7475
G1 X29.4855 Y2.9346
G1 X29.5448 Y3.1241
G1 X29.6544 Y3.314
G1 X29.7889 Y3.46
G1 X29.942 Y3.5705
G1 X30.0664 Y3.6245
G1 X30.0664 Y4.2027
G1 X24.0549 Y10.2142
G1 X23.9758 Y10.337
G1 X23.9524 Y10.4617
G1 X23.9524 Y21.1687
G1 X23.828 Y21.2227
G1 X23.6667 Y21.3397
G1 X23.5338 Y21.4873
G1 X23.4308 Y21.6691
G1 X23.3759 Y21.8381
G1 X23.353 Y22.0353
G1 X23.3524 Y22.8457
G1 X23.3759 Y23.0534
G1 X23.4345 Y23.2321
G1 X23.5338 Y23.4041
G1 X23.6749 Y23.5583
G1 X23.8274 Y23.6684
G1 X23.9991 Y23.7455
G1 X24.2031 Y23.7905
G1 X24.4017 Y23.7905
G1 X24.596 Y23.7492
G1 X24.7862 Y23.6628
G1 X24.93 Y23.5583
G1 X25.0644 Y23.4123
G1 X25.1655 Y23.2414
G1 X25.2289 Y23.0534
G1 X25.2524 Y22.8457
G1 X25.2518 Y22.0353
G1 X25.2289 Y21.8381
G1 X25.174 Y21.6691
G1 X25.071 Y21.4873
G1 X24.9381 Y21.3397
G1 X24.7768 Y21.2227
G1 X24.6524 Y21.1687
G1 X24.6524 Y10.6067
G1 X30.7016 Y4.5501
G1 X30.7431 Y4.4724
G1 X30.7659 Y4.3575
G1 X30.7664 Y3.6245
G1 X30.8908 Y3.5705
G1 X31.0439 Y3.46
G1 X31.1784 Y3.314
G1 X31.2795 Y3.1432
G1 X31.3456 Y2.945
G1 X31.3664 Y2.7475
G1 X31.3664 Y1.9474
G04 P0 ( dwell for no time -- G64 should not smooth over this point )
G0 Z5
(Block-name: block)
(Block-expand: 0)
(Block-enable: 1)

G0 X33.9064 Y1.9474
G01 F300.00000
G1 Z-0.05
G04 P0 ( dwell for no time -- G64 should not smooth over this point )
G01 F600.00000
G1 X33.9064 Y1.9474
G1 X33.8856 Y1.7499
G1 X33.828 Y1.5708
G1 X33.7307 Y1.3979
G1 X33.5995 Y1.2489
G1 X33.4221 Y1.12
G1 X33.25 Y1.044
G1 X33.0453 Y1.0021
G1 X32.8468 Y1.0043
G1 X32.6628 Y1.044
G1 X32.4907 Y1.12
G1 X32.3289 Y1.2349
G1 X32.1944 Y1.3809
G1 X32.0933 Y1.5517
G1 X32.0255 Y1.7603
G1 X32.0064 Y1.9474
G1 X32.0064 Y2.7475
G1 X32.0299 Y2.9551
G1 X32.0933 Y3.1432
G1 X32.1944 Y3.314
G1 X32.3289 Y3.46
G1 X32.482 Y3.5705
G1 X32.6064 Y3.6245
G1 X32.6064 Y11.2427
G1 X26.5949 Y17.2541
G1 X26.5158 Y17.3769
G1 X26.4924 Y17.5016
G1 X26.4924 Y21.1687
G1 X26.368 Y21.2227
G1 X26.2067 Y21.3397
G1 X26.0738 Y21.4873
G1 X25.9708 Y21.6691
G1 X25.9159 Y21.8381
G1 X25.893 Y22.0353
G1 X25.8924 Y22.8457
G1 X25.9159 Y23.0534
G1 X25.9745 Y23.2321
G1 X26.0738 Y23.4041
G1 X26.2149 Y23.5583
G1 X26.3674 Y23.6684
G1 X26.5391 Y23.7455
G1 X26.7431 Y23.7905
G1 X26.9417 Y23.7905
G1 X27.136 Y23.7492
G1 X27.3262 Y23.6628
G1 X27.4855 Y23.5443
G1 X27.611 Y23.4041
G1 X27.714 Y23.2223
G1 X27.7733 Y23.0329
G1 X27.7924 Y22.8457
G1 X27.7924 Y22.0457
G1 X27.7689 Y21.8381
G1 X27.7103 Y21.6593
G1 X27.6044 Y21.4792
G1 X27.47 Y21.3331
G1 X27.3168 Y21.2227
G1 X27.1924 Y21.1687
G1 X27.1924 Y17.6466
G1 X33.2039 Y11.6351
G1 X33.2831 Y11.5123
G1 X33.3064 Y11.3876
G1 X33.3064 Y3.6245
G1 X33.4308 Y3.5705
G1 X33.5995 Y3.446
G1 X33.725 Y3.3058
G1 X33.828 Y3.1241
G1 X33.8856 Y2.945
G1 X33.9059 Y2.7579
G1 X33.9064 Y1.9474
G04 P0 ( dwell for no time -- G64 should not smooth over this point )
G0 Z5
(Block-name: block)
(Block-expand: 0)
(Block-enable: 1)

G0 X36.4464 Y1.9474
G01 F300.00000
G1 Z-0.05
G04 P0 ( dwell for no time -- G64 should not smooth over this point )
G01 F600.00000
G1 X36.4464 Y1.9474
G1 X36.4229 Y1.7398
G1 X36.3643 Y1.561
G1 X36.2707 Y1.3979
G1 X36.1395 Y1.2489
G1 X35.9621 Y1.12
G1 X35.79 Y1.044
G1 X35.5853 Y1.0021
G1 X35.3868 Y1.0043
G1 X35.2028 Y1.044
G1 X35.0307 Y1.12
G1 X34.8689 Y1.2349
G1 X34.7344 Y1.3809
G1 X34.6333 Y1.5517
G1 X34.5655 Y1.7603
G1 X34.5464 Y1.9474
G1 X34.5464 Y2.7475
G1 X34.5699 Y2.9551
G1 X34.6333 Y3.1432
G1 X34.7344 Y3.314
G1 X34.8689 Y3.46
G1 X35.022 Y3.5705
G1 X35.1464 Y3.6245
G1 X35.1464 Y10.2885
G1 X29.1349 Y16.2999
G1 X29.0558 Y16.4227
G1 X29.0324 Y16.5474
G1 X29.0324 Y21.1687
G1 X28.908 Y21.2227
G1 X28.7467 Y21.3397
G1 X28.6138 Y21.4873
G1 X28.5108 Y21.6691
G1 X28.4559 Y21.8381
G1 X28.433 Y22.0353
G1 X28.4324 Y22.8457
G1 X28.4559 Y23.0534
G1 X28.5145 Y23.2321
G1 X28.6138 Y23.4041
G1 X28.7549 Y23.5583
G1 X28.9074 Y23.6684
G1 X29.0791 Y23.7455
G1 X29.2831 Y23.7905
G1 X29.4817 Y23.7905
G1 X29.6857 Y23.7455
G1 X29.8662 Y23.6628
G1 X30.0255 Y23.5443
G1 X30.1567 Y23.3953
G1 X30.254 Y23.2223
G1 X30.3089 Y23.0534
G1 X30.3318 Y22.8562
G1 X30.3318 Y22.0353
G1 X30.3089 Y21.8381
G1 X30.254 Y21.6691
G1 X30.151 Y21.4873
G1 X30.0181 Y21.3397
G1 X29.8568 Y21.2227
G1 X29.7324 Y21.1687
G1 X29.7324 Y16.6924
G1 X35.7439 Y10.6809
G1 X35.8231 Y10.5581
G1 X35.8464 Y10.4334
G1 X35.8464 Y3.6245
G1 X35.9708 Y3.5705
G1 X36.1321 Y3.4534
G1 X36.2707 Y3.2971
G1 X36.368 Y3.1241
G1 X36.4256 Y2.945
G1 X36.4459 Y2.7579
G1 X36.4464 Y1.9474
G04 P0 ( dwell for no time -- G64 should not smooth over this point )
G0 Z5
(Block-name: block)
(Block-expand: 0)
(Block-enable: 1)

G0 X38.9864 Y1.9474
G01 F300.00000
G1 Z-0.05
G04 P0 ( dwell for no time -- G64 should not smooth over this point )
G01 F600.00000
G1 X38.9864 Y1.9474
G1 X38.9629 Y1.7398
G1 X38.9043 Y1.561
G1 X38.8107 Y1.3979
G1 X38.6795 Y1.2489
G1 X38.5021 Y1.12
G1 X38.33 Y1.044
G1 X38.1253 Y1.0021
G1 X37.9268 Y1.0043
G1 X37.7428 Y1.044
G1 X37.5707 Y1.12
G1 X37.4089 Y1.2349
G1 X37.2744 Y1.3809
G1 X37.1733 Y1.5517
G1 X37.1055 Y1.7603
G1 X37.0864 Y1.9474
G1 X37.0864 Y2.7475
G1 X37.1099 Y2.9551
G1 X37.1733 Y3.1432
G1 X37.2744 Y3.314
G1 X37.4089 Y3.46
G1 X37.562 Y3.5705
G1 X37.6864 Y3.6245
G1 X37.6864 Y10.4596
G1 X31.6749 Y16.471
G1 X31.5958 Y16.5938
G1 X31.5724 Y16.7185
G1 X31.5724 Y21.1687
G1 X31.448 Y21.2227
G1 X31.2867 Y21.3397
G1 X31.1538 Y21.4873
G1 X31.0508 Y21.6691
G1 X30.9959 Y21.8381
G1 X30.973 Y22.0353
G1 X30.9724 Y22.8457
G1 X30.9959 Y23.0534
G1 X31.0545 Y23.2321
G1 X31.1538 Y23.4041
G1 X31.2949 Y23.5583
G1 X31.4474 Y23.6684
G1 X31.6191 Y23.7455
G1 X31.8231 Y23.7905
G1 X32.0217 Y23.7905
G1 X32.216 Y23.7492
G1 X32.4062 Y23.6628
G1 X32.5655 Y23.5443
G1 X32.6967 Y23.3953
G1 X32.794 Y23.2223
G1 X32.8489 Y23.0534
G1 X32.8718 Y22.8562
G1 X32.8718 Y22.0353
G1 X32.8489 Y21.8381
G1 X32.794 Y21.6691
G1 X32.691 Y21.4873
G1 X32.5581 Y21.3397
G1 X32.3968 Y21.2227
G1 X32.2724 Y21.1687
G1 X32.2724 Y16.8635
G1 X38.2839 Y10.852
G1 X38.3631 Y10.7292
G1 X38.3864 Y10.6045
G1 X38.3864 Y3.6245
G1 X38.5108 Y3.5705
G1 X38.6721 Y3.4534
G1 X38.8107 Y3.2971
G1 X38.908 Y3.1241
G1 X38.9629 Y2.9551
G1 X38.9859 Y2.7579
G1 X38.9864 Y1.9474
G04 P0 ( dwell for no time -- G64 should not smooth over this point )
G0 Z5
(Block-name: block)
(Block-expand: 0)
(Block-enable: 1)

G0 X41.5264 Y1.9474
G01 F300.00000
G1 Z-0.05
G04 P0 ( dwell for no time -- G64 should not smooth over this point )
G01 F600.00000
G1 X41.5264 Y1.9474
G1 X41.5029 Y1.7398
G1 X41.4443 Y1.561
G1 X41.3507 Y1.3979
G1 X41.2195 Y1.2489
G1 X41.0421 Y1.12
G1 X40.87 Y1.044
G1 X40.6653 Y1.0021
G1 X40.4668 Y1.0043
G1 X40.2828 Y1.044
G1 X40.1107 Y1.12
G1 X39.9489 Y1.2349
G1 X39.8144 Y1.3809
G1 X39.7133 Y1.5517
G1 X39.6455 Y1.7603
G1 X39.6264 Y1.9474
G1 X39.6264 Y2.7475
G1 X39.6499 Y2.9551
G1 X39.7133 Y3.1432
G1 X39.8144 Y3.314
G1 X39.9489 Y3.46
G1 X40.102 Y3.5705
G1 X40.2264 Y3.6245
G1 X40.2264 Y11.2567
G1 X34.2149 Y17.2681
G1 X34.1358 Y17.3909
G1 X34.1124 Y17.5156
G1 X34.1124 Y21.1687
G1 X33.988 Y21.2227
G1 X33.8267 Y21.3397
G1 X33.6938 Y21.4873
G1 X33.5908 Y21.6691
G1 X33.5332 Y21.8482
G1 X33.513 Y22.0353
G1 X33.5124 Y22.8457
G1 X33.5359 Y23.0534
G1 X33.5993 Y23.2414
G1 X33.6938 Y23.4041
G1 X33.8349 Y23.5583
G1 X33.9874 Y23.6684
G1 X34.1591 Y23.7455
G1 X34.3631 Y23.7905
G1 X34.5617 Y23.7905
G1 X34.756 Y23.7492
G1 X34.9462 Y23.6628
G1 X35.1055 Y23.5443
G1 X35.231 Y23.4041
G1 X35.334 Y23.2223
G1 X35.3933 Y23.0329
G1 X35.4124 Y22.8457
G1 X35.4124 Y22.0457
G1 X35.3889 Y21.8381
G1 X35.3255 Y21.65
G1 X35.2244 Y21.4792
G1 X35.09 Y21.3331
G1 X34.9368 Y21.2227
G1 X34.8124 Y21.1687
G1 X34.8124 Y17.6606
G1 X40.8239 Y11.6491
G1 X40.9031 Y11.5263
G1 X40.9264 Y11.4016
G1 X40.9264 Y3.6245
G1 X41.0508 Y3.5705
G1 X41.2121 Y3.4534
G1 X41.3507 Y3.2971
G1 X41.448 Y3.1241
G1 X41.5056 Y2.945
G1 X41.5259 Y2.7579
G1 X41.5264 Y1.9474
G04 P0 ( dwell for no time -- G64 should not smooth over this point )
G0 Z5
(Block-name: block)
(Block-expand: 0)
(Block-enable: 1)

G0 X46.6064 Y1.9474
G01 F300.00000
G1 Z-0.05
G04 P0 ( dwell for no time -- G64 should not smooth over this point )
G01 F600.00000
G1 X46.6064 Y1.9474
G1 X46.6064 Y2.7475
G1 X46.5829 Y2.9551
G1 X46.5195 Y3.1432
G1 X46.4184 Y3.314
G1 X46.2839 Y3.46
G1 X46.1308 Y3.5705
G1 X46.0064 Y3.6245
G1 X46.0059 Y4.3575
G1 X45.9831 Y4.4724
G1 X45.9416 Y4.5501
G1 X42.4324 Y8.0667
G1 X42.4324 Y21.1687
G1 X42.5568 Y21.2227
G1 X42.7181 Y21.3397
G1 X42.851 Y21.4873
G1 X42.954 Y21.6691
G1 X43.0089 Y21.8381
G1 X43.0318 Y22.0353
G1 X43.0324 Y22.8457
G1 X43.0089 Y23.0534
G1 X42.9455 Y23.2414
G1 X42.851 Y23.4041
G1 X42.71 Y23.5583
G1 X42.5574 Y23.6684
G1 X42.3857 Y23.7455
G1 X42.192 Y23.7889
G1 X41.9831 Y23.7905
G1 X41.799 Y23.7519
G1 X41.5986 Y23.6628
G1 X41.4393 Y23.5443
G1 X41.3138 Y23.4041
G1 X41.2145 Y23.2321
G1 X41.1559 Y23.0534
G1 X41.1324 Y22.8457
G1 X41.133 Y22.0353
G1 X41.1559 Y21.8381
G1 X41.2108 Y21.6691
G1 X41.3138 Y21.4873
G1 X41.4467 Y21.3397
G1 X41.608 Y21.2227
G1 X41.7324 Y21.1687
G1 X41.7415 Y7.8439
G1 X41.7864 Y7.7357
G1 X41.8349 Y7.6742
G1 X45.3064 Y4.2027
G1 X45.3064 Y3.6245
G1 X45.182 Y3.5705
G1 X45.0289 Y3.46
G1 X44.8944 Y3.314
G1 X44.7848 Y3.1241
G1 X44.7255 Y2.9346
G1 X44.7064 Y2.7475
G1 X44.7064 Y1.9474
G1 X44.7255 Y1.7603
G1 X44.7885 Y1.561
G1 X44.8944 Y1.3809
G1 X45.0207 Y1.2415
G1 X45.1726 Y1.1304
G1 X45.3628 Y1.044
G1 X45.5676 Y1.0021
G1 X45.7661 Y1.0043
G1 X45.95 Y1.044
G1 X46.1221 Y1.12
G1 X46.2839 Y1.2349
G1 X46.4307 Y1.3979
G1 X46.5243 Y1.561
G1 X46.5829 Y1.7398
G1 X46.6064 Y1.9474
G04 P0 ( dwell for no time -- G64 should not smooth over this point )
G0 Z5
(Block-name: block)
(Block-expand: 0)
(Block-enable: 1)

G0 X47.6169 Y1.268
G01 F300.00000
G1 Z-0.05
G04 P0 ( dwell for no time -- G64 should not smooth over this point )
G01 F600.00000
G1 X47.6169 Y1.268
G1 X47.6078 Y7.9465
G1 X47.563 Y8.0548
G1 X47.5144 Y8.1162
G1 X44.9724 Y10.6582
G1 X44.9724 Y21.1687
G1 X45.0968 Y21.2227
G1 X45.2581 Y21.3397
G1 X45.391 Y21.4873
G1 X45.494 Y21.6691
G1 X45.5489 Y21.8381
G1 X45.5718 Y22.0353
G1 X45.5724 Y22.8457
G1 X45.5489 Y23.0534
G1 X45.4855 Y23.2414
G1 X45.391 Y23.4041
G1 X45.25 Y23.5583
G1 X45.0881 Y23.6732
G1 X44.916 Y23.7492
G1 X44.7217 Y23.7905
G1 X44.5231 Y23.7905
G1 X44.3191 Y23.7455
G1 X44.1474 Y23.6684
G1 X43.9949 Y23.5583
G1 X43.8604 Y23.4123
G1 X43.7508 Y23.2223
G1 X43.6915 Y23.0329
G1 X43.6724 Y22.8457
G1 X43.673 Y22.0353
G1 X43.6959 Y21.8381
G1 X43.7508 Y21.6691
G1 X43.8538 Y21.4873
G1 X43.9867 Y21.3397
G1 X44.148 Y21.2227
G1 X44.2724 Y21.1687
G1 X44.2777 Y10.4547
G1 X44.3032 Y10.3704
G1 X44.3749 Y10.2657
G1 X46.9169 Y7.7237
G1 X46.9169 Y1.413
G1 X46.201 Y0.6971
G1 X43.4664 Y0.6971
G1 X43.4664 Y1.0704
G1 X43.5908 Y1.1244
G1 X43.7439 Y1.2349
G1 X43.8784 Y1.3809
G1 X43.9843 Y1.561
G1 X44.0429 Y1.7398
G1 X44.0664 Y1.9474
G1 X44.0659 Y2.7579
G1 X44.0456 Y2.945
G1 X43.988 Y3.1241
G1 X43.8907 Y3.2971
G1 X43.7595 Y3.446
G1 X43.5821 Y3.5749
G1 X43.41 Y3.6509
G1 X43.2053 Y3.6928
G1 X43.0276 Y3.6928
G1 X42.833 Y3.6537
G1 X42.6507 Y3.5749
G1 X42.4733 Y3.446
G1 X42.3421 Y3.2971
G1 X42.2533 Y3.1432
G1 X42.1872 Y2.945
G1 X42.1664 Y2.7475
G1 X42.1664 Y1.9474
G1 X42.1855 Y1.7603
G1 X42.2485 Y1.561
G1 X42.3544 Y1.3809
G1 X42.4889 Y1.2349
G1 X42.642 Y1.1244
G1 X42.7664 Y1.0704
G1 X42.7664 Y0.3471
G1 X42.7897 Y0.2224
G1 X42.8312 Y0.1448
G1 X42.9141 Y0.062
G1 X42.9917 Y0.0205
G1 X43.1066 Y-0.0024
G1 X46.4238 Y0.0062
G1 X46.532 Y0.0511
G1 X46.5935 Y0.0996
G1 X47.5144 Y1.0205
G1 X47.5861 Y1.1252
G1 X47.6169 Y1.268
G04 P0 ( dwell for no time -- G64 should not smooth over this point )
G0 Z5
(Block-name: block)
(Block-expand: 0)
(Block-enable: 1)

G0 X37.9524 Y22.0457
G01 F300.00000
G1 Z-0.05
G04 P0 ( dwell for no time -- G64 should not smooth over this point )
G01 F600.00000
G1 X37.9524 Y22.0457
G1 X37.9289 Y21.8381
G1 X37.8703 Y21.6593
G1 X37.7767 Y21.4961
G1 X37.6381 Y21.3397
G1 X37.4681 Y21.2183
G1 X37.296 Y21.1422
G1 X37.112 Y21.1026
G1 X36.9031 Y21.1009
G1 X36.6991 Y21.146
G1 X36.5186 Y21.2287
G1 X36.3749 Y21.3331
G1 X36.2338 Y21.4873
G1 X36.1345 Y21.6593
G1 X36.0759 Y21.8381
G1 X36.053 Y22.0353
G1 X36.0524 Y22.8457
G1 X36.0715 Y23.0329
G1 X36.1345 Y23.2321
G1 X36.2338 Y23.4041
G1 X36.3749 Y23.5583
G1 X36.5274 Y23.6684
G1 X36.6991 Y23.7455
G1 X36.9031 Y23.7905
G1 X37.1017 Y23.7905
G1 X37.296 Y23.7492
G1 X37.4681 Y23.6732
G1 X37.63 Y23.5583
G1 X37.7767 Y23.3953
G1 X37.874 Y23.2223
G1 X37.9289 Y23.0534
G1 X37.9524 Y22.8457
G1 X37.9524 Y22.0457
G04 P0 ( dwell for no time -- G64 should not smooth over this point )
G0 Z5
(Block-name: block)
(Block-expand: 0)
(Block-enable: 1)

G0 X40.4924 Y22.0457
G01 F300.00000
G1 Z-0.05
G04 P0 ( dwell for no time -- G64 should not smooth over this point )
G01 F600.00000
G1 X40.4924 Y22.0457
G1 X40.4689 Y21.8381
G1 X40.4103 Y21.6593
G1 X40.3167 Y21.4961
G1 X40.1781 Y21.3397
G1 X40.0081 Y21.2183
G1 X39.836 Y21.1422
G1 X39.652 Y21.1026
G1 X39.4431 Y21.1009
G1 X39.2391 Y21.146
G1 X39.0586 Y21.2287
G1 X38.9149 Y21.3331
G1 X38.7738 Y21.4873
G1 X38.6745 Y21.6593
G1 X38.6159 Y21.8381
G1 X38.593 Y22.0353
G1 X38.5924 Y22.8457
G1 X38.6115 Y23.0329
G1 X38.6745 Y23.2321
G1 X38.7738 Y23.4041
G1 X38.9149 Y23.5583
G1 X39.0674 Y23.6684
G1 X39.2391 Y23.7455
G1 X39.4431 Y23.7905
G1 X39.6417 Y23.7905
G1 X39.836 Y23.7492
G1 X40.0081 Y23.6732
G1 X40.17 Y23.5583
G1 X40.3167 Y23.3953
G1 X40.414 Y23.2223
G1 X40.4689 Y23.0534
G1 X40.4924 Y22.8457
G1 X40.4924 Y22.0457
G04 P0 ( dwell for no time -- G64 should not smooth over this point )
G0 Z5
(Block-name: block)
(Block-expand: 0)
(Block-enable: 1)

G0 X34.2694 Y34.3647
G01 F300.00000
G1 Z-0.05
G04 P0 ( dwell for no time -- G64 should not smooth over this point )
G01 F600.00000
G1 X34.2694 Y34.3647
G1 X34.2694 Y35.1647
G1 X34.2503 Y35.3519
G1 X34.1873 Y35.5511
G1 X34.0814 Y35.7313
G1 X33.9551 Y35.8707
G1 X33.8032 Y35.9817
G1 X33.613 Y36.0682
G1 X33.429 Y36.1079
G1 X33.2098 Y36.1079
G1 X33.0258 Y36.0682
G1 X32.8537 Y35.9922
G1 X32.6763 Y35.8633
G1 X32.5508 Y35.7231
G1 X32.4563 Y35.5604
G1 X32.3885 Y35.3519
G1 X32.3694 Y35.1147
G1 X31.6605 Y35.1094
G1 X31.5763 Y35.0839
G1 X31.4789 Y35.0188
G1 X26.2401 Y29.7807
G1 X12.6395 Y29.7807
G1 X12.6025 Y29.8875
G1 X12.4923 Y30.0773
G1 X12.3459 Y30.2408
G1 X12.1612 Y30.3777
G1 X11.9322 Y30.4796
G1 X11.7069 Y30.5252
G1 X11.4979 Y30.5252
G1 X11.2726 Y30.4796
G1 X11.0617 Y30.3881
G1 X10.8745 Y30.2548
G1 X10.7125 Y30.0773
G1 X10.5975 Y29.8781
G1 X10.5248 Y29.6491
G1 X10.503 Y29.4203
G1 X10.5291 Y29.1919
G1 X10.5975 Y28.9833
G1 X10.7068 Y28.7929
G1 X10.8745 Y28.6067
G1 X11.0617 Y28.4733
G1 X11.2527 Y28.3883
G1 X11.4979 Y28.3362
G1 X11.7069 Y28.3362
G1 X11.9322 Y28.3818
G1 X12.1612 Y28.4838
G1 X12.3459 Y28.6206
G1 X12.4923 Y28.7842
G1 X12.6025 Y28.974
G1 X12.6395 Y29.0807
G1 X26.4629 Y29.0898
G1 X26.5711 Y29.1347
G1 X26.6326 Y29.1832
G1 X31.8641 Y34.4147
G1 X32.3694 Y34.4147
G1 X32.3929 Y34.1571
G1 X32.4515 Y33.9783
G1 X32.5574 Y33.7982
G1 X32.6919 Y33.6521
G1 X32.8444 Y33.542
G1 X33.0258 Y33.4612
G1 X33.2306 Y33.4194
G1 X33.429 Y33.4216
G1 X33.613 Y33.4612
G1 X33.8032 Y33.5477
G1 X33.9625 Y33.6661
G1 X34.088 Y33.8063
G1 X34.1873 Y33.9783
G1 X34.2459 Y34.1571
G1 X34.2694 Y34.3647
G04 P0 ( dwell for no time -- G64 should not smooth over this point )
G0 Z5
(Block-name: block)
(Block-expand: 0)
(Block-enable: 1)

G0 X36.8094 Y34.3622
G01 F300.00000
G1 Z-0.05
G04 P0 ( dwell for no time -- G64 should not smooth over this point )
G01 F600.00000
G1 X36.8094 Y34.3622
G1 X36.8094 Y35.1622
G1 X36.7903 Y35.3494
G1 X36.7225 Y35.5579
G1 X36.628 Y35.7206
G1 X36.4951 Y35.8682
G1 X36.3432 Y35.9792
G1 X36.153 Y36.0657
G1 X35.969 Y36.1054
G1 X35.7706 Y36.1075
G1 X35.5561 Y36.0619
G1 X35.3844 Y35.9849
G1 X35.2163 Y35.8608
G1 X35.0908 Y35.7206
G1 X34.9963 Y35.5579
G1 X34.9285 Y35.3494
G1 X34.9094 Y35.1622
G1 X34.91 Y34.3517
G1 X34.9329 Y34.1546
G1 X34.9878 Y33.9856
G1 X35.0908 Y33.8038
G1 X35.2319 Y33.6496
G1 X35.385 Y33.5391
G1 X35.5094 Y33.4851
G1 X35.5094 Y32.9069
G1 X29.8432 Y27.2407
G1 X12.7024 Y27.2407
G1 X12.7024 Y27.8907
G1 X12.6856 Y27.9463
G1 X12.6407 Y27.9831
G1 X10.6024 Y27.9907
G1 X10.5317 Y27.9614
G1 X10.5024 Y27.8907
G1 X10.51 Y25.8525
G1 X10.5468 Y25.8076
G1 X10.6024 Y25.7907
G1 X12.6407 Y25.7983
G1 X12.6856 Y25.8352
G1 X12.7024 Y25.8907
G1 X12.7024 Y26.5407
G1 X29.9882 Y26.5407
G1 X30.1129 Y26.5641
G1 X30.2357 Y26.6432
G1 X36.1135 Y32.5217
G1 X36.1786 Y32.6191
G1 X36.2041 Y32.7034
G1 X36.2094 Y33.4851
G1 X36.3338 Y33.5391
G1 X36.487 Y33.6496
G1 X36.628 Y33.8038
G1 X36.7273 Y33.9758
G1 X36.7859 Y34.1546
G1 X36.8094 Y34.3622
G04 P0 ( dwell for no time -- G64 should not smooth over this point )
G0 Z5
(Block-name: block)
(Block-expand: 0)
(Block-enable: 1)

G0 X43.0324 Y37.2857
G01 F300.00000
G1 Z-0.05
G04 P0 ( dwell for no time -- G64 should not smooth over this point )
G01 F600.00000
G1 X43.0324 Y37.2857
G1 X43.0324 Y38.0857
G1 X43.0089 Y38.2934
G1 X42.9503 Y38.4721
G1 X42.8567 Y38.6353
G1 X42.71 Y38.7983
G1 X42.5574 Y38.9084
G1 X42.3659 Y38.9919
G1 X42.1817 Y39.0305
G1 X41.9831 Y39.0305
G1 X41.7791 Y38.9855
G1 X41.6074 Y38.9084
G1 X41.4467 Y38.7917
G1 X41.3204 Y38.6523
G1 X41.2145 Y38.4721
G1 X41.1515 Y38.2729
G1 X41.1324 Y38.0857
G1 X41.133 Y37.2753
G1 X41.1559 Y37.0781
G1 X41.2193 Y36.89
G1 X41.3138 Y36.7273
G1 X41.4549 Y36.5731
G1 X41.5986 Y36.4687
G1 X41.7791 Y36.386
G1 X41.9831 Y36.3409
G1 X42.192 Y36.3426
G1 X42.376 Y36.3822
G1 X42.5481 Y36.4582
G1 X42.71 Y36.5731
G1 X42.8567 Y36.7361
G1 X42.9503 Y36.8993
G1 X43.0089 Y37.0781
G1 X43.0324 Y37.2857
G04 P0 ( dwell for no time -- G64 should not smooth over this point )
G0 Z5
(Block-name: block)
(Block-expand: 0)
(Block-enable: 1)

G0 X45.5724 Y37.2857
G01 F300.00000
G1 Z-0.05
G04 P0 ( dwell for no time -- G64 should not smooth over this point )
G01 F600.00000
G1 X45.5724 Y37.2857
G1 X45.5724 Y38.0857
G1 X45.5489 Y38.2934
G1 X45.4903 Y38.4721
G1 X45.3967 Y38.6353
G1 X45.25 Y38.7983
G1 X45.0974 Y38.9084
G1 X44.9059 Y38.9919
G1 X44.7217 Y39.0305
G1 X44.5231 Y39.0305
G1 X44.3191 Y38.9855
G1 X44.1474 Y38.9084
G1 X43.9867 Y38.7917
G1 X43.8604 Y38.6523
G1 X43.7545 Y38.4721
G1 X43.6915 Y38.2729
G1 X43.6724 Y38.0857
G1 X43.673 Y37.2753
G1 X43.6959 Y37.0781
G1 X43.7593 Y36.89
G1 X43.8538 Y36.7273
G1 X43.9949 Y36.5731
G1 X44.1386 Y36.4687
G1 X44.3191 Y36.386
G1 X44.5231 Y36.3409
G1 X44.732 Y36.3426
G1 X44.916 Y36.3822
G1 X45.0881 Y36.4582
G1 X45.25 Y36.5731
G1 X45.3967 Y36.7361
G1 X45.494 Y36.9091
G1 X45.5489 Y37.0781
G1 X45.5724 Y37.2857
G04 P0 ( dwell for no time -- G64 should not smooth over this point )
G0 Z5
(Block-name: block)
(Block-expand: 0)
(Block-enable: 1)

G0 X70.5874 Y23.7157
G01 F300.00000
G1 Z-0.05
G04 P0 ( dwell for no time -- G64 should not smooth over this point )
G01 F600.00000
G1 X70.5874 Y23.7157
G1 X70.5585 Y23.4561
G1 X70.4837 Y23.2277
G1 X70.3582 Y23.0104
G1 X70.1978 Y22.8314
G1 X69.9962 Y22.6822
G1 X69.7582 Y22.5745
G1 X69.5232 Y22.5239
G1 X69.2724 Y22.5218
G1 X69.0068 Y22.5782
G1 X68.7786 Y22.6822
G1 X68.5926 Y22.8174
G1 X68.4109 Y23.0192
G1 X68.2912 Y23.2277
G1 X68.2457 Y23.3657
G1 X48.4395 Y23.3657
G1 X48.3855 Y23.2413
G1 X48.261 Y23.0727
G1 X48.1208 Y22.9472
G1 X47.939 Y22.8441
G1 X47.77 Y22.7892
G1 X47.5729 Y22.7663
G1 X46.752 Y22.7663
G1 X46.5548 Y22.7892
G1 X46.376 Y22.8478
G1 X46.204 Y22.9472
G1 X46.0498 Y23.0882
G1 X45.9349 Y23.2501
G1 X45.8589 Y23.4222
G1 X45.8176 Y23.6164
G1 X45.8171 Y23.8046
G1 X45.8627 Y24.0191
G1 X45.9454 Y24.1995
G1 X46.0638 Y24.3588
G1 X46.204 Y24.4843
G1 X46.376 Y24.5836
G1 X46.5548 Y24.6423
G1 X46.7624 Y24.6657
G1 X47.5729 Y24.6652
G1 X47.77 Y24.6423
G1 X47.939 Y24.5873
G1 X48.112 Y24.49
G1 X48.2684 Y24.3514
G1 X48.3855 Y24.1901
G1 X48.4395 Y24.0657
G1 X68.2457 Y24.0657
G1 X68.2912 Y24.2038
G1 X68.4166 Y24.4211
G1 X68.5771 Y24.6001
G1 X68.7786 Y24.7493
G1 X69.0267 Y24.8597
G1 X69.2516 Y24.9075
G1 X69.5024 Y24.9097
G1 X69.768 Y24.8533
G1 X69.9874 Y24.755
G1 X70.1978 Y24.6001
G1 X70.3582 Y24.4211
G1 X70.4837 Y24.2038
G1 X70.5585 Y23.9753
G1 X70.5874 Y23.7157
G04 P0 ( dwell for no time -- G64 should not smooth over this point )
G0 Z5
(Block-name: block)
(Block-expand: 0)
(Block-enable: 1)

G0 X70.5874 Y26.2557
G01 F300.00000
G1 Z-0.05
G04 P0 ( dwell for no time -- G64 should not smooth over this point )
G01 F600.00000
G1 X70.5874 Y26.2557
G1 X70.5585 Y25.9961
G1 X70.4837 Y25.7677
G1 X70.3582 Y25.5504
G1 X70.1978 Y25.3714
G1 X69.9874 Y25.2165
G1 X69.7582 Y25.1145
G1 X69.5232 Y25.0639
G1 X69.2724 Y25.0618
G1 X69.0068 Y25.1182
G1 X68.7874 Y25.2165
G1 X68.5926 Y25.3574
G1 X68.4109 Y25.5592
G1 X68.2912 Y25.7677
G1 X68.2457 Y25.9057
G1 X48.4395 Y25.9057
G1 X48.3855 Y25.7813
G1 X48.261 Y25.6127
G1 X48.1208 Y25.4872
G1 X47.939 Y25.3841
G1 X47.77 Y25.3292
G1 X47.5729 Y25.3063
G1 X46.752 Y25.3063
G1 X46.5548 Y25.3292
G1 X46.376 Y25.3878
G1 X46.204 Y25.4872
G1 X46.0498 Y25.6282
G1 X45.9349 Y25.7901
G1 X45.8589 Y25.9622
G1 X45.8176 Y26.1564
G1 X45.8171 Y26.3446
G1 X45.8627 Y26.5591
G1 X45.9454 Y26.7395
G1 X46.0638 Y26.8988
G1 X46.204 Y27.0243
G1 X46.376 Y27.1236
G1 X46.5548 Y27.1823
G1 X46.7624 Y27.2057
G1 X47.5729 Y27.2052
G1 X47.77 Y27.1823
G1 X47.939 Y27.1273
G1 X48.112 Y27.03
G1 X48.2684 Y26.8914
G1 X48.3855 Y26.7301
G1 X48.4395 Y26.6057
G1 X68.2457 Y26.6057
G1 X68.2912 Y26.7438
G1 X68.4166 Y26.9611
G1 X68.5771 Y27.1401
G1 X68.7786 Y27.2893
G1 X69.0267 Y27.3997
G1 X69.2516 Y27.4475
G1 X69.5024 Y27.4497
G1 X69.768 Y27.3933
G1 X69.9962 Y27.2893
G1 X70.1978 Y27.1401
G1 X70.3582 Y26.9611
G1 X70.4837 Y26.7438
G1 X70.5585 Y26.5153
G1 X70.5874 Y26.2557
G04 P0 ( dwell for no time -- G64 should not smooth over this point )
G0 Z5
(Block-name: block)
(Block-expand: 0)
(Block-enable: 1)

G0 X70.5874 Y28.7957
G01 F300.00000
G1 Z-0.05
G04 P0 ( dwell for no time -- G64 should not smooth over this point )
G01 F600.00000
G1 X70.5874 Y28.7957
G1 X70.5585 Y28.5361
G1 X70.4837 Y28.3077
G1 X70.3582 Y28.0904
G1 X70.1978 Y27.9114
G1 X69.9962 Y27.7622
G1 X69.7582 Y27.6545
G1 X69.5232 Y27.6039
G1 X69.2724 Y27.6018
G1 X69.0068 Y27.6582
G1 X68.7786 Y27.7622
G1 X68.5926 Y27.8974
G1 X68.4109 Y28.0992
G1 X68.2912 Y28.3077
G1 X68.2457 Y28.4457
G1 X48.4395 Y28.4457
G1 X48.3855 Y28.3213
G1 X48.261 Y28.1527
G1 X48.1208 Y28.0272
G1 X47.939 Y27.9241
G1 X47.77 Y27.8692
G1 X47.5729 Y27.8463
G1 X46.752 Y27.8463
G1 X46.5548 Y27.8692
G1 X46.3667 Y27.9326
G1 X46.204 Y28.0272
G1 X46.0498 Y28.1682
G1 X45.9349 Y28.33
G1 X45.8589 Y28.5022
G1 X45.8176 Y28.6964
G1 X45.8171 Y28.8846
G1 X45.8627 Y29.0991
G1 X45.9454 Y29.2795
G1 X46.0638 Y29.4388
G1 X46.204 Y29.5643
G1 X46.3858 Y29.6673
G1 X46.5752 Y29.7266
G1 X46.7624 Y29.7457
G1 X47.5729 Y29.7452
G1 X47.77 Y29.7223
G1 X47.939 Y29.6673
G1 X48.112 Y29.57
G1 X48.2684 Y29.4314
G1 X48.3855 Y29.2701
G1 X48.4395 Y29.1457
G1 X68.2457 Y29.1457
G1 X68.2912 Y29.2838
G1 X68.4166 Y29.5011
G1 X68.5771 Y29.6801
G1 X68.7786 Y29.8293
G1 X69.0267 Y29.9397
G1 X69.2516 Y29.9875
G1 X69.5024 Y29.9897
G1 X69.768 Y29.9333
G1 X69.9874 Y29.8349
G1 X70.1978 Y29.6801
G1 X70.3582 Y29.5011
G1 X70.4837 Y29.2838
G1 X70.5585 Y29.0553
G1 X70.5874 Y28.7957
G04 P0 ( dwell for no time -- G64 should not smooth over this point )
G0 Z5
(Block-name: block)
(Block-expand: 0)
(Block-enable: 1)

G0 X70.5874 Y31.3357
G01 F300.00000
G1 Z-0.05
G04 P0 ( dwell for no time -- G64 should not smooth over this point )
G01 F600.00000
G1 X70.5874 Y31.3357
G1 X70.5585 Y31.0761
G1 X70.4837 Y30.8477
G1 X70.3582 Y30.6304
G1 X70.1978 Y30.4514
G1 X69.9874 Y30.2965
G1 X69.7582 Y30.1945
G1 X69.5232 Y30.1439
G1 X69.2724 Y30.1418
G1 X69.0068 Y30.1982
G1 X68.7874 Y30.2965
G1 X68.5926 Y30.4374
G1 X68.4109 Y30.6392
G1 X68.2912 Y30.8477
G1 X68.2457 Y30.9857
G1 X48.4395 Y30.9857
G1 X48.3855 Y30.8613
G1 X48.261 Y30.6927
G1 X48.1208 Y30.5672
G1 X47.939 Y30.4641
G1 X47.7599 Y30.4065
G1 X47.5729 Y30.3863
G1 X46.752 Y30.3863
G1 X46.5649 Y30.4065
G1 X46.3667 Y30.4726
G1 X46.204 Y30.5672
G1 X46.0498 Y30.7082
G1 X45.9349 Y30.87
G1 X45.8589 Y31.0422
G1 X45.8176 Y31.2364
G1 X45.8171 Y31.4246
G1 X45.8627 Y31.6391
G1 X45.9454 Y31.8195
G1 X46.0638 Y31.9788
G1 X46.204 Y32.1043
G1 X46.3858 Y32.2073
G1 X46.5649 Y32.265
G1 X46.7624 Y32.2857
G1 X47.5729 Y32.2852
G1 X47.7599 Y32.265
G1 X47.939 Y32.2073
G1 X48.1208 Y32.1043
G1 X48.261 Y31.9788
G1 X48.3855 Y31.8101
G1 X48.4395 Y31.6857
G1 X68.2457 Y31.6857
G1 X68.2912 Y31.8238
G1 X68.4166 Y32.0411
G1 X68.5771 Y32.2201
G1 X68.7786 Y32.3693
G1 X69.0267 Y32.4797
G1 X69.2516 Y32.5275
G1 X69.5024 Y32.5297
G1 X69.768 Y32.4733
G1 X69.9874 Y32.3749
G1 X70.1978 Y32.2201
G1 X70.3582 Y32.0411
G1 X70.4837 Y31.8238
G1 X70.5585 Y31.5953
G1 X70.5874 Y31.3357
G04 P0 ( dwell for no time -- G64 should not smooth over this point )
G0 Z5
(Block-name: block)
(Block-expand: 0)
(Block-enable: 1)

G0 X70.5874 Y33.8757
G01 F300.00000
G1 Z-0.05
G04 P0 ( dwell for no time -- G64 should not smooth over this point )
G01 F600.00000
G1 X70.5874 Y33.8757
G1 X70.5585 Y33.6161
G1 X70.4837 Y33.3877
G1 X70.3582 Y33.1704
G1 X70.1978 Y32.9914
G1 X69.9874 Y32.8365
G1 X69.7582 Y32.7345
G1 X69.5232 Y32.6839
G1 X69.2724 Y32.6818
G1 X69.0068 Y32.7382
G1 X68.7874 Y32.8365
G1 X68.5926 Y32.9774
G1 X68.4109 Y33.1792
G1 X68.2912 Y33.3877
G1 X68.2457 Y33.5257
G1 X48.4395 Y33.5257
G1 X48.3855 Y33.4013
G1 X48.261 Y33.2327
G1 X48.1208 Y33.1072
G1 X47.939 Y33.0041
G1 X47.77 Y32.9492
G1 X47.5729 Y32.9263
G1 X46.752 Y32.9263
G1 X46.5548 Y32.9492
G1 X46.3667 Y33.0126
G1 X46.204 Y33.1072
G1 X46.0498 Y33.2482
G1 X45.9349 Y33.41
G1 X45.8589 Y33.5822
G1 X45.8176 Y33.7764
G1 X45.8171 Y33.9646
G1 X45.8627 Y34.1791
G1 X45.9454 Y34.3595
G1 X46.0638 Y34.5188
G1 X46.204 Y34.6443
G1 X46.3858 Y34.7473
G1 X46.5752 Y34.8066
G1 X46.7624 Y34.8257
G1 X47.5729 Y34.8252
G1 X47.77 Y34.8023
G1 X47.939 Y34.7473
G1 X48.112 Y34.65
G1 X48.2684 Y34.5114
G1 X48.3855 Y34.3501
G1 X48.4395 Y34.2257
G1 X68.2457 Y34.2257
G1 X68.2912 Y34.3638
G1 X68.4166 Y34.5811
G1 X68.5771 Y34.7601
G1 X68.7786 Y34.9093
G1 X69.0267 Y35.0197
G1 X69.2516 Y35.0675
G1 X69.5024 Y35.0697
G1 X69.768 Y35.0132
G1 X69.9962 Y34.9093
G1 X70.1978 Y34.7601
G1 X70.3582 Y34.5811
G1 X70.4837 Y34.3638
G1 X70.5585 Y34.1353
G1 X70.5874 Y33.8757
G04 P0 ( dwell for no time -- G64 should not smooth over this point )
G0 Z5
(Block-name: block)
(Block-expand: 0)
(Block-enable: 1)

G0 X70.5874 Y36.4157
G01 F300.00000
G1 Z-0.05
G04 P0 ( dwell for no time -- G64 should not smooth over this point )
G01 F600.00000
G1 X70.5874 Y36.4157
G1 X70.5585 Y36.1561
G1 X70.4837 Y35.9276
G1 X70.3582 Y35.7104
G1 X70.1978 Y35.5314
G1 X69.9962 Y35.3822
G1 X69.7582 Y35.2745
G1 X69.5232 Y35.2239
G1 X69.2724 Y35.2218
G1 X69.0068 Y35.2782
G1 X68.7786 Y35.3822
G1 X68.5926 Y35.5174
G1 X68.4109 Y35.7192
G1 X68.2912 Y35.9276
G1 X68.2457 Y36.0657
G1 X48.4395 Y36.0657
G1 X48.3855 Y35.9413
G1 X48.261 Y35.7727
G1 X48.1208 Y35.6472
G1 X47.939 Y35.5441
G1 X47.77 Y35.4892
G1 X47.5729 Y35.4663
G1 X46.752 Y35.4663
G1 X46.5548 Y35.4892
G1 X46.376 Y35.5478
G1 X46.204 Y35.6472
G1 X46.0498 Y35.7882
G1 X45.9349 Y35.95
G1 X45.8589 Y36.1222
G1 X45.8176 Y36.3164
G1 X45.8171 Y36.5046
G1 X45.8627 Y36.7191
G1 X45.9454 Y36.8995
G1 X46.0638 Y37.0588
G1 X46.204 Y37.1843
G1 X46.3858 Y37.2873
G1 X46.5649 Y37.345
G1 X46.7624 Y37.3657
G1 X47.5729 Y37.3652
G1 X47.7599 Y37.345
G1 X47.939 Y37.2873
G1 X48.112 Y37.19
G1 X48.2684 Y37.0514
G1 X48.3855 Y36.8901
G1 X48.4395 Y36.7657
G1 X68.2457 Y36.7657
G1 X68.2959 Y36.9131
G1 X68.4166 Y37.1211
G1 X68.5771 Y37.3001
G1 X68.7786 Y37.4493
G1 X69.0267 Y37.5597
G1 X69.2516 Y37.6075
G1 X69.5024 Y37.6097
G1 X69.768 Y37.5532
G1 X69.9874 Y37.455
G1 X70.1978 Y37.3001
G1 X70.3582 Y37.1211
G1 X70.4837 Y36.9038
G1 X70.5585 Y36.6753
G1 X70.5874 Y36.4157

G04 P0 ( dwell for no time -- G64 should not smooth over this point )
G0 Z10
(Block-name: block)
(Block-expand: 0)
(Block-enable: 1)

M5 ( Spindle off. )
G04 P1.000000
M9 ( Coolant off. )
M2 ( Program end. )

